( Made using CamBam - http://www.cambam.co.uk )
( bulkhead 1/5/2017 9:48:11 AM )
( T3 : 0.125 )
G20 G90 G64 G40
G0 Z0.125
( T3 : 0.125 )
T3 M6
( Drill1 )
G17
M3 S1000
G0 X2.6875 Y-0.6875
G0 Z0.125
G0 X2.7 Y-0.6875
G0 Z0.0625
G1 F40.0 Z0.0
G2 F80.0 X2.6813 Y-0.6983 Z-0.005 I-0.0125 J0.0
G2 Y-0.6767 Z-0.01 I0.0063 J0.0108
G2 X2.7 Y-0.6875 Z-0.015 I0.0063 J-0.0108
G2 X2.6813 Y-0.6983 Z-0.02 I-0.0125 J0.0
G2 Y-0.6767 Z-0.025 I0.0063 J0.0108
G2 X2.7 Y-0.6875 Z-0.03 I0.0063 J-0.0108
G2 X2.6813 Y-0.6983 Z-0.035 I-0.0125 J0.0
G2 Y-0.6767 Z-0.04 I0.0063 J0.0108
G2 X2.7 Y-0.6875 Z-0.045 I0.0063 J-0.0108
G2 X2.6813 Y-0.6983 Z-0.05 I-0.0125 J0.0
G2 Y-0.6767 Z-0.055 I0.0063 J0.0108
G2 X2.7 Y-0.6875 Z-0.06 I0.0063 J-0.0108
G2 X2.6813 Y-0.6983 Z-0.065 I-0.0125 J0.0
G2 Y-0.6767 Z-0.07 I0.0063 J0.0108
G2 X2.7 Y-0.6875 Z-0.075 I0.0063 J-0.0108
G2 X2.6813 Y-0.6983 Z-0.08 I-0.0125 J0.0
G2 Y-0.6767 Z-0.085 I0.0063 J0.0108
G2 X2.7 Y-0.6875 Z-0.09 I0.0063 J-0.0108
G2 X2.6813 Y-0.6983 Z-0.095 I-0.0125 J0.0
G2 Y-0.6767 Z-0.1 I0.0063 J0.0108
G2 X2.7 Y-0.6875 Z-0.105 I0.0063 J-0.0108
G2 X2.6813 Y-0.6983 Z-0.11 I-0.0125 J0.0
G2 Y-0.6767 Z-0.115 I0.0063 J0.0108
G2 X2.7 Y-0.6875 Z-0.12 I0.0063 J-0.0108
G2 X2.6813 Y-0.6983 Z-0.125 I-0.0125 J0.0
G2 Y-0.6767 Z-0.13 I0.0062 J0.0108
G2 X2.7 Y-0.6875 Z-0.135 I0.0063 J-0.0108
G2 X2.6813 Y-0.6983 Z-0.14 I-0.0125 J0.0
G2 Y-0.6767 Z-0.145 I0.0062 J0.0108
G2 X2.7 Y-0.6875 Z-0.15 I0.0063 J-0.0108
G2 X2.6813 Y-0.6983 Z-0.155 I-0.0125 J0.0
G2 Y-0.6767 Z-0.16 I0.0062 J0.0108
G2 X2.7 Y-0.6875 Z-0.165 I0.0063 J-0.0108
G2 X2.6813 Y-0.6983 Z-0.17 I-0.0125 J0.0
G2 Y-0.6767 Z-0.175 I0.0062 J0.0108
G2 X2.7 Y-0.6875 Z-0.18 I0.0063 J-0.0108
G2 X2.6813 Y-0.6983 Z-0.185 I-0.0125 J0.0
G2 Y-0.6767 Z-0.19 I0.0062 J0.0108
G2 X2.7 Y-0.6875 Z-0.195 I0.0063 J-0.0108
G2 X2.6813 Y-0.6983 Z-0.2 I-0.0125 J0.0
G2 Y-0.6767 I0.0062 J0.0108
G2 X2.7 Y-0.6875 I0.0063 J-0.0108
G2 X2.6813 Y-0.6983 I-0.0125 J0.0
G0 Z0.125
G0 X2.0125 Y-0.1875
G0 Z0.0625
G1 F40.0 Z0.0
G2 F80.0 X1.9938 Y-0.1983 Z-0.005 I-0.0125 J0.0
G2 Y-0.1767 Z-0.01 I0.0063 J0.0108
G2 X2.0125 Y-0.1875 Z-0.015 I0.0063 J-0.0108
G2 X1.9938 Y-0.1983 Z-0.02 I-0.0125 J0.0
G2 Y-0.1767 Z-0.025 I0.0063 J0.0108
G2 X2.0125 Y-0.1875 Z-0.03 I0.0063 J-0.0108
G2 X1.9938 Y-0.1983 Z-0.035 I-0.0125 J0.0
G2 Y-0.1767 Z-0.04 I0.0062 J0.0108
G2 X2.0125 Y-0.1875 Z-0.045 I0.0063 J-0.0108
G2 X1.9938 Y-0.1983 Z-0.05 I-0.0125 J0.0
G2 Y-0.1767 Z-0.055 I0.0063 J0.0108
G2 X2.0125 Y-0.1875 Z-0.06 I0.0063 J-0.0108
G2 X1.9938 Y-0.1983 Z-0.065 I-0.0125 J0.0
G2 Y-0.1767 Z-0.07 I0.0063 J0.0108
G2 X2.0125 Y-0.1875 Z-0.075 I0.0062 J-0.0108
G2 X1.9938 Y-0.1983 Z-0.08 I-0.0125 J0.0
G2 Y-0.1767 Z-0.085 I0.0063 J0.0108
G2 X2.0125 Y-0.1875 Z-0.09 I0.0063 J-0.0108
G2 X1.9938 Y-0.1983 Z-0.095 I-0.0125 J0.0
G2 Y-0.1767 Z-0.1 I0.0062 J0.0108
G2 X2.0125 Y-0.1875 Z-0.105 I0.0063 J-0.0108
G2 X1.9938 Y-0.1983 Z-0.11 I-0.0125 J0.0
G2 Y-0.1767 Z-0.115 I0.0062 J0.0108
G2 X2.0125 Y-0.1875 Z-0.12 I0.0063 J-0.0108
G2 X1.9938 Y-0.1983 Z-0.125 I-0.0125 J0.0
G2 Y-0.1767 Z-0.13 I0.0062 J0.0108
G2 X2.0125 Y-0.1875 Z-0.135 I0.0063 J-0.0108
G2 X1.9938 Y-0.1983 Z-0.14 I-0.0125 J0.0
G2 Y-0.1767 Z-0.145 I0.0062 J0.0108
G2 X2.0125 Y-0.1875 Z-0.15 I0.0063 J-0.0108
G2 X1.9938 Y-0.1983 Z-0.155 I-0.0125 J0.0
G2 Y-0.1767 Z-0.16 I0.0062 J0.0108
G2 X2.0125 Y-0.1875 Z-0.165 I0.0063 J-0.0108
G2 X1.9938 Y-0.1983 Z-0.17 I-0.0125 J0.0
G2 Y-0.1767 Z-0.175 I0.0062 J0.0108
G2 X2.0125 Y-0.1875 Z-0.18 I0.0063 J-0.0108
G2 X1.9938 Y-0.1983 Z-0.185 I-0.0125 J0.0
G2 Y-0.1767 Z-0.19 I0.0062 J0.0108
G2 X2.0125 Y-0.1875 Z-0.195 I0.0063 J-0.0108
G2 X1.9938 Y-0.1983 Z-0.2 I-0.0125 J0.0
G2 Y-0.1767 I0.0062 J0.0108
G2 X2.0125 Y-0.1875 I0.0063 J-0.0108
G2 X1.9938 Y-0.1983 I-0.0125 J0.0
G0 Z0.125
G0 X2.0125 Y0.1875
G0 Z0.0625
G1 F40.0 Z0.0
G2 F80.0 X1.9938 Y0.1767 Z-0.005 I-0.0125 J0.0
G2 Y0.1983 Z-0.01 I0.0063 J0.0108
G2 X2.0125 Y0.1875 Z-0.015 I0.0063 J-0.0108
G2 X1.9938 Y0.1767 Z-0.02 I-0.0125 J0.0
G2 Y0.1983 Z-0.025 I0.0063 J0.0108
G2 X2.0125 Y0.1875 Z-0.03 I0.0063 J-0.0108
G2 X1.9938 Y0.1767 Z-0.035 I-0.0125 J0.0
G2 Y0.1983 Z-0.04 I0.0062 J0.0108
G2 X2.0125 Y0.1875 Z-0.045 I0.0063 J-0.0108
G2 X1.9938 Y0.1767 Z-0.05 I-0.0125 J0.0
G2 Y0.1983 Z-0.055 I0.0063 J0.0108
G2 X2.0125 Y0.1875 Z-0.06 I0.0063 J-0.0108
G2 X1.9938 Y0.1767 Z-0.065 I-0.0125 J0.0
G2 Y0.1983 Z-0.07 I0.0063 J0.0108
G2 X2.0125 Y0.1875 Z-0.075 I0.0062 J-0.0108
G2 X1.9938 Y0.1767 Z-0.08 I-0.0125 J0.0
G2 Y0.1983 Z-0.085 I0.0063 J0.0108
G2 X2.0125 Y0.1875 Z-0.09 I0.0063 J-0.0108
G2 X1.9938 Y0.1767 Z-0.095 I-0.0125 J0.0
G2 Y0.1983 Z-0.1 I0.0062 J0.0108
G2 X2.0125 Y0.1875 Z-0.105 I0.0063 J-0.0108
G2 X1.9938 Y0.1767 Z-0.11 I-0.0125 J0.0
G2 Y0.1983 Z-0.115 I0.0062 J0.0108
G2 X2.0125 Y0.1875 Z-0.12 I0.0063 J-0.0108
G2 X1.9938 Y0.1767 Z-0.125 I-0.0125 J0.0
G2 Y0.1983 Z-0.13 I0.0062 J0.0108
G2 X2.0125 Y0.1875 Z-0.135 I0.0063 J-0.0108
G2 X1.9938 Y0.1767 Z-0.14 I-0.0125 J0.0
G2 Y0.1983 Z-0.145 I0.0062 J0.0108
G2 X2.0125 Y0.1875 Z-0.15 I0.0063 J-0.0108
G2 X1.9938 Y0.1767 Z-0.155 I-0.0125 J0.0
G2 Y0.1983 Z-0.16 I0.0062 J0.0108
G2 X2.0125 Y0.1875 Z-0.165 I0.0063 J-0.0108
G2 X1.9938 Y0.1767 Z-0.17 I-0.0125 J0.0
G2 Y0.1983 Z-0.175 I0.0062 J0.0108
G2 X2.0125 Y0.1875 Z-0.18 I0.0063 J-0.0108
G2 X1.9938 Y0.1767 Z-0.185 I-0.0125 J0.0
G2 Y0.1983 Z-0.19 I0.0062 J0.0108
G2 X2.0125 Y0.1875 Z-0.195 I0.0063 J-0.0108
G2 X1.9938 Y0.1767 Z-0.2 I-0.0125 J0.0
G2 Y0.1983 I0.0062 J0.0108
G2 X2.0125 Y0.1875 I0.0063 J-0.0108
G2 X1.9938 Y0.1767 I-0.0125 J0.0
G0 Z0.125
G0 X2.7 Y0.6875
G0 Z0.0625
G1 F40.0 Z0.0
G2 F80.0 X2.6813 Y0.6767 Z-0.005 I-0.0125 J0.0
G2 Y0.6983 Z-0.01 I0.0063 J0.0108
G2 X2.7 Y0.6875 Z-0.015 I0.0063 J-0.0108
G2 X2.6813 Y0.6767 Z-0.02 I-0.0125 J0.0
G2 Y0.6983 Z-0.025 I0.0063 J0.0108
G2 X2.7 Y0.6875 Z-0.03 I0.0063 J-0.0108
G2 X2.6813 Y0.6767 Z-0.035 I-0.0125 J0.0
G2 Y0.6983 Z-0.04 I0.0063 J0.0108
G2 X2.7 Y0.6875 Z-0.045 I0.0063 J-0.0108
G2 X2.6813 Y0.6767 Z-0.05 I-0.0125 J0.0
G2 Y0.6983 Z-0.055 I0.0063 J0.0108
G2 X2.7 Y0.6875 Z-0.06 I0.0063 J-0.0108
G2 X2.6813 Y0.6767 Z-0.065 I-0.0125 J0.0
G2 Y0.6983 Z-0.07 I0.0063 J0.0108
G2 X2.7 Y0.6875 Z-0.075 I0.0063 J-0.0108
G2 X2.6813 Y0.6767 Z-0.08 I-0.0125 J0.0
G2 Y0.6983 Z-0.085 I0.0063 J0.0108
G2 X2.7 Y0.6875 Z-0.09 I0.0063 J-0.0108
G2 X2.6813 Y0.6767 Z-0.095 I-0.0125 J0.0
G2 Y0.6983 Z-0.1 I0.0063 J0.0108
G2 X2.7 Y0.6875 Z-0.105 I0.0063 J-0.0108
G2 X2.6813 Y0.6767 Z-0.11 I-0.0125 J0.0
G2 Y0.6983 Z-0.115 I0.0063 J0.0108
G2 X2.7 Y0.6875 Z-0.12 I0.0063 J-0.0108
G2 X2.6813 Y0.6767 Z-0.125 I-0.0125 J0.0
G2 Y0.6983 Z-0.13 I0.0062 J0.0108
G2 X2.7 Y0.6875 Z-0.135 I0.0063 J-0.0108
G2 X2.6813 Y0.6767 Z-0.14 I-0.0125 J0.0
G2 Y0.6983 Z-0.145 I0.0062 J0.0108
G2 X2.7 Y0.6875 Z-0.15 I0.0063 J-0.0108
G2 X2.6813 Y0.6767 Z-0.155 I-0.0125 J0.0
G2 Y0.6983 Z-0.16 I0.0062 J0.0108
G2 X2.7 Y0.6875 Z-0.165 I0.0063 J-0.0108
G2 X2.6813 Y0.6767 Z-0.17 I-0.0125 J0.0
G2 Y0.6983 Z-0.175 I0.0062 J0.0108
G2 X2.7 Y0.6875 Z-0.18 I0.0063 J-0.0108
G2 X2.6813 Y0.6767 Z-0.185 I-0.0125 J0.0
G2 Y0.6983 Z-0.19 I0.0062 J0.0108
G2 X2.7 Y0.6875 Z-0.195 I0.0063 J-0.0108
G2 X2.6813 Y0.6767 Z-0.2 I-0.0125 J0.0
G2 Y0.6983 I0.0062 J0.0108
G2 X2.7 Y0.6875 I0.0063 J-0.0108
G2 X2.6813 Y0.6767 I-0.0125 J0.0
G0 Z0.125
G0 X4.5125 Y0.1875
G0 Z0.0625
G1 F40.0 Z0.0
G2 F80.0 X4.4938 Y0.1767 Z-0.005 I-0.0125 J0.0
G2 Y0.1983 Z-0.01 I0.0062 J0.0108
G2 X4.5125 Y0.1875 Z-0.015 I0.0062 J-0.0108
G2 X4.4938 Y0.1767 Z-0.02 I-0.0125 J0.0
G2 Y0.1983 Z-0.025 I0.0062 J0.0108
G2 X4.5125 Y0.1875 Z-0.03 I0.0062 J-0.0108
G2 X4.4938 Y0.1767 Z-0.035 I-0.0125 J0.0
G2 Y0.1983 Z-0.04 I0.0062 J0.0108
G2 X4.5125 Y0.1875 Z-0.045 I0.0062 J-0.0108
G2 X4.4938 Y0.1767 Z-0.05 I-0.0125 J0.0
G2 Y0.1983 Z-0.055 I0.0062 J0.0108
G2 X4.5125 Y0.1875 Z-0.06 I0.0062 J-0.0108
G2 X4.4938 Y0.1767 Z-0.065 I-0.0125 J0.0
G2 Y0.1983 Z-0.07 I0.0062 J0.0108
G2 X4.5125 Y0.1875 Z-0.075 I0.0062 J-0.0108
G2 X4.4938 Y0.1767 Z-0.08 I-0.0125 J0.0
G2 Y0.1983 Z-0.085 I0.0062 J0.0108
G2 X4.5125 Y0.1875 Z-0.09 I0.0062 J-0.0108
G2 X4.4938 Y0.1767 Z-0.095 I-0.0125 J0.0
G2 Y0.1983 Z-0.1 I0.0062 J0.0108
G2 X4.5125 Y0.1875 Z-0.105 I0.0062 J-0.0108
G2 X4.4938 Y0.1767 Z-0.11 I-0.0125 J0.0
G2 Y0.1983 Z-0.115 I0.0062 J0.0108
G2 X4.5125 Y0.1875 Z-0.12 I0.0063 J-0.0108
G2 X4.4938 Y0.1767 Z-0.125 I-0.0125 J0.0
G2 Y0.1983 Z-0.13 I0.0062 J0.0108
G2 X4.5125 Y0.1875 Z-0.135 I0.0063 J-0.0108
G2 X4.4938 Y0.1767 Z-0.14 I-0.0125 J0.0
G2 Y0.1983 Z-0.145 I0.0062 J0.0108
G2 X4.5125 Y0.1875 Z-0.15 I0.0063 J-0.0108
G2 X4.4938 Y0.1767 Z-0.155 I-0.0125 J0.0
G2 Y0.1983 Z-0.16 I0.0062 J0.0108
G2 X4.5125 Y0.1875 Z-0.165 I0.0063 J-0.0108
G2 X4.4938 Y0.1767 Z-0.17 I-0.0125 J0.0
G2 Y0.1983 Z-0.175 I0.0062 J0.0108
G2 X4.5125 Y0.1875 Z-0.18 I0.0063 J-0.0108
G2 X4.4938 Y0.1767 Z-0.185 I-0.0125 J0.0
G2 Y0.1983 Z-0.19 I0.0062 J0.0108
G2 X4.5125 Y0.1875 Z-0.195 I0.0063 J-0.0108
G2 X4.4938 Y0.1767 Z-0.2 I-0.0125 J0.0
G2 Y0.1983 I0.0062 J0.0108
G2 X4.5125 Y0.1875 I0.0063 J-0.0108
G2 X4.4938 Y0.1767 I-0.0125 J0.0
G0 Z0.125
G0 X4.5125 Y-0.1875
G0 Z0.0625
G1 F40.0 Z0.0
G2 F80.0 X4.4938 Y-0.1983 Z-0.005 I-0.0125 J0.0
G2 Y-0.1767 Z-0.01 I0.0062 J0.0108
G2 X4.5125 Y-0.1875 Z-0.015 I0.0062 J-0.0108
G2 X4.4938 Y-0.1983 Z-0.02 I-0.0125 J0.0
G2 Y-0.1767 Z-0.025 I0.0062 J0.0108
G2 X4.5125 Y-0.1875 Z-0.03 I0.0062 J-0.0108
G2 X4.4938 Y-0.1983 Z-0.035 I-0.0125 J0.0
G2 Y-0.1767 Z-0.04 I0.0062 J0.0108
G2 X4.5125 Y-0.1875 Z-0.045 I0.0062 J-0.0108
G2 X4.4938 Y-0.1983 Z-0.05 I-0.0125 J0.0
G2 Y-0.1767 Z-0.055 I0.0062 J0.0108
G2 X4.5125 Y-0.1875 Z-0.06 I0.0062 J-0.0108
G2 X4.4938 Y-0.1983 Z-0.065 I-0.0125 J0.0
G2 Y-0.1767 Z-0.07 I0.0062 J0.0108
G2 X4.5125 Y-0.1875 Z-0.075 I0.0062 J-0.0108
G2 X4.4938 Y-0.1983 Z-0.08 I-0.0125 J0.0
G2 Y-0.1767 Z-0.085 I0.0062 J0.0108
G2 X4.5125 Y-0.1875 Z-0.09 I0.0062 J-0.0108
G2 X4.4938 Y-0.1983 Z-0.095 I-0.0125 J0.0
G2 Y-0.1767 Z-0.1 I0.0062 J0.0108
G2 X4.5125 Y-0.1875 Z-0.105 I0.0062 J-0.0108
G2 X4.4938 Y-0.1983 Z-0.11 I-0.0125 J0.0
G2 Y-0.1767 Z-0.115 I0.0062 J0.0108
G2 X4.5125 Y-0.1875 Z-0.12 I0.0063 J-0.0108
G2 X4.4938 Y-0.1983 Z-0.125 I-0.0125 J0.0
G2 Y-0.1767 Z-0.13 I0.0062 J0.0108
G2 X4.5125 Y-0.1875 Z-0.135 I0.0063 J-0.0108
G2 X4.4938 Y-0.1983 Z-0.14 I-0.0125 J0.0
G2 Y-0.1767 Z-0.145 I0.0062 J0.0108
G2 X4.5125 Y-0.1875 Z-0.15 I0.0063 J-0.0108
G2 X4.4938 Y-0.1983 Z-0.155 I-0.0125 J0.0
G2 Y-0.1767 Z-0.16 I0.0062 J0.0108
G2 X4.5125 Y-0.1875 Z-0.165 I0.0063 J-0.0108
G2 X4.4938 Y-0.1983 Z-0.17 I-0.0125 J0.0
G2 Y-0.1767 Z-0.175 I0.0062 J0.0108
G2 X4.5125 Y-0.1875 Z-0.18 I0.0063 J-0.0108
G2 X4.4938 Y-0.1983 Z-0.185 I-0.0125 J0.0
G2 Y-0.1767 Z-0.19 I0.0062 J0.0108
G2 X4.5125 Y-0.1875 Z-0.195 I0.0063 J-0.0108
G2 X4.4938 Y-0.1983 Z-0.2 I-0.0125 J0.0
G2 Y-0.1767 I0.0062 J0.0108
G2 X4.5125 Y-0.1875 I0.0063 J-0.0108
G2 X4.4938 Y-0.1983 I-0.0125 J0.0
G0 Z0.125
G0 X5.2 Y-0.6875
G0 Z0.0625
G1 F40.0 Z0.0
G2 F80.0 X5.1813 Y-0.6983 Z-0.005 I-0.0125 J0.0
G2 Y-0.6767 Z-0.01 I0.0062 J0.0108
G2 X5.2 Y-0.6875 Z-0.015 I0.0062 J-0.0108
G2 X5.1813 Y-0.6983 Z-0.02 I-0.0125 J0.0
G2 Y-0.6767 Z-0.025 I0.0062 J0.0108
G2 X5.2 Y-0.6875 Z-0.03 I0.0062 J-0.0108
G2 X5.1813 Y-0.6983 Z-0.035 I-0.0125 J0.0
G2 Y-0.6767 Z-0.04 I0.0062 J0.0108
G2 X5.2 Y-0.6875 Z-0.045 I0.0062 J-0.0108
G2 X5.1813 Y-0.6983 Z-0.05 I-0.0125 J0.0
G2 Y-0.6767 Z-0.055 I0.0062 J0.0108
G2 X5.2 Y-0.6875 Z-0.06 I0.0062 J-0.0108
G2 X5.1813 Y-0.6983 Z-0.065 I-0.0125 J0.0
G2 Y-0.6767 Z-0.07 I0.0062 J0.0108
G2 X5.2 Y-0.6875 Z-0.075 I0.0062 J-0.0108
G2 X5.1813 Y-0.6983 Z-0.08 I-0.0125 J0.0
G2 Y-0.6767 Z-0.085 I0.0062 J0.0108
G2 X5.2 Y-0.6875 Z-0.09 I0.0062 J-0.0108
G2 X5.1813 Y-0.6983 Z-0.095 I-0.0125 J0.0
G2 Y-0.6767 Z-0.1 I0.0062 J0.0108
G2 X5.2 Y-0.6875 Z-0.105 I0.0062 J-0.0108
G2 X5.1813 Y-0.6983 Z-0.11 I-0.0125 J0.0
G2 Y-0.6767 Z-0.115 I0.0062 J0.0108
G2 X5.2 Y-0.6875 Z-0.12 I0.0063 J-0.0108
G2 X5.1813 Y-0.6983 Z-0.125 I-0.0125 J0.0
G2 Y-0.6767 Z-0.13 I0.0062 J0.0108
G2 X5.2 Y-0.6875 Z-0.135 I0.0063 J-0.0108
G2 X5.1813 Y-0.6983 Z-0.14 I-0.0125 J0.0
G2 Y-0.6767 Z-0.145 I0.0062 J0.0108
G2 X5.2 Y-0.6875 Z-0.15 I0.0063 J-0.0108
G2 X5.1813 Y-0.6983 Z-0.155 I-0.0125 J0.0
G2 Y-0.6767 Z-0.16 I0.0062 J0.0108
G2 X5.2 Y-0.6875 Z-0.165 I0.0063 J-0.0108
G2 X5.1813 Y-0.6983 Z-0.17 I-0.0125 J0.0
G2 Y-0.6767 Z-0.175 I0.0062 J0.0108
G2 X5.2 Y-0.6875 Z-0.18 I0.0063 J-0.0108
G2 X5.1813 Y-0.6983 Z-0.185 I-0.0125 J0.0
G2 Y-0.6767 Z-0.19 I0.0062 J0.0108
G2 X5.2 Y-0.6875 Z-0.195 I0.0063 J-0.0108
G2 X5.1813 Y-0.6983 Z-0.2 I-0.0125 J0.0
G2 Y-0.6767 I0.0062 J0.0108
G2 X5.2 Y-0.6875 I0.0063 J-0.0108
G2 X5.1813 Y-0.6983 I-0.0125 J0.0
G0 Z0.125
G0 X5.2 Y0.6875
G0 Z0.0625
G1 F40.0 Z0.0
G2 F80.0 X5.1813 Y0.6767 Z-0.005 I-0.0125 J0.0
G2 Y0.6983 Z-0.01 I0.0062 J0.0108
G2 X5.2 Y0.6875 Z-0.015 I0.0062 J-0.0108
G2 X5.1813 Y0.6767 Z-0.02 I-0.0125 J0.0
G2 Y0.6983 Z-0.025 I0.0062 J0.0108
G2 X5.2 Y0.6875 Z-0.03 I0.0062 J-0.0108
G2 X5.1813 Y0.6767 Z-0.035 I-0.0125 J0.0
G2 Y0.6983 Z-0.04 I0.0062 J0.0108
G2 X5.2 Y0.6875 Z-0.045 I0.0062 J-0.0108
G2 X5.1813 Y0.6767 Z-0.05 I-0.0125 J0.0
G2 Y0.6983 Z-0.055 I0.0062 J0.0108
G2 X5.2 Y0.6875 Z-0.06 I0.0062 J-0.0108
G2 X5.1813 Y0.6767 Z-0.065 I-0.0125 J0.0
G2 Y0.6983 Z-0.07 I0.0062 J0.0108
G2 X5.2 Y0.6875 Z-0.075 I0.0062 J-0.0108
G2 X5.1813 Y0.6767 Z-0.08 I-0.0125 J0.0
G2 Y0.6983 Z-0.085 I0.0062 J0.0108
G2 X5.2 Y0.6875 Z-0.09 I0.0062 J-0.0108
G2 X5.1813 Y0.6767 Z-0.095 I-0.0125 J0.0
G2 Y0.6983 Z-0.1 I0.0062 J0.0108
G2 X5.2 Y0.6875 Z-0.105 I0.0062 J-0.0108
G2 X5.1813 Y0.6767 Z-0.11 I-0.0125 J0.0
G2 Y0.6983 Z-0.115 I0.0062 J0.0108
G2 X5.2 Y0.6875 Z-0.12 I0.0063 J-0.0108
G2 X5.1813 Y0.6767 Z-0.125 I-0.0125 J0.0
G2 Y0.6983 Z-0.13 I0.0062 J0.0108
G2 X5.2 Y0.6875 Z-0.135 I0.0063 J-0.0108
G2 X5.1813 Y0.6767 Z-0.14 I-0.0125 J0.0
G2 Y0.6983 Z-0.145 I0.0062 J0.0108
G2 X5.2 Y0.6875 Z-0.15 I0.0063 J-0.0108
G2 X5.1813 Y0.6767 Z-0.155 I-0.0125 J0.0
G2 Y0.6983 Z-0.16 I0.0062 J0.0108
G2 X5.2 Y0.6875 Z-0.165 I0.0063 J-0.0108
G2 X5.1813 Y0.6767 Z-0.17 I-0.0125 J0.0
G2 Y0.6983 Z-0.175 I0.0062 J0.0108
G2 X5.2 Y0.6875 Z-0.18 I0.0063 J-0.0108
G2 X5.1813 Y0.6767 Z-0.185 I-0.0125 J0.0
G2 Y0.6983 Z-0.19 I0.0062 J0.0108
G2 X5.2 Y0.6875 Z-0.195 I0.0063 J-0.0108
G2 X5.1813 Y0.6767 Z-0.2 I-0.0125 J0.0
G2 Y0.6983 I0.0062 J0.0108
G2 X5.2 Y0.6875 I0.0063 J-0.0108
G2 X5.1813 Y0.6767 I-0.0125 J0.0
( Pocket1 )
S1000
G0 Z0.125
G0 X2.5445 Y-0.0313
G0 Z0.0625
G1 F40.0 Z-0.0313
G1 F80.0 X2.0437 Y-0.8985
G1 X2.5445 Y-0.0313
G0 Z0.125
G0 X3.6 Y0.0
G0 Z0.0625
G1 F40.0 Z-0.0313
G1 F80.0 X2.5986
G2 X2.5445 Y0.0313 I0.0 J0.0625
G1 X2.0437 Y0.8985
G1 X2.5445 Y0.0312
G2 Y-0.0312 I-0.0541 J-0.0312
G2 X2.5986 Y0.0 I0.0541 J-0.0312
G1 F40.0 X2.5445 Y-0.0313
G1 Z-0.0625
G1 F80.0 X2.0437 Y-0.8985
G1 X2.5445 Y-0.0313
G0 Z0.125
G0 X3.6 Y0.0
G0 Z0.0312
G1 F40.0 Z-0.0625
G1 F80.0 X2.5986
G2 X2.5445 Y0.0313 I0.0 J0.0625
G1 X2.0437 Y0.8985
G1 X2.5445 Y0.0312
G2 Y-0.0312 I-0.0541 J-0.0312
G2 X2.5986 Y0.0 I0.0541 J-0.0312
G0 Z0.125
G0 X1.0375
G0 Z0.0625
G1 F40.0 Z-0.0313
G1 F80.0 X0.0361
G2 X-0.018 Y0.0313 I0.0 J0.0625
G1 X-0.5188 Y0.8985
G1 X-0.018 Y0.0312
G2 Y-0.0312 I-0.0541 J-0.0312
G2 X0.0361 Y0.0 I0.0541 J-0.0312
G1 F40.0 X-0.018 Y-0.0313
G1 F80.0 X-0.5188 Y-0.8985
G1 X-0.018 Y-0.0313
G1 F40.0 Z-0.0625
G1 F80.0 X-0.5188 Y-0.8985
G1 X-0.018 Y-0.0313
G0 Z0.125
G0 X1.0375 Y0.0
G0 Z0.0312
G1 F40.0 Z-0.0625
G1 F80.0 X0.0361
G2 X-0.018 Y0.0313 I0.0 J0.0625
G1 X-0.5188 Y0.8985
G1 X-0.018 Y0.0312
G2 Y-0.0312 I-0.0541 J-0.0312
G2 X0.0361 Y0.0 I0.0541 J-0.0312
G0 Z0.125
G0 X0.7312 Y1.4765
G0 Z0.0625
G1 F40.0 Z-0.0313
G1 F80.0 X1.232 Y2.3437
G1 X0.7312 Y1.4765
G0 Z0.125
G0 X2.2875 Y2.375
G0 Z0.0625
G1 F40.0 Z-0.0313
G1 F80.0 X1.2861
G2 X1.232 Y2.4063 I0.0 J0.0625
G1 X0.7312 Y3.2735
G1 X1.232 Y2.4062
G2 Y2.3438 I-0.0541 J-0.0312
G2 X1.2861 Y2.375 I0.0541 J-0.0312
G1 F40.0 X1.232 Y2.3437
G1 Z-0.0625
G1 F80.0 X0.7312 Y1.4765
G1 X1.232 Y2.3437
G0 Z0.125
G0 X2.2875 Y2.375
G0 Z0.0312
G1 F40.0 Z-0.0625
G1 F80.0 X1.2861
G2 X1.232 Y2.4063 I0.0 J0.0625
G1 X0.7312 Y3.2735
G1 X1.232 Y2.4062
G2 Y2.3438 I-0.0541 J-0.0312
G2 X1.2861 Y2.375 I0.0541 J-0.0312
( holes )
S1000
G0 Z0.125
G0 X5.5625 Y1.9375
G0 Z0.0625
G1 F40.0 Z-0.0625
G1 F80.0 Y2.6875
G1 X5.9375
G1 Y1.9375
G1 X5.5625
G1 F40.0 Z-0.125
G1 F80.0 Y2.6875
G1 X5.9375
G1 Y1.9375
G1 X5.5625
G1 F40.0 Z-0.1875
G1 F80.0 Y2.6875
G1 X5.9375
G1 Y1.9375
G1 X5.5625
G1 F40.0 Z-0.2
G1 F80.0 Y2.6875
G1 X5.9375
G1 Y1.9375
G1 X5.5625
G0 Z0.125
G0 X4.6875
G0 Z0.0625
G1 F40.0 Z-0.0625
G1 F80.0 X4.3125
G1 Y2.6875
G1 X4.6875
G1 Y1.9375
G1 F40.0 Z-0.125
G1 F80.0 X4.3125
G1 Y2.6875
G1 X4.6875
G1 Y1.9375
G1 F40.0 Z-0.1875
G1 F80.0 X4.3125
G1 Y2.6875
G1 X4.6875
G1 Y1.9375
G1 F40.0 Z-0.2
G1 F80.0 X4.3125
G1 Y2.6875
G1 X4.6875
G1 Y1.9375
G0 Z0.125
G0 X3.4375
G0 Z0.0625
G1 F40.0 Z-0.0625
G1 F80.0 X3.0625
G1 Y2.6875
G1 X3.4375
G1 Y1.9375
G1 F40.0 Z-0.125
G1 F80.0 X3.0625
G1 Y2.6875
G1 X3.4375
G1 Y1.9375
G1 F40.0 Z-0.1875
G1 F80.0 X3.0625
G1 Y2.6875
G1 X3.4375
G1 Y1.9375
G1 F40.0 Z-0.2
G1 F80.0 X3.0625
G1 Y2.6875
G1 X3.4375
G1 Y1.9375
G0 Z0.125
G0 X1.8046 Y2.2641
G0 Z0.0625
G1 F40.0 Z-0.0625
G2 F80.0 X0.9672 Y1.8852 I-0.5546 J0.1109
G2 Y2.8648 I0.2828 J0.4898
G2 X1.8156 Y2.375 I0.2828 J-0.4898
G2 X1.8046 Y2.2641 I-0.5656 J0.0
G1 F40.0 Z-0.125
G2 F80.0 X0.9672 Y1.8852 I-0.5546 J0.1109
G2 Y2.8648 I0.2828 J0.4898
G2 X1.8156 Y2.375 I0.2828 J-0.4898
G2 X1.8046 Y2.2641 I-0.5656 J0.0
G1 F40.0 Z-0.1875
G2 F80.0 X0.9672 Y1.8852 I-0.5546 J0.1109
G2 Y2.8648 I0.2828 J0.4898
G2 X1.8156 Y2.375 I0.2828 J-0.4898
G2 X1.8046 Y2.2641 I-0.5656 J0.0
G1 F40.0 Z-0.2
G2 F80.0 X0.9672 Y1.8852 I-0.5546 J0.1109
G2 Y2.8648 I0.2828 J0.4898
G2 X1.8156 Y2.375 I0.2828 J-0.4898
G2 X1.8046 Y2.2641 I-0.5656 J0.0
G0 Z0.125
G0 X0.3525 Y0.4423
G0 Z0.0625
G1 F40.0 Z-0.0625
G2 F80.0 X0.5656 Y0.0 I-0.3525 J-0.4423
G2 X-0.2828 Y-0.4898 I-0.5656 J0.0
G2 Y0.4898 I0.2828 J0.4898
G2 X0.3525 Y0.4423 I0.2828 J-0.4898
G1 F40.0 Z-0.125
G2 F80.0 X0.5656 Y0.0 I-0.3525 J-0.4423
G2 X-0.2828 Y-0.4898 I-0.5656 J0.0
G2 Y0.4898 I0.2828 J0.4898
G2 X0.3525 Y0.4423 I0.2828 J-0.4898
G1 F40.0 Z-0.1875
G2 F80.0 X0.5656 Y0.0 I-0.3525 J-0.4423
G2 X-0.2828 Y-0.4898 I-0.5656 J0.0
G2 Y0.4898 I0.2828 J0.4898
G2 X0.3525 Y0.4423 I0.2828 J-0.4898
G1 F40.0 Z-0.2
G2 F80.0 X0.5656 Y0.0 I-0.3525 J-0.4423
G2 X-0.2828 Y-0.4898 I-0.5656 J0.0
G2 Y0.4898 I0.2828 J0.4898
G2 X0.3525 Y0.4423 I0.2828 J-0.4898
( cutouts )
S1000
G0 Z0.125
G0 X3.625 Y0.0
G0 Z0.0625
G1 F40.0 Z-0.0625
G3 F80.0 X3.3758 Y0.6837 I-1.0625 J0.0
G3 X3.147 Y0.8873 Z0.0 I-0.8133 J-0.6837
G3 X3.0387 Y0.9498 I-0.5845 J-0.8873
G3 X2.7479 Y1.0462 Z-0.0625 I-0.4762 J-0.9498
G3 X2.0313 Y0.9202 I-0.1854 J-1.0462
G3 X1.5638 Y0.3625 I0.5313 J-0.9202
G3 X1.5018 Y0.0625 Z0.0 I0.9987 J-0.3625
G3 Y-0.0625 I1.0607 J-0.0625
G3 X1.5638 Y-0.3625 Z-0.0625 I1.0607 J0.0625
G3 X2.0313 Y-0.9202 I0.9987 J0.3625
G3 X2.7479 Y-1.0462 I0.5313 J0.9202
G3 X3.0387 Y-0.9498 Z0.0 I-0.1854 J1.0462
G3 X3.147 Y-0.8873 I-0.4762 J0.9498
G3 X3.3758 Y-0.6837 Z-0.0625 I-0.5845 J0.8873
G3 X3.625 Y0.0 I-0.8133 J0.6837
G1 F40.0 Z-0.125
G3 F80.0 X3.3758 Y0.6837 I-1.0625 J0.0
G3 X3.147 Y0.8873 Z0.0 I-0.8133 J-0.6837
G3 X3.0387 Y0.9498 I-0.5845 J-0.8873
G3 X2.7479 Y1.0462 Z-0.125 I-0.4762 J-0.9498
G3 X2.0313 Y0.9202 I-0.1854 J-1.0462
G3 X1.5638 Y0.3625 I0.5313 J-0.9202
G3 X1.5018 Y0.0625 Z0.0 I0.9987 J-0.3625
G3 Y-0.0625 I1.0607 J-0.0625
G3 X1.5638 Y-0.3625 Z-0.125 I1.0607 J0.0625
G3 X2.0313 Y-0.9202 I0.9987 J0.3625
G3 X2.7479 Y-1.0462 I0.5313 J0.9202
G3 X3.0387 Y-0.9498 Z0.0 I-0.1854 J1.0462
G3 X3.147 Y-0.8873 I-0.4762 J0.9498
G3 X3.3758 Y-0.6837 Z-0.125 I-0.5845 J0.8873
G3 X3.625 Y0.0 I-0.8133 J0.6837
G1 F40.0 Z-0.1875
G3 F80.0 X3.3758 Y0.6837 I-1.0625 J0.0
G3 X3.147 Y0.8873 Z0.0 I-0.8133 J-0.6837
G3 X3.0387 Y0.9498 I-0.5845 J-0.8873
G3 X2.7479 Y1.0462 Z-0.1875 I-0.4762 J-0.9498
G3 X2.0313 Y0.9202 I-0.1854 J-1.0462
G3 X1.5638 Y0.3625 I0.5313 J-0.9202
G3 X1.5018 Y0.0625 Z0.0 I0.9987 J-0.3625
G3 Y-0.0625 I1.0607 J-0.0625
G3 X1.5638 Y-0.3625 Z-0.1875 I1.0607 J0.0625
G3 X2.0313 Y-0.9202 I0.9987 J0.3625
G3 X2.7479 Y-1.0462 I0.5313 J0.9202
G3 X3.0387 Y-0.9498 Z0.0 I-0.1854 J1.0462
G3 X3.147 Y-0.8873 I-0.4762 J0.9498
G3 X3.3758 Y-0.6837 Z-0.1875 I-0.5845 J0.8873
G3 X3.625 Y0.0 I-0.8133 J0.6837
G1 F40.0 Z-0.2
G3 F80.0 X3.3758 Y0.6837 I-1.0625 J0.0
G3 X3.147 Y0.8873 Z0.0 I-0.8133 J-0.6837
G3 X3.0387 Y0.9498 I-0.5845 J-0.8873
G3 X2.7479 Y1.0462 Z-0.2 I-0.4762 J-0.9498
G3 X2.0313 Y0.9202 I-0.1854 J-1.0462
G3 X1.5638 Y0.3625 I0.5313 J-0.9202
G3 X1.5018 Y0.0625 Z0.0 I0.9987 J-0.3625
G3 Y-0.0625 I1.0607 J-0.0625
G3 X1.5638 Y-0.3625 Z-0.2 I1.0607 J0.0625
G3 X2.0313 Y-0.9202 I0.9987 J0.3625
G3 X2.7479 Y-1.0462 I0.5313 J0.9202
G3 X3.0387 Y-0.9498 Z0.0 I-0.1854 J1.0462
G3 X3.147 Y-0.8873 I-0.4762 J0.9498
G3 X3.3758 Y-0.6837 Z-0.2 I-0.5845 J0.8873
G3 X3.625 Y0.0 I-0.8133 J0.6837
G0 Z0.125
G0 X4.0
G1 F40.0 Z0.0
G3 F80.0 X4.0018 Y-0.0625 I1.0625 J0.0
G3 X4.0638 Y-0.3625 Z-0.0625 I1.0607 J0.0625
G3 X4.5313 Y-0.9202 I0.9987 J0.3625
G3 X5.2479 Y-1.0462 I0.5313 J0.9202
G3 X5.5387 Y-0.9498 Z0.0 I-0.1854 J1.0462
G3 X5.647 Y-0.8873 I-0.4762 J0.9498
G3 X5.8758 Y-0.6837 Z-0.0625 I-0.5845 J0.8873
G3 X6.125 Y0.0 I-0.8133 J0.6837
G3 X5.8758 Y0.6837 I-1.0625 J0.0
G3 X5.647 Y0.8873 Z0.0 I-0.8133 J-0.6837
G3 X5.5387 Y0.9498 I-0.5845 J-0.8873
G3 X5.2479 Y1.0462 Z-0.0625 I-0.4762 J-0.9498
G3 X4.5313 Y0.9202 I-0.1854 J-1.0462
G3 X4.0638 Y0.3625 I0.5313 J-0.9202
G3 X4.0018 Y0.0625 Z0.0 I0.9987 J-0.3625
G3 X4.0 Y0.0 I1.0607 J-0.0625
G3 X4.0018 Y-0.0625 I1.0625 J0.0
G3 X4.0638 Y-0.3625 Z-0.125 I1.0607 J0.0625
G3 X4.5313 Y-0.9202 I0.9987 J0.3625
G3 X5.2479 Y-1.0462 I0.5313 J0.9202
G3 X5.5387 Y-0.9498 Z0.0 I-0.1854 J1.0462
G3 X5.647 Y-0.8873 I-0.4762 J0.9498
G3 X5.8758 Y-0.6837 Z-0.125 I-0.5845 J0.8873
G3 X6.125 Y0.0 I-0.8133 J0.6837
G3 X5.8758 Y0.6837 I-1.0625 J0.0
G3 X5.647 Y0.8873 Z0.0 I-0.8133 J-0.6837
G3 X5.5387 Y0.9498 I-0.5845 J-0.8873
G3 X5.2479 Y1.0462 Z-0.125 I-0.4762 J-0.9498
G3 X4.5313 Y0.9202 I-0.1854 J-1.0462
G3 X4.0638 Y0.3625 I0.5313 J-0.9202
G3 X4.0018 Y0.0625 Z0.0 I0.9987 J-0.3625
G3 X4.0 Y0.0 I1.0607 J-0.0625
G3 X4.0018 Y-0.0625 I1.0625 J0.0
G3 X4.0638 Y-0.3625 Z-0.1875 I1.0607 J0.0625
G3 X4.5313 Y-0.9202 I0.9987 J0.3625
G3 X5.2479 Y-1.0462 I0.5313 J0.9202
G3 X5.5387 Y-0.9498 Z0.0 I-0.1854 J1.0462
G3 X5.647 Y-0.8873 I-0.4762 J0.9498
G3 X5.8758 Y-0.6837 Z-0.1875 I-0.5845 J0.8873
G3 X6.125 Y0.0 I-0.8133 J0.6837
G3 X5.8758 Y0.6837 I-1.0625 J0.0
G3 X5.647 Y0.8873 Z0.0 I-0.8133 J-0.6837
G3 X5.5387 Y0.9498 I-0.5845 J-0.8873
G3 X5.2479 Y1.0462 Z-0.1875 I-0.4762 J-0.9498
G3 X4.5313 Y0.9202 I-0.1854 J-1.0462
G3 X4.0638 Y0.3625 I0.5313 J-0.9202
G3 X4.0018 Y0.0625 Z0.0 I0.9987 J-0.3625
G3 X4.0 Y0.0 I1.0607 J-0.0625
G3 X4.0018 Y-0.0625 I1.0625 J0.0
G3 X4.0638 Y-0.3625 Z-0.2 I1.0607 J0.0625
G3 X4.5313 Y-0.9202 I0.9987 J0.3625
G3 X5.2479 Y-1.0462 I0.5313 J0.9202
G3 X5.5387 Y-0.9498 Z0.0 I-0.1854 J1.0462
G3 X5.647 Y-0.8873 I-0.4762 J0.9498
G3 X5.8758 Y-0.6837 Z-0.2 I-0.5845 J0.8873
G3 X6.125 Y0.0 I-0.8133 J0.6837
G3 X5.8758 Y0.6837 I-1.0625 J0.0
G3 X5.647 Y0.8873 Z0.0 I-0.8133 J-0.6837
G3 X5.5387 Y0.9498 I-0.5845 J-0.8873
G3 X5.2479 Y1.0462 Z-0.2 I-0.4762 J-0.9498
G3 X4.5313 Y0.9202 I-0.1854 J-1.0462
G3 X4.0638 Y0.3625 I0.5313 J-0.9202
G3 X4.0018 Y0.0625 Z0.0 I0.9987 J-0.3625
G3 X4.0 Y0.0 I1.0607 J-0.0625
G0 Z0.125
G0 Y1.4375
G0 Z0.0625
G1 F40.0 Z-0.0625
G1 F80.0 X4.068
G1 X4.368 Z0.0
G1 X4.493
G1 X4.793 Z-0.0625
G1 X4.875
G3 X4.9375 Y1.5 I0.0 J0.0625
G1 Y2.5287
G1 Y2.8287 Z0.0
G1 Y2.9537
G1 Y3.2537 Z-0.0625
G1 Y3.5
G3 X4.875 Y3.5625 I-0.0625 J0.0
G1 X4.566
G3 X4.5035 Y3.5 I0.0 J-0.0625
G2 X4.0 Y2.9965 I-0.5035 J0.0
G3 X3.9375 Y2.934 I0.0 J-0.0625
G1 Y2.8
G1 Y2.5 Z0.0
G1 Y2.375
G1 Y2.075 Z-0.0625
G1 Y1.5
G3 X4.0 Y1.4375 I0.0625 J0.0
G1 F40.0 Z-0.125
G1 F80.0 X4.068
G1 X4.368 Z0.0
G1 X4.493
G1 X4.793 Z-0.125
G1 X4.875
G3 X4.9375 Y1.5 I0.0 J0.0625
G1 Y2.5287
G1 Y2.8287 Z0.0
G1 Y2.9537
G1 Y3.2537 Z-0.125
G1 Y3.5
G3 X4.875 Y3.5625 I-0.0625 J0.0
G1 X4.566
G3 X4.5035 Y3.5 I0.0 J-0.0625
G2 X4.0 Y2.9965 I-0.5035 J0.0
G3 X3.9375 Y2.934 I0.0 J-0.0625
G1 Y2.8
G1 Y2.5 Z0.0
G1 Y2.375
G1 Y2.075 Z-0.125
G1 Y1.5
G3 X4.0 Y1.4375 I0.0625 J0.0
G1 F40.0 Z-0.1875
G1 F80.0 X4.068
G1 X4.368 Z0.0
G1 X4.493
G1 X4.793 Z-0.1875
G1 X4.875
G3 X4.9375 Y1.5 I0.0 J0.0625
G1 Y2.5287
G1 Y2.8287 Z0.0
G1 Y2.9537
G1 Y3.2537 Z-0.1875
G1 Y3.5
G3 X4.875 Y3.5625 I-0.0625 J0.0
G1 X4.566
G3 X4.5035 Y3.5 I0.0 J-0.0625
G2 X4.0 Y2.9965 I-0.5035 J0.0
G3 X3.9375 Y2.934 I0.0 J-0.0625
G1 Y2.8
G1 Y2.5 Z0.0
G1 Y2.375
G1 Y2.075 Z-0.1875
G1 Y1.5
G3 X4.0 Y1.4375 I0.0625 J0.0
G1 F40.0 Z-0.2
G1 F80.0 X4.068
G1 X4.368 Z0.0
G1 X4.493
G1 X4.793 Z-0.2
G1 X4.875
G3 X4.9375 Y1.5 I0.0 J0.0625
G1 Y2.5287
G1 Y2.8287 Z0.0
G1 Y2.9537
G1 Y3.2537 Z-0.2
G1 Y3.5
G3 X4.875 Y3.5625 I-0.0625 J0.0
G1 X4.566
G3 X4.5035 Y3.5 I0.0 J-0.0625
G2 X4.0 Y2.9965 I-0.5035 J0.0
G3 X3.9375 Y2.934 I0.0 J-0.0625
G1 Y2.8
G1 Y2.5 Z0.0
G1 Y2.375
G1 Y2.075 Z-0.2
G1 Y1.5
G3 X4.0 Y1.4375 I0.0625 J0.0
G0 Z0.125
G0 X3.6866 Y1.4897
G0 Z0.0625
G1 F40.0 Z-0.0625
G3 F80.0 X3.6875 Y1.5 I-0.0616 J0.0103
G1 Y1.582
G1 Y1.882 Z0.0
G1 Y2.007
G1 Y2.307 Z-0.0625
G1 Y3.5
G3 X3.625 Y3.5625 I-0.0625 J0.0
G1 X3.316
G3 X3.2535 Y3.5 I0.0 J-0.0625
G2 X2.75 Y2.9965 I-0.5035 J0.0
G3 X2.6875 Y2.934 I0.0 J-0.0625
G1 Y2.3787
G1 Y2.0787 Z0.0
G1 Y1.9537
G1 Y1.6537 Z-0.0625
G1 Y1.5
G3 X2.75 Y1.4375 I0.0625 J0.0
G1 X2.825
G1 X3.125 Z0.0
G1 X3.25
G1 X3.55 Z-0.0625
G1 X3.625
G3 X3.6866 Y1.4897 I0.0 J0.0625
G1 F40.0 Z-0.125
G3 F80.0 X3.6875 Y1.5 I-0.0616 J0.0103
G1 Y1.582
G1 Y1.882 Z0.0
G1 Y2.007
G1 Y2.307 Z-0.125
G1 Y3.5
G3 X3.625 Y3.5625 I-0.0625 J0.0
G1 X3.316
G3 X3.2535 Y3.5 I0.0 J-0.0625
G2 X2.75 Y2.9965 I-0.5035 J0.0
G3 X2.6875 Y2.934 I0.0 J-0.0625
G1 Y2.3787
G1 Y2.0787 Z0.0
G1 Y1.9537
G1 Y1.6537 Z-0.125
G1 Y1.5
G3 X2.75 Y1.4375 I0.0625 J0.0
G1 X2.825
G1 X3.125 Z0.0
G1 X3.25
G1 X3.55 Z-0.125
G1 X3.625
G3 X3.6866 Y1.4897 I0.0 J0.0625
G1 F40.0 Z-0.1875
G3 F80.0 X3.6875 Y1.5 I-0.0616 J0.0103
G1 Y1.582
G1 Y1.882 Z0.0
G1 Y2.007
G1 Y2.307 Z-0.1875
G1 Y3.5
G3 X3.625 Y3.5625 I-0.0625 J0.0
G1 X3.316
G3 X3.2535 Y3.5 I0.0 J-0.0625
G2 X2.75 Y2.9965 I-0.5035 J0.0
G3 X2.6875 Y2.934 I0.0 J-0.0625
G1 Y2.3787
G1 Y2.0787 Z0.0
G1 Y1.9537
G1 Y1.6537 Z-0.1875
G1 Y1.5
G3 X2.75 Y1.4375 I0.0625 J0.0
G1 X2.825
G1 X3.125 Z0.0
G1 X3.25
G1 X3.55 Z-0.1875
G1 X3.625
G3 X3.6866 Y1.4897 I0.0 J0.0625
G1 F40.0 Z-0.2
G3 F80.0 X3.6875 Y1.5 I-0.0616 J0.0103
G1 Y1.582
G1 Y1.882 Z0.0
G1 Y2.007
G1 Y2.307 Z-0.2
G1 Y3.5
G3 X3.625 Y3.5625 I-0.0625 J0.0
G1 X3.316
G3 X3.2535 Y3.5 I0.0 J-0.0625
G2 X2.75 Y2.9965 I-0.5035 J0.0
G3 X2.6875 Y2.934 I0.0 J-0.0625
G1 Y2.3787
G1 Y2.0787 Z0.0
G1 Y1.9537
G1 Y1.6537 Z-0.2
G1 Y1.5
G3 X2.75 Y1.4375 I0.0625 J0.0
G1 X2.825
G1 X3.125 Z0.0
G1 X3.25
G1 X3.55 Z-0.2
G1 X3.625
G3 X3.6866 Y1.4897 I0.0 J0.0625
G0 Z0.125
G0 X5.1875 Y1.4996
G0 Z0.0625
G1 F40.0 Z-0.0625
G3 F80.0 X5.25 Y1.4375 I0.0625 J0.0004
G1 X5.318
G1 X5.618 Z0.0
G1 X5.743
G1 X6.043 Z-0.0625
G1 X6.125
G3 X6.1875 Y1.5 I0.0 J0.0625
G1 Y2.5287
G1 Y2.8287 Z0.0
G1 Y2.9537
G1 Y3.2537 Z-0.0625
G1 Y3.5
G3 X6.125 Y3.5625 I-0.0625 J0.0
G1 X5.816
G3 X5.7535 Y3.5 I0.0 J-0.0625
G2 X5.25 Y2.9965 I-0.5035 J0.0
G3 X5.1875 Y2.934 I0.0 J-0.0625
G1 Y2.4875
G1 Y2.1875 Z0.0
G1 Y2.0625
G1 Y1.7625 Z-0.0625
G1 Y1.5
G3 Y1.4996 I0.0625 J0.0
G1 F40.0 Z-0.125
G3 F80.0 X5.25 Y1.4375 I0.0625 J0.0004
G1 X5.318
G1 X5.618 Z0.0
G1 X5.743
G1 X6.043 Z-0.125
G1 X6.125
G3 X6.1875 Y1.5 I0.0 J0.0625
G1 Y2.5287
G1 Y2.8287 Z0.0
G1 Y2.9537
G1 Y3.2537 Z-0.125
G1 Y3.5
G3 X6.125 Y3.5625 I-0.0625 J0.0
G1 X5.816
G3 X5.7535 Y3.5 I0.0 J-0.0625
G2 X5.25 Y2.9965 I-0.5035 J0.0
G3 X5.1875 Y2.934 I0.0 J-0.0625
G1 Y2.4875
G1 Y2.1875 Z0.0
G1 Y2.0625
G1 Y1.7625 Z-0.125
G1 Y1.5
G3 Y1.4996 I0.0625 J0.0
G1 F40.0 Z-0.1875
G3 F80.0 X5.25 Y1.4375 I0.0625 J0.0004
G1 X5.318
G1 X5.618 Z0.0
G1 X5.743
G1 X6.043 Z-0.1875
G1 X6.125
G3 X6.1875 Y1.5 I0.0 J0.0625
G1 Y2.5287
G1 Y2.8287 Z0.0
G1 Y2.9537
G1 Y3.2537 Z-0.1875
G1 Y3.5
G3 X6.125 Y3.5625 I-0.0625 J0.0
G1 X5.816
G3 X5.7535 Y3.5 I0.0 J-0.0625
G2 X5.25 Y2.9965 I-0.5035 J0.0
G3 X5.1875 Y2.934 I0.0 J-0.0625
G1 Y2.4875
G1 Y2.1875 Z0.0
G1 Y2.0625
G1 Y1.7625 Z-0.1875
G1 Y1.5
G3 Y1.4996 I0.0625 J0.0
G1 F40.0 Z-0.2
G3 F80.0 X5.25 Y1.4375 I0.0625 J0.0004
G1 X5.318
G1 X5.618 Z0.0
G1 X5.743
G1 X6.043 Z-0.2
G1 X6.125
G3 X6.1875 Y1.5 I0.0 J0.0625
G1 Y2.5287
G1 Y2.8287 Z0.0
G1 Y2.9537
G1 Y3.2537 Z-0.2
G1 Y3.5
G3 X6.125 Y3.5625 I-0.0625 J0.0
G1 X5.816
G3 X5.7535 Y3.5 I0.0 J-0.0625
G2 X5.25 Y2.9965 I-0.5035 J0.0
G3 X5.1875 Y2.934 I0.0 J-0.0625
G1 Y2.4875
G1 Y2.1875 Z0.0
G1 Y2.0625
G1 Y1.7625 Z-0.2
G1 Y1.5
G3 Y1.4996 I0.0625 J0.0
G0 Z0.125
G0 X2.2872 Y2.1444
G0 Z0.0625
G1 F40.0 Z-0.0625
G3 F80.0 X2.3125 Y2.375 I-1.0372 J0.2306
G3 X2.0633 Y3.0587 I-1.0625 J0.0
G3 X1.8345 Y3.2623 Z0.0 I-0.8133 J-0.6837
G3 X1.7262 Y3.3248 I-0.5845 J-0.8873
G3 X1.4354 Y3.4212 Z-0.0625 I-0.4762 J-0.9498
G3 X0.7188 Y3.2952 I-0.1854 J-1.0462
G3 X0.2513 Y2.7375 I0.5313 J-0.9202
G3 X0.1893 Y2.4375 Z0.0 I0.9987 J-0.3625
G3 Y2.3125 I1.0607 J-0.0625
G3 X0.2513 Y2.0125 Z-0.0625 I1.0607 J0.0625
G3 X0.7188 Y1.4548 I0.9987 J0.3625
G3 X1.4354 Y1.3288 I0.5313 J0.9202
G3 X1.7262 Y1.4252 Z0.0 I-0.1854 J1.0462
G3 X1.8345 Y1.4877 I-0.4762 J0.9498
G3 X2.0633 Y1.6913 Z-0.0625 I-0.5845 J0.8873
G3 X2.2872 Y2.1444 I-0.8133 J0.6837
G1 F40.0 Z-0.125
G3 F80.0 X2.3125 Y2.375 I-1.0372 J0.2306
G3 X2.0633 Y3.0587 I-1.0625 J0.0
G3 X1.8345 Y3.2623 Z0.0 I-0.8133 J-0.6837
G3 X1.7262 Y3.3248 I-0.5845 J-0.8873
G3 X1.4354 Y3.4212 Z-0.125 I-0.4762 J-0.9498
G3 X0.7188 Y3.2952 I-0.1854 J-1.0462
G3 X0.2513 Y2.7375 I0.5313 J-0.9202
G3 X0.1893 Y2.4375 Z0.0 I0.9987 J-0.3625
G3 Y2.3125 I1.0607 J-0.0625
G3 X0.2513 Y2.0125 Z-0.125 I1.0607 J0.0625
G3 X0.7188 Y1.4548 I0.9987 J0.3625
G3 X1.4354 Y1.3288 I0.5313 J0.9202
G3 X1.7262 Y1.4252 Z0.0 I-0.1854 J1.0462
G3 X1.8345 Y1.4877 I-0.4762 J0.9498
G3 X2.0633 Y1.6913 Z-0.125 I-0.5845 J0.8873
G3 X2.2872 Y2.1444 I-0.8133 J0.6837
G1 F40.0 Z-0.1875
G3 F80.0 X2.3125 Y2.375 I-1.0372 J0.2306
G3 X2.0633 Y3.0587 I-1.0625 J0.0
G3 X1.8345 Y3.2623 Z0.0 I-0.8133 J-0.6837
G3 X1.7262 Y3.3248 I-0.5845 J-0.8873
G3 X1.4354 Y3.4212 Z-0.1875 I-0.4762 J-0.9498
G3 X0.7188 Y3.2952 I-0.1854 J-1.0462
G3 X0.2513 Y2.7375 I0.5313 J-0.9202
G3 X0.1893 Y2.4375 Z0.0 I0.9987 J-0.3625
G3 Y2.3125 I1.0607 J-0.0625
G3 X0.2513 Y2.0125 Z-0.1875 I1.0607 J0.0625
G3 X0.7188 Y1.4548 I0.9987 J0.3625
G3 X1.4354 Y1.3288 I0.5313 J0.9202
G3 X1.7262 Y1.4252 Z0.0 I-0.1854 J1.0462
G3 X1.8345 Y1.4877 I-0.4762 J0.9498
G3 X2.0633 Y1.6913 Z-0.1875 I-0.5845 J0.8873
G3 X2.2872 Y2.1444 I-0.8133 J0.6837
G1 F40.0 Z-0.2
G3 F80.0 X2.3125 Y2.375 I-1.0372 J0.2306
G3 X2.0633 Y3.0587 I-1.0625 J0.0
G3 X1.8345 Y3.2623 Z0.0 I-0.8133 J-0.6837
G3 X1.7262 Y3.3248 I-0.5845 J-0.8873
G3 X1.4354 Y3.4212 Z-0.2 I-0.4762 J-0.9498
G3 X0.7188 Y3.2952 I-0.1854 J-1.0462
G3 X0.2513 Y2.7375 I0.5313 J-0.9202
G3 X0.1893 Y2.4375 Z0.0 I0.9987 J-0.3625
G3 Y2.3125 I1.0607 J-0.0625
G3 X0.2513 Y2.0125 Z-0.2 I1.0607 J0.0625
G3 X0.7188 Y1.4548 I0.9987 J0.3625
G3 X1.4354 Y1.3288 I0.5313 J0.9202
G3 X1.7262 Y1.4252 Z0.0 I-0.1854 J1.0462
G3 X1.8345 Y1.4877 I-0.4762 J0.9498
G3 X2.0633 Y1.6913 Z-0.2 I-0.5845 J0.8873
G3 X2.2872 Y2.1444 I-0.8133 J0.6837
G0 Z0.125
G0 X0.7751 Y0.7267
G0 Z0.0745
G1 F40.0 Z-0.0505
G3 F80.0 X0.5845 Y0.8873 Z0.0 I-0.7751 J-0.7267
G3 X0.4762 Y0.9498 I-0.5845 J-0.8873
G3 X0.1854 Y1.0462 Z-0.0625 I-0.4762 J-0.9498
G3 X-0.5313 Y0.9202 I-0.1854 J-1.0462
G3 X-0.9987 Y0.3625 I0.5313 J-0.9202
G3 X-1.0607 Y0.0625 Z0.0 I0.9987 J-0.3625
G3 Y-0.0625 I1.0607 J-0.0625
G3 X-0.9987 Y-0.3625 Z-0.0625 I1.0607 J0.0625
G3 X-0.5313 Y-0.9202 I0.9987 J0.3625
G3 X0.1854 Y-1.0462 I0.5313 J0.9202
G3 X0.4762 Y-0.9498 Z0.0 I-0.1854 J1.0462
G3 X0.5845 Y-0.8873 I-0.4762 J0.9498
G3 X0.8133 Y-0.6837 Z-0.0625 I-0.5845 J0.8873
G3 X1.0625 Y0.0 I-0.8133 J0.6837
G3 X0.8133 Y0.6837 I-1.0625 J0.0
G3 X0.7751 Y0.7267 Z-0.0505 I-0.8133 J-0.6837
G1 F40.0 Z-0.101
G3 F80.0 X0.5845 Y0.8873 Z0.0 I-0.7751 J-0.7267
G3 X0.4762 Y0.9498 I-0.5845 J-0.8873
G3 X0.1854 Y1.0462 Z-0.125 I-0.4762 J-0.9498
G3 X-0.5313 Y0.9202 I-0.1854 J-1.0462
G3 X-0.9987 Y0.3625 I0.5313 J-0.9202
G3 X-1.0607 Y0.0625 Z0.0 I0.9987 J-0.3625
G3 Y-0.0625 I1.0607 J-0.0625
G3 X-0.9987 Y-0.3625 Z-0.125 I1.0607 J0.0625
G3 X-0.5313 Y-0.9202 I0.9987 J0.3625
G3 X0.1854 Y-1.0462 I0.5313 J0.9202
G3 X0.4762 Y-0.9498 Z0.0 I-0.1854 J1.0462
G3 X0.5845 Y-0.8873 I-0.4762 J0.9498
G3 X0.8133 Y-0.6837 Z-0.125 I-0.5845 J0.8873
G3 X1.0625 Y0.0 I-0.8133 J0.6837
G3 X0.8133 Y0.6837 I-1.0625 J0.0
G3 X0.7751 Y0.7267 Z-0.101 I-0.8133 J-0.6837
G1 F40.0 Z-0.1515
G3 F80.0 X0.5845 Y0.8873 Z0.0 I-0.7751 J-0.7267
G3 X0.4762 Y0.9498 I-0.5845 J-0.8873
G3 X0.1854 Y1.0462 Z-0.1875 I-0.4762 J-0.9498
G3 X-0.5313 Y0.9202 I-0.1854 J-1.0462
G3 X-0.9987 Y0.3625 I0.5313 J-0.9202
G3 X-1.0607 Y0.0625 Z0.0 I0.9987 J-0.3625
G3 Y-0.0625 I1.0607 J-0.0625
G3 X-0.9987 Y-0.3625 Z-0.1875 I1.0607 J0.0625
G3 X-0.5313 Y-0.9202 I0.9987 J0.3625
G3 X0.1854 Y-1.0462 I0.5313 J0.9202
G3 X0.4762 Y-0.9498 Z0.0 I-0.1854 J1.0462
G3 X0.5845 Y-0.8873 I-0.4762 J0.9498
G3 X0.8133 Y-0.6837 Z-0.1875 I-0.5845 J0.8873
G3 X1.0625 Y0.0 I-0.8133 J0.6837
G3 X0.8133 Y0.6837 I-1.0625 J0.0
G3 X0.7751 Y0.7267 Z-0.1515 I-0.8133 J-0.6837
G1 F40.0 Z-0.1616
G3 F80.0 X0.5845 Y0.8873 Z0.0 I-0.7751 J-0.7267
G3 X0.4762 Y0.9498 I-0.5845 J-0.8873
G3 X0.1854 Y1.0462 Z-0.2 I-0.4762 J-0.9498
G3 X-0.5313 Y0.9202 I-0.1854 J-1.0462
G3 X-0.9987 Y0.3625 I0.5313 J-0.9202
G3 X-1.0607 Y0.0625 Z0.0 I0.9987 J-0.3625
G3 Y-0.0625 I1.0607 J-0.0625
G3 X-0.9987 Y-0.3625 Z-0.2 I1.0607 J0.0625
G3 X-0.5313 Y-0.9202 I0.9987 J0.3625
G3 X0.1854 Y-1.0462 I0.5313 J0.9202
G3 X0.4762 Y-0.9498 Z0.0 I-0.1854 J1.0462
G3 X0.5845 Y-0.8873 I-0.4762 J0.9498
G3 X0.8133 Y-0.6837 Z-0.2 I-0.5845 J0.8873
G3 X1.0625 Y0.0 I-0.8133 J0.6837
G3 X0.8133 Y0.6837 I-1.0625 J0.0
G3 X0.7751 Y0.7267 Z-0.1616 I-0.8133 J-0.6837
G0 Z0.125
M5
M30
