(.../pcb-gcode-3.6.2.4/pcb-gcode.ulp)
(Copyright 2005 - 2012 by John Johnson)
(See readme.txt for licensing terms.)
(This file generated from the board:)
(.../high_start/eagle/high_start.brd)
(Current profile is .../pcb-gcode-3.6.2.4/profiles/mach.pp  )
(This file generated 1/15/17 2:52 PM)
(Settings from pcb-machine.h)
(spindle on time = 0.0000)
(  Tool Size)
(0.0030  )
(spindle speed = 30000.0000)
(tool change at 0.0000  0.0000  1.5000  )
(feed rate xy = F20    )
(feed rate z  = F10    )
(Z Axis Settings)
(  High     Up        Down     Drill)
(0.2500  	0.0500  	-0.0035 	-0.0710 )
(Settings from pcb-defaults.h)
(isolate min = 0.0040)
(isolate max = 0.0200)
(isolate step = 0.0025)
(Generated bottom outlines, bottom drill, )
(Unit of measure: inch)
(Inch Mode)
G20
(Absolute Coordinates)
G90
S30000
G00 Z0.2500  
G00 X0.0000  Y0.0000  
M03
G04 P0.000000
G00 Z0.0500  
G00 X-0.0382 Y0.1837  
G01 Z-0.0035 F10    
G01 X-0.0354 Y0.1879  F20    
G01 X-0.0335 Y0.1926  
G01 X-0.0325 Y0.1975  
G01 X-0.0325 Y0.2988  
G01 X-0.0315 Y0.3554  
G01 X-0.0315 Y0.3558  
G01 X-0.0315 Y0.3579  
G01 X-0.0315 Y0.3601  
G01 X-0.0315 Y0.3605  
G01 X-0.0325 Y0.4372  
G01 X-0.0325 Y0.8210  
G01 X-0.0311 Y0.8216  
G01 X-0.0296 Y0.8231  
G01 X-0.0288 Y0.8252  
G01 X-0.0288 Y0.8748  
G01 X-0.0296 Y0.8769  
G01 X-0.0311 Y0.8784  
G01 X-0.0325 Y0.8790  
G01 X-0.0325 Y1.0405  
G01 X-0.0335 Y1.0454  
G01 X-0.0348 Y1.0487  
G01 X-0.0348 Y1.0832  
G01 X-0.0362 Y1.0899  
G01 X-0.0388 Y1.0964  
G01 X-0.0427 Y1.1021  
G01 X-0.0445 Y1.1039  
G01 X-0.0445 Y1.2461  
G01 X-0.0427 Y1.2479  
G01 X-0.0388 Y1.2536  
G01 X-0.0362 Y1.2601  
G01 X-0.0348 Y1.2668  
G01 X-0.0348 Y1.3332  
G01 X-0.0362 Y1.3399  
G01 X-0.0388 Y1.3464  
G01 X-0.0427 Y1.3521  
G01 X-0.0445 Y1.3539  
G01 X-0.0445 Y1.4961  
G01 X-0.0427 Y1.4979  
G01 X-0.0388 Y1.5036  
G01 X-0.0362 Y1.5101  
G01 X-0.0348 Y1.5168  
G01 X-0.0348 Y1.5832  
G01 X-0.0362 Y1.5899  
G01 X-0.0388 Y1.5964  
G01 X-0.0427 Y1.6021  
G01 X-0.0476 Y1.6070  
G01 X-0.0533 Y1.6109  
G01 X-0.0597 Y1.6135  
G01 X-0.0665 Y1.6149  
G01 X-0.0735 Y1.6149  
G01 X-0.0803 Y1.6135  
G01 X-0.0867 Y1.6109  
G01 X-0.0924 Y1.6070  
G01 X-0.0973 Y1.6021  
G01 X-0.1012 Y1.5964  
G01 X-0.1038 Y1.5899  
G01 X-0.1052 Y1.5832  
G01 X-0.1052 Y1.5168  
G01 X-0.1038 Y1.5101  
G01 X-0.1012 Y1.5036  
G01 X-0.0973 Y1.4979  
G01 X-0.0955 Y1.4961  
G01 X-0.0955 Y1.3539  
G01 X-0.0973 Y1.3521  
G01 X-0.1012 Y1.3464  
G01 X-0.1038 Y1.3399  
G01 X-0.1052 Y1.3332  
G01 X-0.1052 Y1.2668  
G01 X-0.1038 Y1.2601  
G01 X-0.1012 Y1.2536  
G01 X-0.0973 Y1.2479  
G01 X-0.0955 Y1.2461  
G01 X-0.0955 Y1.1039  
G01 X-0.0973 Y1.1021  
G01 X-0.1012 Y1.0964  
G01 X-0.1038 Y1.0899  
G01 X-0.1052 Y1.0832  
G01 X-0.1052 Y1.0168  
G01 X-0.1038 Y1.0101  
G01 X-0.1012 Y1.0036  
G01 X-0.0973 Y0.9979  
G01 X-0.0924 Y0.9930  
G01 X-0.0867 Y0.9891  
G01 X-0.0835 Y0.9878  
G01 X-0.0835 Y0.8790  
G01 X-0.0849 Y0.8784  
G01 X-0.0864 Y0.8769  
G01 X-0.0872 Y0.8748  
G01 X-0.0872 Y0.8252  
G01 X-0.0864 Y0.8231  
G01 X-0.0849 Y0.8216  
G01 X-0.0835 Y0.8210  
G01 X-0.0835 Y0.4393  
G01 X-0.0835 Y0.4392  
G01 X-0.0835 Y0.4368  
G01 X-0.0835 Y0.4345  
G01 X-0.0835 Y0.4343  
G01 X-0.0827 Y0.3757  
G01 X-0.1141 Y0.3735  
G01 X-0.1179 Y0.3773  
G01 X-0.1236 Y0.3812  
G01 X-0.1301 Y0.3838  
G01 X-0.1368 Y0.3852  
G01 X-0.2032 Y0.3852  
G01 X-0.2099 Y0.3838  
G01 X-0.2164 Y0.3812  
G01 X-0.2221 Y0.3773  
G01 X-0.2259 Y0.3735  
G01 X-0.4141 Y0.3735  
G01 X-0.4179 Y0.3773  
G01 X-0.4236 Y0.3812  
G01 X-0.4301 Y0.3838  
G01 X-0.4368 Y0.3852  
G01 X-0.5032 Y0.3852  
G01 X-0.5099 Y0.3838  
G01 X-0.5164 Y0.3812  
G01 X-0.5221 Y0.3773  
G01 X-0.5270 Y0.3724  
G01 X-0.5309 Y0.3667  
G01 X-0.5335 Y0.3603  
G01 X-0.5349 Y0.3535  
G01 X-0.5349 Y0.3465  
G01 X-0.5335 Y0.3397  
G01 X-0.5309 Y0.3333  
G01 X-0.5270 Y0.3276  
G01 X-0.5221 Y0.3227  
G01 X-0.5164 Y0.3188  
G01 X-0.5099 Y0.3162  
G01 X-0.5032 Y0.3148  
G01 X-0.4368 Y0.3148  
G01 X-0.4301 Y0.3162  
G01 X-0.4236 Y0.3188  
G01 X-0.4181 Y0.3225  
G01 X-0.2219 Y0.3225  
G01 X-0.2164 Y0.3188  
G01 X-0.2099 Y0.3162  
G01 X-0.2032 Y0.3148  
G01 X-0.1368 Y0.3148  
G01 X-0.1301 Y0.3162  
G01 X-0.1236 Y0.3188  
G01 X-0.1179 Y0.3227  
G01 X-0.1130 Y0.3276  
G01 X-0.1091 Y0.3333  
G01 X-0.0829 Y0.3359  
G01 X-0.0835 Y0.3017  
G01 X-0.0835 Y0.3015  
G01 X-0.0835 Y0.2992  
G01 X-0.0835 Y0.2969  
G01 X-0.0835 Y0.2967  
G01 X-0.0835 Y0.2106  
G01 X-0.2326 Y0.0615  
G01 X-2.0104 Y0.0615  
G01 X-2.0975 Y0.1486  
G01 X-2.0975 Y0.5445  
G01 X-1.9082 Y0.7625  
G01 X-1.8305 Y0.7625  
G01 X-1.8294 Y0.7623  
G01 X-1.8279 Y0.7625  
G01 X-1.8264 Y0.7625  
G01 X-1.8254 Y0.7628  
G01 X-1.8243 Y0.7629  
G01 X-1.8229 Y0.7634  
G01 X-1.8215 Y0.7638  
G01 X-1.8205 Y0.7644  
G01 X-1.8195 Y0.7648  
G01 X-1.8183 Y0.7656  
G01 X-1.8170 Y0.7664  
G01 X-1.8163 Y0.7672  
G01 X-1.8154 Y0.7678  
G01 X-1.8145 Y0.7690  
G01 X-1.8134 Y0.7700  
G01 X-1.8129 Y0.7710  
G01 X-1.8122 Y0.7718  
G01 X-1.8116 Y0.7732  
G01 X-1.8108 Y0.7745  
G01 X-1.8105 Y0.7755  
G01 X-1.8101 Y0.7765  
G01 X-1.8099 Y0.7780  
G01 X-1.8097 Y0.7785  
G01 X-1.6602 Y0.7785  
G01 X-1.6575 Y0.7785  
G01 X-1.6573 Y0.7785  
G01 X-1.6572 Y0.7785  
G01 X-1.6546 Y0.7792  
G01 X-1.6520 Y0.7798  
G01 X-1.6519 Y0.7799  
G01 X-1.6517 Y0.7800  
G01 X-1.6494 Y0.7813  
G01 X-1.5824 Y0.8185  
G01 X-1.5409 Y0.8185  
G01 X-1.5348 Y0.8197  
G01 X-1.5291 Y0.8221  
G01 X-1.5239 Y0.8255  
G01 X-1.5206 Y0.8289  
G01 X-1.4552 Y0.8348  
G01 X-1.4504 Y0.8363  
G01 X-1.4459 Y0.8386  
G01 X-1.4421 Y0.8417  
G01 X-1.4418 Y0.8416  
G01 X-1.4369 Y0.8405  
G01 X-1.4319 Y0.8405  
G01 X-1.4270 Y0.8414  
G01 X-1.4223 Y0.8432  
G01 X-1.3041 Y0.9195  
G01 X-1.2991 Y0.9185  
G01 X-1.2409 Y0.9185  
G01 X-1.2348 Y0.9197  
G01 X-1.2291 Y0.9221  
G01 X-1.2239 Y0.9255  
G01 X-1.2195 Y0.9299  
G01 X-1.2161 Y0.9351  
G01 X-1.2138 Y0.9405  
G01 X-1.1015 Y0.9405  
G01 X-1.1015 Y0.9370  
G01 X-1.0830 Y0.9185  
G01 X-1.0570 Y0.9185  
G01 X-1.0385 Y0.9370  
G01 X-1.0385 Y0.9630  
G01 X-1.0445 Y0.9690  
G01 X-1.0445 Y1.0270  
G01 X-1.0181 Y1.0648  
G01 X-0.9868 Y1.0648  
G01 X-0.9801 Y1.0662  
G01 X-0.9736 Y1.0688  
G01 X-0.9679 Y1.0727  
G01 X-0.9661 Y1.0745  
G01 X-0.8782 Y1.0745  
G01 X-0.8315 Y1.0412  
G01 X-0.8315 Y1.0370  
G01 X-0.8130 Y1.0185  
G01 X-0.7870 Y1.0185  
G01 X-0.7685 Y1.0370  
G01 X-0.7685 Y1.0630  
G01 X-0.7870 Y1.0815  
G01 X-0.8002 Y1.0815  
G01 X-0.8535 Y1.1195  
G01 X-0.8537 Y1.1198  
G01 X-0.8555 Y1.1210  
G01 X-0.8572 Y1.1222  
G01 X-0.8576 Y1.1224  
G01 X-0.8579 Y1.1226  
G01 X-0.8599 Y1.1234  
G01 X-0.8618 Y1.1243  
G01 X-0.8622 Y1.1244  
G01 X-0.8626 Y1.1245  
G01 X-0.8646 Y1.1249  
G01 X-0.8667 Y1.1254  
G01 X-0.8671 Y1.1254  
G01 X-0.8675 Y1.1255  
G01 X-0.8696 Y1.1255  
G01 X-0.8717 Y1.1256  
G01 X-0.8721 Y1.1255  
G01 X-0.9661 Y1.1255  
G01 X-0.9679 Y1.1273  
G01 X-0.9736 Y1.1312  
G01 X-0.9801 Y1.1338  
G01 X-0.9868 Y1.1352  
G01 X-1.0532 Y1.1352  
G01 X-1.0599 Y1.1338  
G01 X-1.0664 Y1.1312  
G01 X-1.0721 Y1.1273  
G01 X-1.0770 Y1.1224  
G01 X-1.0809 Y1.1167  
G01 X-1.0835 Y1.1103  
G01 X-1.0849 Y1.1035  
G01 X-1.0849 Y1.0965  
G01 X-1.0835 Y1.0897  
G01 X-1.0809 Y1.0833  
G01 X-1.0770 Y1.0776  
G01 X-1.0737 Y1.0743  
G01 X-1.0896 Y1.0514  
G01 X-1.0898 Y1.0513  
G01 X-1.0911 Y1.0494  
G01 X-1.0924 Y1.0475  
G01 X-1.0925 Y1.0473  
G01 X-1.0926 Y1.0471  
G01 X-1.0935 Y1.0450  
G01 X-1.0944 Y1.0429  
G01 X-1.0944 Y1.0427  
G01 X-1.0945 Y1.0424  
G01 X-1.0950 Y1.0402  
G01 X-1.0954 Y1.0380  
G01 X-1.0955 Y1.0378  
G01 X-1.0955 Y1.0375  
G01 X-1.0955 Y1.0353  
G01 X-1.0955 Y1.0330  
G01 X-1.0955 Y1.0327  
G01 X-1.0955 Y0.9915  
G01 X-1.2565 Y0.9915  
G01 X-1.2614 Y0.9905  
G01 X-1.2661 Y0.9886  
G01 X-1.2703 Y0.9858  
G01 X-1.2738 Y0.9823  
G01 X-1.2743 Y0.9815  
G01 X-1.2991 Y0.9815  
G01 X-1.3052 Y0.9803  
G01 X-1.3109 Y0.9779  
G01 X-1.3161 Y0.9745  
G01 X-1.3205 Y0.9701  
G01 X-1.3212 Y0.9690  
G01 X-1.3217 Y0.9688  
G01 X-1.4499 Y0.8861  
G01 X-1.4519 Y0.8842  
G01 X-1.4548 Y0.8851  
G01 X-1.4598 Y0.8856  
G01 X-1.5319 Y0.8791  
G01 X-1.5348 Y0.8803  
G01 X-1.5409 Y0.8815  
G01 X-1.5991 Y0.8815  
G01 X-1.6052 Y0.8803  
G01 X-1.6109 Y0.8779  
G01 X-1.6161 Y0.8745  
G01 X-1.6205 Y0.8701  
G01 X-1.6239 Y0.8649  
G01 X-1.6263 Y0.8592  
G01 X-1.6275 Y0.8531  
G01 X-1.6275 Y0.8469  
G01 X-1.6267 Y0.8431  
G01 X-1.6656 Y0.8215  
G01 X-1.8124 Y0.8215  
G01 X-1.8130 Y0.8224  
G01 X-1.8179 Y0.8273  
G01 X-1.8236 Y0.8312  
G01 X-1.8301 Y0.8338  
G01 X-1.8368 Y0.8352  
G01 X-1.8648 Y0.8352  
G01 X-1.8865 Y0.8503  
G01 X-1.8865 Y1.4772  
G01 X-1.8864 Y1.4790  
G01 X-1.8865 Y1.4797  
G01 X-1.8865 Y1.4805  
G01 X-1.8868 Y1.4822  
G01 X-1.8871 Y1.4839  
G01 X-1.8873 Y1.4847  
G01 X-1.8875 Y1.4854  
G01 X-1.8881 Y1.4870  
G01 X-1.8887 Y1.4887  
G01 X-1.8891 Y1.4894  
G01 X-1.8894 Y1.4901  
G01 X-1.8904 Y1.4915  
G01 X-1.8912 Y1.4930  
G01 X-1.8918 Y1.4936  
G01 X-1.8922 Y1.4943  
G01 X-1.8934 Y1.4955  
G01 X-1.9686 Y1.5804  
G01 X-1.8485 Y1.5945  
G01 X-1.8468 Y1.5945  
G01 X-1.8436 Y1.5913  
G01 X-1.8375 Y1.5872  
G01 X-1.8308 Y1.5844  
G01 X-1.8236 Y1.5830  
G01 X-1.8164 Y1.5830  
G01 X-1.8092 Y1.5844  
G01 X-1.8025 Y1.5872  
G01 X-1.7964 Y1.5913  
G01 X-1.7913 Y1.5964  
G01 X-1.7872 Y1.6025  
G01 X-1.7844 Y1.6092  
G01 X-1.7830 Y1.6164  
G01 X-1.7830 Y1.6236  
G01 X-1.7844 Y1.6308  
G01 X-1.7872 Y1.6375  
G01 X-1.7913 Y1.6436  
G01 X-1.7964 Y1.6487  
G01 X-1.8025 Y1.6528  
G01 X-1.8092 Y1.6556  
G01 X-1.8164 Y1.6570  
G01 X-1.8236 Y1.6570  
G01 X-1.8308 Y1.6556  
G01 X-1.8375 Y1.6528  
G01 X-1.8436 Y1.6487  
G01 X-1.8468 Y1.6455  
G01 X-1.8490 Y1.6455  
G01 X-1.8505 Y1.6456  
G01 X-1.8515 Y1.6455  
G01 X-1.8525 Y1.6455  
G01 X-1.8540 Y1.6452  
G01 X-1.9845 Y1.6299  
G01 X-1.9845 Y1.6335  
G01 X-1.9859 Y1.6404  
G01 X-1.9885 Y1.6468  
G01 X-1.9924 Y1.6526  
G01 X-1.9974 Y1.6576  
G01 X-2.0032 Y1.6615  
G01 X-2.0096 Y1.6641  
G01 X-2.0165 Y1.6655  
G01 X-2.0235 Y1.6655  
G01 X-2.0304 Y1.6641  
G01 X-2.0368 Y1.6615  
G01 X-2.0426 Y1.6576  
G01 X-2.0476 Y1.6526  
G01 X-2.0515 Y1.6468  
G01 X-2.0541 Y1.6404  
G01 X-2.0555 Y1.6335  
G01 X-2.0555 Y1.5665  
G01 X-2.0541 Y1.5596  
G01 X-2.0515 Y1.5532  
G01 X-2.0476 Y1.5474  
G01 X-2.0426 Y1.5424  
G01 X-2.0368 Y1.5385  
G01 X-2.0304 Y1.5359  
G01 X-2.0235 Y1.5345  
G01 X-2.0165 Y1.5345  
G01 X-2.0096 Y1.5359  
G01 X-2.0032 Y1.5385  
G01 X-2.0010 Y1.5400  
G01 X-1.9375 Y1.4683  
G01 X-1.9375 Y0.8373  
G01 X-1.9375 Y0.8350  
G01 X-1.9375 Y0.8347  
G01 X-1.9375 Y0.8345  
G01 X-1.9371 Y0.8323  
G01 X-1.9367 Y0.8300  
G01 X-1.9366 Y0.8298  
G01 X-1.9365 Y0.8296  
G01 X-1.9357 Y0.8275  
G01 X-1.9348 Y0.8254  
G01 X-1.9347 Y0.8252  
G01 X-1.9346 Y0.8249  
G01 X-1.9333 Y0.8230  
G01 X-1.9321 Y0.8211  
G01 X-1.9319 Y0.8210  
G01 X-1.9318 Y0.8207  
G01 X-1.9302 Y0.8191  
G01 X-1.9296 Y0.8185  
G01 X-1.9309 Y0.8167  
G01 X-1.9335 Y0.8103  
G01 X-1.9344 Y0.8058  
G01 X-1.9386 Y0.8037  
G01 X-1.9426 Y0.8006  
G01 X-2.1417 Y0.5714  
G01 X-2.1428 Y0.5703  
G01 X-2.1433 Y0.5695  
G01 X-2.1439 Y0.5688  
G01 X-2.1447 Y0.5674  
G01 X-2.1456 Y0.5661  
G01 X-2.1459 Y0.5652  
G01 X-2.1464 Y0.5645  
G01 X-2.1469 Y0.5629  
G01 X-2.1475 Y0.5614  
G01 X-2.1477 Y0.5606  
G01 X-2.1480 Y0.5597  
G01 X-2.1482 Y0.5581  
G01 X-2.1485 Y0.5565  
G01 X-2.1485 Y0.5556  
G01 X-2.1486 Y0.5547  
G01 X-2.1485 Y0.5531  
G01 X-2.1485 Y0.1355  
G01 X-2.1475 Y0.1306  
G01 X-2.1456 Y0.1259  
G01 X-2.1428 Y0.1217  
G01 X-2.0408 Y0.0197  
G01 X-2.0373 Y0.0162  
G01 X-2.0331 Y0.0134  
G01 X-2.0284 Y0.0115  
G01 X-2.0235 Y0.0105  
G01 X-0.2195 Y0.0105  
G01 X-0.2146 Y0.0115  
G01 X-0.2099 Y0.0134  
G01 X-0.2057 Y0.0162  
G01 X-0.0417 Y0.1802  
G01 X-0.0382 Y0.1837  
G00 Z0.0500  
G00 X-0.1130 Y0.2276  
G01 Z-0.0035 F10    
G01 X-0.1091 Y0.2333  F20    
G01 X-0.1065 Y0.2397  
G01 X-0.1051 Y0.2465  
G01 X-0.1051 Y0.2535  
G01 X-0.1065 Y0.2603  
G01 X-0.1091 Y0.2667  
G01 X-0.1130 Y0.2724  
G01 X-0.1179 Y0.2773  
G01 X-0.1236 Y0.2812  
G01 X-0.1301 Y0.2838  
G01 X-0.1368 Y0.2852  
G01 X-0.2032 Y0.2852  
G01 X-0.2099 Y0.2838  
G01 X-0.2164 Y0.2812  
G01 X-0.2221 Y0.2773  
G01 X-0.2270 Y0.2724  
G01 X-0.2309 Y0.2667  
G01 X-0.2335 Y0.2603  
G01 X-0.2349 Y0.2535  
G01 X-0.2349 Y0.2465  
G01 X-0.2335 Y0.2397  
G01 X-0.2309 Y0.2333  
G01 X-0.2270 Y0.2276  
G01 X-0.2221 Y0.2227  
G01 X-0.2164 Y0.2188  
G01 X-0.2131 Y0.2175  
G01 X-0.2271 Y0.2035  
G01 X-0.5849 Y0.2035  
G01 X-0.6817 Y0.3970  
G01 X-0.6818 Y0.3975  
G01 X-0.6828 Y0.3992  
G01 X-0.6837 Y0.4010  
G01 X-0.6841 Y0.4015  
G01 X-0.6844 Y0.4020  
G01 X-0.6858 Y0.4034  
G01 X-0.6871 Y0.4049  
G01 X-0.6876 Y0.4052  
G01 X-0.6880 Y0.4056  
G01 X-0.6897 Y0.4066  
G01 X-0.6914 Y0.4077  
G01 X-0.6920 Y0.4079  
G01 X-0.6925 Y0.4082  
G01 X-0.6944 Y0.4087  
G01 X-0.6963 Y0.4093  
G01 X-0.6969 Y0.4093  
G01 X-0.6974 Y0.4095  
G01 X-0.6994 Y0.4095  
G01 X-0.7014 Y0.4096  
G01 X-0.7020 Y0.4095  
G01 X-1.0841 Y0.4095  
G01 X-1.1390 Y0.4461  
G01 X-1.1474 Y0.4520  
G01 X-1.1480 Y0.4526  
G01 X-1.1495 Y0.4535  
G01 X-1.1509 Y0.4544  
G01 X-1.1517 Y0.4547  
G01 X-1.1525 Y0.4552  
G01 X-1.1541 Y0.4556  
G01 X-1.1557 Y0.4562  
G01 X-1.1566 Y0.4563  
G01 X-1.1574 Y0.4565  
G01 X-1.1591 Y0.4565  
G01 X-1.1609 Y0.4566  
G01 X-1.1617 Y0.4565  
G01 X-1.2132 Y0.4565  
G01 X-1.2137 Y0.4592  
G01 X-1.2161 Y0.4649  
G01 X-1.2195 Y0.4701  
G01 X-1.2239 Y0.4745  
G01 X-1.2291 Y0.4779  
G01 X-1.2348 Y0.4803  
G01 X-1.2409 Y0.4815  
G01 X-1.2991 Y0.4815  
G01 X-1.3052 Y0.4803  
G01 X-1.3109 Y0.4779  
G01 X-1.3161 Y0.4745  
G01 X-1.3205 Y0.4701  
G01 X-1.3239 Y0.4649  
G01 X-1.3263 Y0.4592  
G01 X-1.3275 Y0.4531  
G01 X-1.3275 Y0.4469  
G01 X-1.3263 Y0.4408  
G01 X-1.3239 Y0.4351  
G01 X-1.3205 Y0.4299  
G01 X-1.3161 Y0.4255  
G01 X-1.3109 Y0.4221  
G01 X-1.3052 Y0.4197  
G01 X-1.2991 Y0.4185  
G01 X-1.2604 Y0.4185  
G01 X-1.2596 Y0.4182  
G01 X-1.2581 Y0.4179  
G01 X-1.2566 Y0.4175  
G01 X-1.2556 Y0.4175  
G01 X-1.2545 Y0.4173  
G01 X-1.2530 Y0.4175  
G01 X-1.1661 Y0.4175  
G01 X-1.1631 Y0.4154  
G01 X-1.1630 Y0.4152  
G01 X-1.1610 Y0.4139  
G01 X-1.1591 Y0.4126  
G01 X-1.1589 Y0.4125  
G01 X-1.1024 Y0.3748  
G01 X-1.1020 Y0.3744  
G01 X-1.1003 Y0.3734  
G01 X-1.0987 Y0.3724  
G01 X-1.0981 Y0.3721  
G01 X-1.0975 Y0.3718  
G01 X-1.0957 Y0.3713  
G01 X-1.0938 Y0.3707  
G01 X-1.0932 Y0.3707  
G01 X-1.0926 Y0.3705  
G01 X-1.0906 Y0.3705  
G01 X-1.0887 Y0.3704  
G01 X-1.0881 Y0.3705  
G01 X-0.7121 Y0.3705  
G01 X-0.6153 Y0.1770  
G01 X-0.6152 Y0.1765  
G01 X-0.6142 Y0.1748  
G01 X-0.6133 Y0.1730  
G01 X-0.6129 Y0.1725  
G01 X-0.6126 Y0.1720  
G01 X-0.6112 Y0.1706  
G01 X-0.6099 Y0.1691  
G01 X-0.6094 Y0.1688  
G01 X-0.6090 Y0.1684  
G01 X-0.6073 Y0.1674  
G01 X-0.6056 Y0.1663  
G01 X-0.6050 Y0.1661  
G01 X-0.6045 Y0.1658  
G01 X-0.6026 Y0.1653  
G01 X-0.6007 Y0.1647  
G01 X-0.6001 Y0.1647  
G01 X-0.5996 Y0.1645  
G01 X-0.5976 Y0.1645  
G01 X-0.5956 Y0.1644  
G01 X-0.5950 Y0.1645  
G01 X-0.2164 Y0.1645  
G01 X-0.2115 Y0.1658  
G01 X-0.2070 Y0.1684  
G01 X-0.1606 Y0.2148  
G01 X-0.1368 Y0.2148  
G01 X-0.1301 Y0.2162  
G01 X-0.1236 Y0.2188  
G01 X-0.1179 Y0.2227  
G01 X-0.1130 Y0.2276  
G00 Z0.0500  
G00 X-0.1130 Y0.4276  
G01 Z-0.0035 F10    
G01 X-0.1091 Y0.4333  F20    
G01 X-0.1065 Y0.4397  
G01 X-0.1051 Y0.4465  
G01 X-0.1051 Y0.4535  
G01 X-0.1065 Y0.4603  
G01 X-0.1091 Y0.4667  
G01 X-0.1130 Y0.4724  
G01 X-0.1179 Y0.4773  
G01 X-0.1236 Y0.4812  
G01 X-0.1301 Y0.4838  
G01 X-0.1368 Y0.4852  
G01 X-0.1475 Y0.4852  
G01 X-0.1475 Y0.5931  
G01 X-0.1427 Y0.5979  
G01 X-0.1388 Y0.6036  
G01 X-0.1362 Y0.6101  
G01 X-0.1348 Y0.6168  
G01 X-0.1348 Y0.6832  
G01 X-0.1362 Y0.6899  
G01 X-0.1388 Y0.6964  
G01 X-0.1427 Y0.7021  
G01 X-0.1445 Y0.7039  
G01 X-0.1445 Y0.9961  
G01 X-0.1427 Y0.9979  
G01 X-0.1388 Y1.0036  
G01 X-0.1362 Y1.0101  
G01 X-0.1348 Y1.0168  
G01 X-0.1348 Y1.0832  
G01 X-0.1362 Y1.0899  
G01 X-0.1388 Y1.0964  
G01 X-0.1427 Y1.1021  
G01 X-0.1445 Y1.1039  
G01 X-0.1445 Y1.2461  
G01 X-0.1427 Y1.2479  
G01 X-0.1388 Y1.2536  
G01 X-0.1362 Y1.2601  
G01 X-0.1348 Y1.2668  
G01 X-0.1348 Y1.3332  
G01 X-0.1362 Y1.3399  
G01 X-0.1388 Y1.3464  
G01 X-0.1427 Y1.3521  
G01 X-0.1445 Y1.3539  
G01 X-0.1445 Y1.4961  
G01 X-0.1427 Y1.4979  
G01 X-0.1388 Y1.5036  
G01 X-0.1362 Y1.5101  
G01 X-0.1348 Y1.5168  
G01 X-0.1348 Y1.5832  
G01 X-0.1362 Y1.5899  
G01 X-0.1388 Y1.5964  
G01 X-0.1427 Y1.6021  
G01 X-0.1476 Y1.6070  
G01 X-0.1533 Y1.6109  
G01 X-0.1597 Y1.6135  
G01 X-0.1665 Y1.6149  
G01 X-0.1735 Y1.6149  
G01 X-0.1803 Y1.6135  
G01 X-0.1867 Y1.6109  
G01 X-0.1924 Y1.6070  
G01 X-0.1973 Y1.6021  
G01 X-0.2012 Y1.5964  
G01 X-0.2038 Y1.5899  
G01 X-0.2052 Y1.5832  
G01 X-0.2052 Y1.5168  
G01 X-0.2038 Y1.5101  
G01 X-0.2012 Y1.5036  
G01 X-0.1973 Y1.4979  
G01 X-0.1955 Y1.4961  
G01 X-0.1955 Y1.3539  
G01 X-0.1973 Y1.3521  
G01 X-0.2012 Y1.3464  
G01 X-0.2038 Y1.3399  
G01 X-0.2052 Y1.3332  
G01 X-0.2052 Y1.2668  
G01 X-0.2038 Y1.2601  
G01 X-0.2012 Y1.2536  
G01 X-0.1973 Y1.2479  
G01 X-0.1955 Y1.2461  
G01 X-0.1955 Y1.1039  
G01 X-0.1973 Y1.1021  
G01 X-0.2012 Y1.0964  
G01 X-0.2038 Y1.0899  
G01 X-0.2052 Y1.0832  
G01 X-0.2052 Y1.0168  
G01 X-0.2038 Y1.0101  
G01 X-0.2012 Y1.0036  
G01 X-0.1973 Y0.9979  
G01 X-0.1955 Y0.9961  
G01 X-0.1955 Y0.7092  
G01 X-0.1956 Y0.7091  
G01 X-0.1975 Y0.7044  
G01 X-0.1983 Y0.7007  
G01 X-0.2012 Y0.6964  
G01 X-0.2038 Y0.6899  
G01 X-0.2052 Y0.6832  
G01 X-0.2052 Y0.6168  
G01 X-0.2038 Y0.6101  
G01 X-0.2012 Y0.6036  
G01 X-0.1985 Y0.5996  
G01 X-0.1985 Y0.4855  
G01 X-0.4515 Y0.4855  
G01 X-0.4531 Y0.4852  
G01 X-0.4576 Y0.4852  
G01 X-0.5605 Y0.6513  
G01 X-0.5605 Y0.7679  
G01 X-0.5604 Y0.7693  
G01 X-0.5605 Y0.7704  
G01 X-0.5605 Y0.7715  
G01 X-0.5608 Y0.7729  
G01 X-0.5645 Y0.8064  
G01 X-0.5645 Y0.8765  
G01 X-0.5655 Y0.8814  
G01 X-0.5674 Y0.8861  
G01 X-0.5702 Y0.8903  
G01 X-0.6201 Y0.9402  
G01 X-0.6348 Y0.9791  
G01 X-0.6348 Y1.0332  
G01 X-0.6362 Y1.0399  
G01 X-0.6388 Y1.0464  
G01 X-0.6427 Y1.0521  
G01 X-0.6476 Y1.0570  
G01 X-0.6485 Y1.0576  
G01 X-0.6485 Y1.1028  
G01 X-0.6500 Y1.1083  
G01 X-0.6528 Y1.1132  
G01 X-0.6568 Y1.1172  
G01 X-0.7528 Y1.2132  
G01 X-0.7577 Y1.2160  
G01 X-0.7632 Y1.2175  
G01 X-0.9597 Y1.2175  
G01 X-0.9630 Y1.2224  
G01 X-0.9679 Y1.2273  
G01 X-0.9736 Y1.2312  
G01 X-0.9801 Y1.2338  
G01 X-0.9868 Y1.2352  
G01 X-1.0532 Y1.2352  
G01 X-1.0599 Y1.2338  
G01 X-1.0664 Y1.2312  
G01 X-1.0721 Y1.2273  
G01 X-1.0770 Y1.2224  
G01 X-1.0809 Y1.2167  
G01 X-1.0835 Y1.2103  
G01 X-1.0849 Y1.2035  
G01 X-1.0849 Y1.1965  
G01 X-1.0835 Y1.1897  
G01 X-1.0809 Y1.1833  
G01 X-1.0770 Y1.1776  
G01 X-1.0721 Y1.1727  
G01 X-1.0664 Y1.1688  
G01 X-1.0599 Y1.1662  
G01 X-1.0532 Y1.1648  
G01 X-0.9868 Y1.1648  
G01 X-0.9801 Y1.1662  
G01 X-0.9736 Y1.1688  
G01 X-0.9679 Y1.1727  
G01 X-0.9661 Y1.1745  
G01 X-0.7749 Y1.1745  
G01 X-0.6915 Y1.0911  
G01 X-0.6915 Y1.0576  
G01 X-0.6924 Y1.0570  
G01 X-0.6973 Y1.0521  
G01 X-0.7012 Y1.0464  
G01 X-0.7038 Y1.0399  
G01 X-0.7052 Y1.0332  
G01 X-0.7052 Y1.0082  
G01 X-0.7322 Y0.9915  
G01 X-0.9575 Y0.9915  
G01 X-0.9624 Y0.9905  
G01 X-0.9671 Y0.9886  
G01 X-0.9713 Y0.9858  
G01 X-0.9748 Y0.9823  
G01 X-0.9753 Y0.9815  
G01 X-0.9830 Y0.9815  
G01 X-1.0015 Y0.9630  
G01 X-1.0015 Y0.9529  
G01 X-1.0022 Y0.9514  
G01 X-1.0201 Y0.8765  
G01 X-1.2270 Y0.8765  
G01 X-1.2291 Y0.8779  
G01 X-1.2348 Y0.8803  
G01 X-1.2409 Y0.8815  
G01 X-1.2991 Y0.8815  
G01 X-1.3052 Y0.8803  
G01 X-1.3109 Y0.8779  
G01 X-1.3161 Y0.8745  
G01 X-1.3205 Y0.8701  
G01 X-1.3239 Y0.8649  
G01 X-1.3263 Y0.8592  
G01 X-1.3275 Y0.8531  
G01 X-1.3275 Y0.8469  
G01 X-1.3273 Y0.8458  
G01 X-1.3927 Y0.7980  
G01 X-1.3931 Y0.7984  
G01 X-1.3952 Y0.7992  
G01 X-1.4448 Y0.7992  
G01 X-1.4469 Y0.7984  
G01 X-1.4484 Y0.7969  
G01 X-1.4492 Y0.7948  
G01 X-1.4492 Y0.7452  
G01 X-1.4484 Y0.7431  
G01 X-1.4469 Y0.7416  
G01 X-1.4448 Y0.7408  
G01 X-1.4255 Y0.7408  
G01 X-1.4255 Y0.1790  
G01 X-1.4269 Y0.1784  
G01 X-1.4284 Y0.1769  
G01 X-1.4292 Y0.1748  
G01 X-1.4292 Y0.1252  
G01 X-1.4284 Y0.1231  
G01 X-1.4269 Y0.1216  
G01 X-1.4248 Y0.1208  
G01 X-1.3752 Y0.1208  
G01 X-1.3731 Y0.1216  
G01 X-1.3716 Y0.1231  
G01 X-1.3708 Y0.1252  
G01 X-1.3708 Y0.1748  
G01 X-1.3716 Y0.1769  
G01 X-1.3731 Y0.1784  
G01 X-1.3745 Y0.1790  
G01 X-1.3745 Y0.7481  
G01 X-1.2782 Y0.8185  
G01 X-1.2409 Y0.8185  
G01 X-1.2348 Y0.8197  
G01 X-1.2291 Y0.8221  
G01 X-1.2240 Y0.8255  
G01 X-1.0005 Y0.8255  
G01 X-0.9985 Y0.8254  
G01 X-0.9980 Y0.8255  
G01 X-0.9975 Y0.8255  
G01 X-0.9955 Y0.8259  
G01 X-0.9935 Y0.8262  
G01 X-0.9930 Y0.8264  
G01 X-0.9926 Y0.8265  
G01 X-0.9907 Y0.8273  
G01 X-0.9888 Y0.8280  
G01 X-0.9884 Y0.8282  
G01 X-0.9879 Y0.8284  
G01 X-0.9862 Y0.8295  
G01 X-0.9845 Y0.8306  
G01 X-0.9842 Y0.8309  
G01 X-0.9837 Y0.8312  
G01 X-0.9823 Y0.8326  
G01 X-0.9808 Y0.8340  
G01 X-0.9805 Y0.8344  
G01 X-0.9802 Y0.8347  
G01 X-0.9791 Y0.8364  
G01 X-0.9779 Y0.8381  
G01 X-0.9777 Y0.8385  
G01 X-0.9774 Y0.8389  
G01 X-0.9766 Y0.8408  
G01 X-0.9758 Y0.8426  
G01 X-0.9757 Y0.8431  
G01 X-0.9755 Y0.8436  
G01 X-0.9751 Y0.8455  
G01 X-0.9576 Y0.9185  
G01 X-0.9570 Y0.9185  
G01 X-0.9385 Y0.9370  
G01 X-0.9385 Y0.9405  
G01 X-0.7255 Y0.9405  
G01 X-0.7234 Y0.9404  
G01 X-0.7229 Y0.9405  
G01 X-0.7225 Y0.9405  
G01 X-0.7205 Y0.9409  
G01 X-0.7184 Y0.9412  
G01 X-0.7180 Y0.9414  
G01 X-0.7176 Y0.9415  
G01 X-0.7157 Y0.9423  
G01 X-0.7137 Y0.9430  
G01 X-0.7133 Y0.9432  
G01 X-0.7129 Y0.9434  
G01 X-0.7112 Y0.9445  
G01 X-0.6998 Y0.9516  
G01 X-0.6973 Y0.9479  
G01 X-0.6924 Y0.9430  
G01 X-0.6867 Y0.9391  
G01 X-0.6803 Y0.9365  
G01 X-0.6735 Y0.9351  
G01 X-0.6727 Y0.9351  
G01 X-0.6666 Y0.9190  
G01 X-0.6665 Y0.9186  
G01 X-0.6657 Y0.9166  
G01 X-0.6650 Y0.9146  
G01 X-0.6647 Y0.9143  
G01 X-0.6646 Y0.9139  
G01 X-0.6634 Y0.9122  
G01 X-0.6623 Y0.9104  
G01 X-0.6620 Y0.9101  
G01 X-0.6618 Y0.9097  
G01 X-0.6603 Y0.9082  
G01 X-0.6589 Y0.9067  
G01 X-0.6585 Y0.9065  
G01 X-0.6155 Y0.8634  
G01 X-0.6155 Y0.8061  
G01 X-0.6156 Y0.8047  
G01 X-0.6155 Y0.8036  
G01 X-0.6155 Y0.8025  
G01 X-0.6152 Y0.8011  
G01 X-0.6115 Y0.7676  
G01 X-0.6115 Y0.6695  
G01 X-0.7915 Y0.6695  
G01 X-0.7915 Y0.7340  
G01 X-0.7885 Y0.7370  
G01 X-0.7885 Y0.7630  
G01 X-0.8070 Y0.7815  
G01 X-0.8330 Y0.7815  
G01 X-0.8515 Y0.7630  
G01 X-0.8515 Y0.7370  
G01 X-0.8425 Y0.7280  
G01 X-0.8425 Y0.6720  
G01 X-0.8515 Y0.6630  
G01 X-0.8515 Y0.6370  
G01 X-0.8330 Y0.6185  
G01 X-0.6002 Y0.6185  
G01 X-0.5154 Y0.4816  
G01 X-0.5164 Y0.4812  
G01 X-0.5221 Y0.4773  
G01 X-0.5270 Y0.4724  
G01 X-0.5309 Y0.4667  
G01 X-0.5335 Y0.4603  
G01 X-0.5349 Y0.4535  
G01 X-0.5349 Y0.4465  
G01 X-0.5335 Y0.4397  
G01 X-0.5309 Y0.4333  
G01 X-0.5270 Y0.4276  
G01 X-0.5221 Y0.4227  
G01 X-0.5164 Y0.4188  
G01 X-0.5099 Y0.4162  
G01 X-0.5032 Y0.4148  
G01 X-0.4368 Y0.4148  
G01 X-0.4301 Y0.4162  
G01 X-0.4236 Y0.4188  
G01 X-0.4179 Y0.4227  
G01 X-0.4130 Y0.4276  
G01 X-0.4091 Y0.4333  
G01 X-0.4087 Y0.4345  
G01 X-0.2313 Y0.4345  
G01 X-0.2309 Y0.4333  
G01 X-0.2270 Y0.4276  
G01 X-0.2221 Y0.4227  
G01 X-0.2164 Y0.4188  
G01 X-0.2099 Y0.4162  
G01 X-0.2032 Y0.4148  
G01 X-0.1368 Y0.4148  
G01 X-0.1301 Y0.4162  
G01 X-0.1236 Y0.4188  
G01 X-0.1179 Y0.4227  
G01 X-0.1130 Y0.4276  
G00 Z0.0500  
G00 X-0.2427 Y0.5979  
G01 Z-0.0035 F10    
G01 X-0.2388 Y0.6036  F20    
G01 X-0.2362 Y0.6101  
G01 X-0.2348 Y0.6168  
G01 X-0.2348 Y0.6832  
G01 X-0.2362 Y0.6899  
G01 X-0.2388 Y0.6964  
G01 X-0.2427 Y0.7021  
G01 X-0.2445 Y0.7039  
G01 X-0.2445 Y0.8210  
G01 X-0.2431 Y0.8216  
G01 X-0.2416 Y0.8231  
G01 X-0.2408 Y0.8252  
G01 X-0.2408 Y0.8748  
G01 X-0.2416 Y0.8769  
G01 X-0.2431 Y0.8784  
G01 X-0.2452 Y0.8792  
G01 X-0.2948 Y0.8792  
G01 X-0.2969 Y0.8784  
G01 X-0.2984 Y0.8769  
G01 X-0.2992 Y0.8748  
G01 X-0.2992 Y0.8252  
G01 X-0.2984 Y0.8231  
G01 X-0.2969 Y0.8216  
G01 X-0.2955 Y0.8210  
G01 X-0.2955 Y0.7039  
G01 X-0.2973 Y0.7021  
G01 X-0.3012 Y0.6964  
G01 X-0.3038 Y0.6899  
G01 X-0.3052 Y0.6832  
G01 X-0.3052 Y0.6168  
G01 X-0.3038 Y0.6101  
G01 X-0.3012 Y0.6036  
G01 X-0.2973 Y0.5979  
G01 X-0.2924 Y0.5930  
G01 X-0.2867 Y0.5891  
G01 X-0.2803 Y0.5865  
G01 X-0.2735 Y0.5851  
G01 X-0.2665 Y0.5851  
G01 X-0.2597 Y0.5865  
G01 X-0.2533 Y0.5891  
G01 X-0.2476 Y0.5930  
G01 X-0.2427 Y0.5979  
G00 Z0.0500  
G00 X-0.3427 Y0.5979  
G01 Z-0.0035 F10    
G01 X-0.3388 Y0.6036  F20    
G01 X-0.3362 Y0.6101  
G01 X-0.3348 Y0.6168  
G01 X-0.3348 Y0.6832  
G01 X-0.3362 Y0.6899  
G01 X-0.3388 Y0.6964  
G01 X-0.3427 Y0.7021  
G01 X-0.3476 Y0.7070  
G01 X-0.3485 Y0.7076  
G01 X-0.3485 Y0.7528  
G01 X-0.3500 Y0.7583  
G01 X-0.3528 Y0.7632  
G01 X-0.4485 Y0.8589  
G01 X-0.4485 Y1.1528  
G01 X-0.4500 Y1.1583  
G01 X-0.4528 Y1.1632  
G01 X-0.9040 Y1.6144  
G01 X-0.9102 Y1.6222  
G01 X-0.9108 Y1.6232  
G01 X-0.9120 Y1.6244  
G01 X-0.9130 Y1.6256  
G01 X-0.9139 Y1.6264  
G01 X-0.9148 Y1.6272  
G01 X-0.9162 Y1.6280  
G01 X-0.9175 Y1.6290  
G01 X-0.9187 Y1.6294  
G01 X-0.9197 Y1.6300  
G01 X-0.9213 Y1.6305  
G01 X-0.9228 Y1.6311  
G01 X-0.9240 Y1.6312  
G01 X-0.9252 Y1.6315  
G01 X-0.9268 Y1.6315  
G01 X-0.9284 Y1.6317  
G01 X-0.9296 Y1.6315  
G01 X-0.9808 Y1.6315  
G01 X-0.9863 Y1.6300  
G01 X-0.9872 Y1.6295  
G01 X-1.3316 Y1.6295  
G01 X-1.3328 Y1.6297  
G01 X-1.3342 Y1.6295  
G01 X-1.3356 Y1.6295  
G01 X-1.3367 Y1.6292  
G01 X-1.3379 Y1.6290  
G01 X-1.3392 Y1.6285  
G01 X-1.3405 Y1.6282  
G01 X-1.3416 Y1.6276  
G01 X-1.3427 Y1.6271  
G01 X-1.3438 Y1.6263  
G01 X-1.3450 Y1.6256  
G01 X-1.3458 Y1.6248  
G01 X-1.3468 Y1.6240  
G01 X-1.3476 Y1.6230  
G01 X-1.3486 Y1.6220  
G01 X-1.3492 Y1.6209  
G01 X-1.3836 Y1.5770  
G01 X-1.3846 Y1.5760  
G01 X-1.3852 Y1.5749  
G01 X-1.3859 Y1.5740  
G01 X-1.3865 Y1.5727  
G01 X-1.3872 Y1.5715  
G01 X-1.3875 Y1.5704  
G01 X-1.3879 Y1.5693  
G01 X-1.3881 Y1.5679  
G01 X-1.3885 Y1.5666  
G01 X-1.3885 Y1.5654  
G01 X-1.3887 Y1.5642  
G01 X-1.3885 Y1.5628  
G01 X-1.3885 Y1.2164  
G01 X-1.3872 Y1.2115  
G01 X-1.3846 Y1.2070  
G01 X-1.3810 Y1.2034  
G01 X-1.3613 Y1.1837  
G01 X-1.3610 Y1.1833  
G01 X-1.3595 Y1.1819  
G01 X-1.3580 Y1.1804  
G01 X-1.3576 Y1.1802  
G01 X-1.3276 Y1.1529  
G01 X-1.3275 Y1.1528  
G01 X-1.3275 Y1.1469  
G01 X-1.3263 Y1.1408  
G01 X-1.3239 Y1.1351  
G01 X-1.3205 Y1.1299  
G01 X-1.3161 Y1.1255  
G01 X-1.3109 Y1.1221  
G01 X-1.3052 Y1.1197  
G01 X-1.2991 Y1.1185  
G01 X-1.2409 Y1.1185  
G01 X-1.2348 Y1.1197  
G01 X-1.2291 Y1.1221  
G01 X-1.2239 Y1.1255  
G01 X-1.2195 Y1.1299  
G01 X-1.2161 Y1.1351  
G01 X-1.2137 Y1.1408  
G01 X-1.2125 Y1.1469  
G01 X-1.2125 Y1.1531  
G01 X-1.2137 Y1.1592  
G01 X-1.2161 Y1.1649  
G01 X-1.2195 Y1.1701  
G01 X-1.2239 Y1.1745  
G01 X-1.2291 Y1.1779  
G01 X-1.2348 Y1.1803  
G01 X-1.2409 Y1.1815  
G01 X-1.2991 Y1.1815  
G01 X-1.2996 Y1.1814  
G01 X-1.3022 Y1.1825  
G01 X-1.3325 Y1.2101  
G01 X-1.3495 Y1.2271  
G01 X-1.3495 Y1.5573  
G01 X-1.3235 Y1.5905  
G01 X-0.9872 Y1.5905  
G01 X-0.9863 Y1.5900  
G01 X-0.9808 Y1.5885  
G01 X-0.9383 Y1.5885  
G01 X-0.9378 Y1.5878  
G01 X-0.9372 Y1.5868  
G01 X-0.9360 Y1.5856  
G01 X-0.9350 Y1.5844  
G01 X-0.9341 Y1.5836  
G01 X-0.4915 Y1.1411  
G01 X-0.4915 Y0.8472  
G01 X-0.4900 Y0.8417  
G01 X-0.4872 Y0.8368  
G01 X-0.4832 Y0.8328  
G01 X-0.3915 Y0.7411  
G01 X-0.3915 Y0.7076  
G01 X-0.3924 Y0.7070  
G01 X-0.3973 Y0.7021  
G01 X-0.4012 Y0.6964  
G01 X-0.4038 Y0.6899  
G01 X-0.4052 Y0.6832  
G01 X-0.4052 Y0.6168  
G01 X-0.4038 Y0.6101  
G01 X-0.4012 Y0.6036  
G01 X-0.3973 Y0.5979  
G01 X-0.3924 Y0.5930  
G01 X-0.3867 Y0.5891  
G01 X-0.3803 Y0.5865  
G01 X-0.3735 Y0.5851  
G01 X-0.3665 Y0.5851  
G01 X-0.3597 Y0.5865  
G01 X-0.3533 Y0.5891  
G01 X-0.3476 Y0.5930  
G01 X-0.3427 Y0.5979  
G00 Z0.0500  
G00 X-0.6670 Y0.5815  
G01 Z-0.0035 F10    
G01 X-0.6930 Y0.5815  F20    
G01 X-0.7030 Y0.5715  
G01 X-0.7970 Y0.5715  
G01 X-0.8070 Y0.5815  
G01 X-0.8330 Y0.5815  
G01 X-0.8430 Y0.5715  
G01 X-0.9931 Y0.5715  
G01 X-0.9955 Y0.5751  
G01 X-0.9999 Y0.5795  
G01 X-1.0051 Y0.5829  
G01 X-1.0064 Y0.5834  
G01 X-1.0068 Y0.5842  
G01 X-1.0077 Y0.5859  
G01 X-1.0081 Y0.5864  
G01 X-1.0084 Y0.5870  
G01 X-1.0098 Y0.5883  
G01 X-1.0110 Y0.5898  
G01 X-1.0116 Y0.5902  
G01 X-1.0810 Y0.6596  
G01 X-1.0855 Y0.6622  
G01 X-1.0904 Y0.6635  
G01 X-1.2155 Y0.6635  
G01 X-1.2161 Y0.6649  
G01 X-1.2195 Y0.6701  
G01 X-1.2239 Y0.6745  
G01 X-1.2291 Y0.6779  
G01 X-1.2348 Y0.6803  
G01 X-1.2409 Y0.6815  
G01 X-1.2991 Y0.6815  
G01 X-1.3052 Y0.6803  
G01 X-1.3109 Y0.6779  
G01 X-1.3161 Y0.6745  
G01 X-1.3205 Y0.6701  
G01 X-1.3239 Y0.6649  
G01 X-1.3263 Y0.6592  
G01 X-1.3275 Y0.6531  
G01 X-1.3275 Y0.6469  
G01 X-1.3263 Y0.6408  
G01 X-1.3239 Y0.6351  
G01 X-1.3205 Y0.6299  
G01 X-1.3161 Y0.6255  
G01 X-1.3109 Y0.6221  
G01 X-1.3052 Y0.6197  
G01 X-1.2991 Y0.6185  
G01 X-1.2409 Y0.6185  
G01 X-1.2348 Y0.6197  
G01 X-1.2291 Y0.6221  
G01 X-1.2255 Y0.6245  
G01 X-1.1011 Y0.6245  
G01 X-1.0473 Y0.5708  
G01 X-1.0479 Y0.5699  
G01 X-1.0503 Y0.5642  
G01 X-1.0515 Y0.5581  
G01 X-1.0515 Y0.5519  
G01 X-1.0503 Y0.5458  
G01 X-1.0479 Y0.5401  
G01 X-1.0445 Y0.5349  
G01 X-1.0401 Y0.5305  
G01 X-1.0349 Y0.5271  
G01 X-1.0292 Y0.5247  
G01 X-1.0231 Y0.5235  
G01 X-1.0169 Y0.5235  
G01 X-1.0108 Y0.5247  
G01 X-1.0051 Y0.5271  
G01 X-0.9999 Y0.5305  
G01 X-0.9980 Y0.5325  
G01 X-0.8470 Y0.5325  
G01 X-0.8330 Y0.5185  
G01 X-0.8070 Y0.5185  
G01 X-0.7930 Y0.5325  
G01 X-0.7070 Y0.5325  
G01 X-0.6930 Y0.5185  
G01 X-0.6670 Y0.5185  
G01 X-0.6485 Y0.5370  
G01 X-0.6485 Y0.5630  
G01 X-0.6670 Y0.5815  
G00 Z0.0500  
G00 X-0.6674 Y0.4695  
G01 Z-0.0035 F10    
G01 X-1.0619 Y0.4695  F20    
G01 X-1.1235 Y0.5311  
G01 X-1.1235 Y0.5316  
G01 X-1.1248 Y0.5365  
G01 X-1.1274 Y0.5410  
G01 X-1.1310 Y0.5446  
G01 X-1.1355 Y0.5472  
G01 X-1.1404 Y0.5485  
G01 X-1.2125 Y0.5485  
G01 X-1.2125 Y0.5531  
G01 X-1.2137 Y0.5592  
G01 X-1.2161 Y0.5649  
G01 X-1.2195 Y0.5701  
G01 X-1.2239 Y0.5745  
G01 X-1.2291 Y0.5779  
G01 X-1.2348 Y0.5803  
G01 X-1.2409 Y0.5815  
G01 X-1.2991 Y0.5815  
G01 X-1.3052 Y0.5803  
G01 X-1.3109 Y0.5779  
G01 X-1.3161 Y0.5745  
G01 X-1.3205 Y0.5701  
G01 X-1.3239 Y0.5649  
G01 X-1.3263 Y0.5592  
G01 X-1.3275 Y0.5531  
G01 X-1.3275 Y0.5469  
G01 X-1.3263 Y0.5408  
G01 X-1.3239 Y0.5351  
G01 X-1.3205 Y0.5299  
G01 X-1.3161 Y0.5255  
G01 X-1.3109 Y0.5221  
G01 X-1.3052 Y0.5197  
G01 X-1.2991 Y0.5185  
G01 X-1.2705 Y0.5185  
G01 X-1.2703 Y0.5182  
G01 X-1.2696 Y0.5170  
G01 X-1.2687 Y0.5161  
G01 X-1.2680 Y0.5151  
G01 X-1.2669 Y0.5143  
G01 X-1.2660 Y0.5134  
G01 X-1.2649 Y0.5128  
G01 X-1.2639 Y0.5120  
G01 X-1.2627 Y0.5115  
G01 X-1.2615 Y0.5108  
G01 X-1.2603 Y0.5105  
G01 X-1.2592 Y0.5100  
G01 X-1.2578 Y0.5098  
G01 X-1.2566 Y0.5095  
G01 X-1.2553 Y0.5095  
G01 X-1.2541 Y0.5093  
G01 X-1.2528 Y0.5095  
G01 X-1.1571 Y0.5095  
G01 X-1.1550 Y0.5074  
G01 X-1.0820 Y0.4344  
G01 X-1.0775 Y0.4318  
G01 X-1.0726 Y0.4305  
G01 X-0.6781 Y0.4305  
G01 X-0.6360 Y0.3885  
G01 X-0.5653 Y0.2461  
G01 X-0.5652 Y0.2455  
G01 X-0.5642 Y0.2438  
G01 X-0.5633 Y0.2420  
G01 X-0.5629 Y0.2416  
G01 X-0.5626 Y0.2410  
G01 X-0.5612 Y0.2396  
G01 X-0.5599 Y0.2382  
G01 X-0.5594 Y0.2378  
G01 X-0.5590 Y0.2374  
G01 X-0.5573 Y0.2364  
G01 X-0.5556 Y0.2353  
G01 X-0.5551 Y0.2351  
G01 X-0.5545 Y0.2348  
G01 X-0.5526 Y0.2343  
G01 X-0.5508 Y0.2337  
G01 X-0.5502 Y0.2337  
G01 X-0.5496 Y0.2335  
G01 X-0.5476 Y0.2335  
G01 X-0.5457 Y0.2334  
G01 X-0.5451 Y0.2335  
G01 X-0.5309 Y0.2335  
G01 X-0.5309 Y0.2333  
G01 X-0.5270 Y0.2276  
G01 X-0.5221 Y0.2227  
G01 X-0.5164 Y0.2188  
G01 X-0.5099 Y0.2162  
G01 X-0.5032 Y0.2148  
G01 X-0.4368 Y0.2148  
G01 X-0.4301 Y0.2162  
G01 X-0.4236 Y0.2188  
G01 X-0.4179 Y0.2227  
G01 X-0.4130 Y0.2276  
G01 X-0.4091 Y0.2333  
G01 X-0.4065 Y0.2397  
G01 X-0.4051 Y0.2465  
G01 X-0.4051 Y0.2535  
G01 X-0.4065 Y0.2603  
G01 X-0.4091 Y0.2667  
G01 X-0.4130 Y0.2724  
G01 X-0.4179 Y0.2773  
G01 X-0.4236 Y0.2812  
G01 X-0.4301 Y0.2838  
G01 X-0.4368 Y0.2852  
G01 X-0.5032 Y0.2852  
G01 X-0.5099 Y0.2838  
G01 X-0.5164 Y0.2812  
G01 X-0.5221 Y0.2773  
G01 X-0.5269 Y0.2725  
G01 X-0.5349 Y0.2725  
G01 X-0.6017 Y0.4069  
G01 X-0.6018 Y0.4075  
G01 X-0.6028 Y0.4092  
G01 X-0.6037 Y0.4110  
G01 X-0.6041 Y0.4114  
G01 X-0.6044 Y0.4120  
G01 X-0.6058 Y0.4134  
G01 X-0.6071 Y0.4148  
G01 X-0.6076 Y0.4152  
G01 X-0.6544 Y0.4620  
G01 X-0.6580 Y0.4656  
G01 X-0.6625 Y0.4682  
G01 X-0.6674 Y0.4695  
G00 Z0.0500  
G00 X-0.6670 Y0.8185  
G01 Z-0.0035 F10    
G01 X-0.6485 Y0.8370  F20    
G01 X-0.6485 Y0.8630  
G01 X-0.6670 Y0.8815  
G01 X-0.6930 Y0.8815  
G01 X-0.7040 Y0.8705  
G01 X-0.7960 Y0.8705  
G01 X-0.8070 Y0.8815  
G01 X-0.8330 Y0.8815  
G01 X-0.8446 Y0.8700  
G01 X-0.8466 Y0.8695  
G01 X-0.8470 Y0.8693  
G01 X-0.8475 Y0.8692  
G01 X-0.8493 Y0.8681  
G01 X-0.8512 Y0.8672  
G01 X-0.8515 Y0.8669  
G01 X-0.8520 Y0.8666  
G01 X-0.8534 Y0.8651  
G01 X-0.8550 Y0.8637  
G01 X-0.8553 Y0.8633  
G01 X-0.9401 Y0.7785  
G01 X-0.9995 Y0.7785  
G01 X-1.0006 Y0.7787  
G01 X-1.0021 Y0.7785  
G01 X-1.0036 Y0.7785  
G01 X-1.0046 Y0.7782  
G01 X-1.0057 Y0.7781  
G01 X-1.0071 Y0.7776  
G01 X-1.0085 Y0.7772  
G01 X-1.0095 Y0.7766  
G01 X-1.0105 Y0.7762  
G01 X-1.0116 Y0.7754  
G01 X-1.0145 Y0.7760  
G01 X-1.0165 Y0.7772  
G01 X-1.0166 Y0.7772  
G01 X-1.0168 Y0.7773  
G01 X-1.0191 Y0.7779  
G01 X-1.0214 Y0.7785  
G01 X-1.0216 Y0.7785  
G01 X-1.0218 Y0.7785  
G01 X-1.0242 Y0.7785  
G01 X-1.2305 Y0.7785  
G01 X-1.2348 Y0.7803  
G01 X-1.2409 Y0.7815  
G01 X-1.2991 Y0.7815  
G01 X-1.3052 Y0.7803  
G01 X-1.3109 Y0.7779  
G01 X-1.3161 Y0.7745  
G01 X-1.3205 Y0.7701  
G01 X-1.3239 Y0.7649  
G01 X-1.3263 Y0.7592  
G01 X-1.3275 Y0.7531  
G01 X-1.3275 Y0.7469  
G01 X-1.3263 Y0.7408  
G01 X-1.3239 Y0.7351  
G01 X-1.3205 Y0.7299  
G01 X-1.3161 Y0.7255  
G01 X-1.3109 Y0.7221  
G01 X-1.3052 Y0.7197  
G01 X-1.2991 Y0.7185  
G01 X-1.2409 Y0.7185  
G01 X-1.2348 Y0.7197  
G01 X-1.2291 Y0.7221  
G01 X-1.2239 Y0.7255  
G01 X-1.2195 Y0.7299  
G01 X-1.2161 Y0.7351  
G01 X-1.2143 Y0.7395  
G01 X-1.0510 Y0.7395  
G01 X-1.0503 Y0.7358  
G01 X-1.0479 Y0.7301  
G01 X-1.0445 Y0.7249  
G01 X-1.0401 Y0.7205  
G01 X-1.0349 Y0.7171  
G01 X-1.0292 Y0.7147  
G01 X-1.0231 Y0.7135  
G01 X-1.0169 Y0.7135  
G01 X-1.0108 Y0.7147  
G01 X-1.0051 Y0.7171  
G01 X-0.9999 Y0.7205  
G01 X-0.9955 Y0.7249  
G01 X-0.9921 Y0.7301  
G01 X-0.9897 Y0.7358  
G01 X-0.9890 Y0.7395  
G01 X-0.9294 Y0.7395  
G01 X-0.9245 Y0.7408  
G01 X-0.9200 Y0.7434  
G01 X-0.8390 Y0.8244  
G01 X-0.8330 Y0.8185  
G01 X-0.8070 Y0.8185  
G01 X-0.7940 Y0.8315  
G01 X-0.7060 Y0.8315  
G01 X-0.6930 Y0.8185  
G01 X-0.6670 Y0.8185  
G00 Z0.0500  
G00 X-0.5924 Y0.9430  
G01 Z-0.0035 F10    
G01 X-0.5867 Y0.9391  F20    
G01 X-0.5803 Y0.9365  
G01 X-0.5735 Y0.9351  
G01 X-0.5665 Y0.9351  
G01 X-0.5597 Y0.9365  
G01 X-0.5533 Y0.9391  
G01 X-0.5476 Y0.9430  
G01 X-0.5427 Y0.9479  
G01 X-0.5388 Y0.9536  
G01 X-0.5362 Y0.9601  
G01 X-0.5348 Y0.9668  
G01 X-0.5348 Y1.0332  
G01 X-0.5362 Y1.0399  
G01 X-0.5388 Y1.0464  
G01 X-0.5427 Y1.0521  
G01 X-0.5476 Y1.0570  
G01 X-0.5533 Y1.0609  
G01 X-0.5535 Y1.0609  
G01 X-0.5584 Y1.1513  
G01 X-0.5585 Y1.1542  
G01 X-0.5587 Y1.1570  
G01 X-0.5596 Y1.1597  
G01 X-0.5604 Y1.1624  
G01 X-0.5620 Y1.1648  
G01 X-0.5635 Y1.1671  
G01 X-0.5656 Y1.1690  
G01 X-0.5677 Y1.1709  
G01 X-0.7685 Y1.3507  
G01 X-0.7685 Y1.3630  
G01 X-0.7870 Y1.3815  
G01 X-0.7917 Y1.3815  
G01 X-0.7920 Y1.3821  
G01 X-0.7925 Y1.3826  
G01 X-0.7928 Y1.3832  
G01 X-0.7943 Y1.3847  
G01 X-0.7958 Y1.3864  
G01 X-0.7963 Y1.3867  
G01 X-0.9768 Y1.5672  
G01 X-0.9817 Y1.5700  
G01 X-0.9872 Y1.5715  
G01 X-1.2210 Y1.5715  
G01 X-1.2239 Y1.5745  
G01 X-1.2291 Y1.5779  
G01 X-1.2348 Y1.5803  
G01 X-1.2409 Y1.5815  
G01 X-1.2991 Y1.5815  
G01 X-1.3052 Y1.5803  
G01 X-1.3109 Y1.5779  
G01 X-1.3161 Y1.5745  
G01 X-1.3205 Y1.5701  
G01 X-1.3239 Y1.5649  
G01 X-1.3263 Y1.5592  
G01 X-1.3275 Y1.5531  
G01 X-1.3275 Y1.5469  
G01 X-1.3263 Y1.5408  
G01 X-1.3239 Y1.5351  
G01 X-1.3205 Y1.5299  
G01 X-1.3161 Y1.5255  
G01 X-1.3109 Y1.5221  
G01 X-1.3052 Y1.5197  
G01 X-1.2991 Y1.5185  
G01 X-1.2409 Y1.5185  
G01 X-1.2348 Y1.5197  
G01 X-1.2291 Y1.5221  
G01 X-1.2239 Y1.5255  
G01 X-1.2210 Y1.5285  
G01 X-0.9989 Y1.5285  
G01 X-0.8315 Y1.3611  
G01 X-0.8315 Y1.3370  
G01 X-0.8130 Y1.3185  
G01 X-0.7971 Y1.3185  
G01 X-0.6010 Y1.1429  
G01 X-0.5961 Y1.0533  
G01 X-0.5973 Y1.0521  
G01 X-0.6012 Y1.0464  
G01 X-0.6038 Y1.0399  
G01 X-0.6052 Y1.0332  
G01 X-0.6052 Y0.9668  
G01 X-0.6038 Y0.9601  
G01 X-0.6012 Y0.9536  
G01 X-0.5973 Y0.9479  
G01 X-0.5924 Y0.9430  
G00 Z0.0500  
G00 X-0.3924 Y0.9930  
G01 Z-0.0035 F10    
G01 X-0.3867 Y0.9891  F20    
G01 X-0.3803 Y0.9865  
G01 X-0.3735 Y0.9851  
G01 X-0.3665 Y0.9851  
G01 X-0.3597 Y0.9865  
G01 X-0.3533 Y0.9891  
G01 X-0.3476 Y0.9930  
G01 X-0.3427 Y0.9979  
G01 X-0.3388 Y1.0036  
G01 X-0.3362 Y1.0101  
G01 X-0.3348 Y1.0168  
G01 X-0.3348 Y1.0832  
G01 X-0.3362 Y1.0899  
G01 X-0.3388 Y1.0964  
G01 X-0.3427 Y1.1021  
G01 X-0.3476 Y1.1070  
G01 X-0.3485 Y1.1076  
G01 X-0.3485 Y1.2424  
G01 X-0.3476 Y1.2430  
G01 X-0.3427 Y1.2479  
G01 X-0.3388 Y1.2536  
G01 X-0.3362 Y1.2601  
G01 X-0.3348 Y1.2668  
G01 X-0.3348 Y1.3332  
G01 X-0.3362 Y1.3399  
G01 X-0.3388 Y1.3464  
G01 X-0.3427 Y1.3521  
G01 X-0.3476 Y1.3570  
G01 X-0.3485 Y1.3576  
G01 X-0.3485 Y1.4924  
G01 X-0.3476 Y1.4930  
G01 X-0.3427 Y1.4979  
G01 X-0.3388 Y1.5036  
G01 X-0.3362 Y1.5101  
G01 X-0.3348 Y1.5168  
G01 X-0.3348 Y1.5832  
G01 X-0.3362 Y1.5899  
G01 X-0.3388 Y1.5964  
G01 X-0.3427 Y1.6021  
G01 X-0.3476 Y1.6070  
G01 X-0.3533 Y1.6109  
G01 X-0.3597 Y1.6135  
G01 X-0.3665 Y1.6149  
G01 X-0.3690 Y1.6149  
G01 X-0.3894 Y1.6762  
G01 X-0.3900 Y1.6783  
G01 X-0.3903 Y1.6789  
G01 X-0.3905 Y1.6795  
G01 X-0.3917 Y1.6813  
G01 X-0.3928 Y1.6832  
G01 X-0.3933 Y1.6837  
G01 X-0.3936 Y1.6842  
G01 X-0.3953 Y1.6857  
G01 X-0.3968 Y1.6872  
G01 X-0.3974 Y1.6875  
G01 X-0.3979 Y1.6880  
G01 X-0.3998 Y1.6889  
G01 X-0.4017 Y1.6900  
G01 X-0.4023 Y1.6902  
G01 X-0.4029 Y1.6905  
G01 X-0.4051 Y1.6909  
G01 X-0.4072 Y1.6915  
G01 X-0.4078 Y1.6915  
G01 X-0.4085 Y1.6916  
G01 X-0.4106 Y1.6915  
G01 X-1.3576 Y1.6915  
G01 X-1.3581 Y1.6916  
G01 X-1.3605 Y1.6915  
G01 X-1.3628 Y1.6915  
G01 X-1.3633 Y1.6914  
G01 X-1.3638 Y1.6914  
G01 X-1.3660 Y1.6906  
G01 X-1.3683 Y1.6900  
G01 X-1.3687 Y1.6898  
G01 X-1.3692 Y1.6897  
G01 X-1.3712 Y1.6884  
G01 X-1.3732 Y1.6872  
G01 X-1.3735 Y1.6869  
G01 X-1.3739 Y1.6866  
G01 X-1.3755 Y1.6849  
G01 X-1.3772 Y1.6832  
G01 X-1.3774 Y1.6828  
G01 X-1.4855 Y1.5649  
G01 X-1.4872 Y1.5632  
G01 X-1.4874 Y1.5628  
G01 X-1.4878 Y1.5624  
G01 X-1.4889 Y1.5603  
G01 X-1.4900 Y1.5583  
G01 X-1.4902 Y1.5578  
G01 X-1.4904 Y1.5574  
G01 X-1.4909 Y1.5551  
G01 X-1.4915 Y1.5528  
G01 X-1.4915 Y1.5524  
G01 X-1.4916 Y1.5519  
G01 X-1.4915 Y1.5495  
G01 X-1.4915 Y1.5089  
G01 X-1.5251 Y1.4753  
G01 X-1.5291 Y1.4779  
G01 X-1.5348 Y1.4803  
G01 X-1.5409 Y1.4815  
G01 X-1.5991 Y1.4815  
G01 X-1.6052 Y1.4803  
G01 X-1.6109 Y1.4779  
G01 X-1.6161 Y1.4745  
G01 X-1.6205 Y1.4701  
G01 X-1.6239 Y1.4649  
G01 X-1.6263 Y1.4592  
G01 X-1.6275 Y1.4531  
G01 X-1.6275 Y1.4469  
G01 X-1.6263 Y1.4408  
G01 X-1.6239 Y1.4351  
G01 X-1.6205 Y1.4299  
G01 X-1.6161 Y1.4255  
G01 X-1.6109 Y1.4221  
G01 X-1.6052 Y1.4197  
G01 X-1.5991 Y1.4185  
G01 X-1.5409 Y1.4185  
G01 X-1.5348 Y1.4197  
G01 X-1.5291 Y1.4221  
G01 X-1.5239 Y1.4255  
G01 X-1.5210 Y1.4285  
G01 X-1.5172 Y1.4285  
G01 X-1.5117 Y1.4300  
G01 X-1.5068 Y1.4328  
G01 X-1.5028 Y1.4368  
G01 X-1.4568 Y1.4828  
G01 X-1.4528 Y1.4868  
G01 X-1.4500 Y1.4917  
G01 X-1.4485 Y1.4972  
G01 X-1.4485 Y1.5416  
G01 X-1.3505 Y1.6485  
G01 X-0.4255 Y1.6485  
G01 X-0.4046 Y1.5859  
G01 X-0.4052 Y1.5832  
G01 X-0.4052 Y1.5168  
G01 X-0.4038 Y1.5101  
G01 X-0.4012 Y1.5036  
G01 X-0.3973 Y1.4979  
G01 X-0.3924 Y1.4930  
G01 X-0.3915 Y1.4924  
G01 X-0.3915 Y1.3576  
G01 X-0.3924 Y1.3570  
G01 X-0.3973 Y1.3521  
G01 X-0.4012 Y1.3464  
G01 X-0.4038 Y1.3399  
G01 X-0.4052 Y1.3332  
G01 X-0.4052 Y1.2668  
G01 X-0.4038 Y1.2601  
G01 X-0.4012 Y1.2536  
G01 X-0.3973 Y1.2479  
G01 X-0.3924 Y1.2430  
G01 X-0.3915 Y1.2424  
G01 X-0.3915 Y1.1076  
G01 X-0.3924 Y1.1070  
G01 X-0.3973 Y1.1021  
G01 X-0.4012 Y1.0964  
G01 X-0.4038 Y1.0899  
G01 X-0.4052 Y1.0832  
G01 X-0.4052 Y1.0168  
G01 X-0.4038 Y1.0101  
G01 X-0.4012 Y1.0036  
G01 X-0.3973 Y0.9979  
G01 X-0.3924 Y0.9930  
G00 Z0.0500  
G00 X-0.2924 Y0.9930  
G01 Z-0.0035 F10    
G01 X-0.2867 Y0.9891  F20    
G01 X-0.2803 Y0.9865  
G01 X-0.2735 Y0.9851  
G01 X-0.2665 Y0.9851  
G01 X-0.2597 Y0.9865  
G01 X-0.2533 Y0.9891  
G01 X-0.2476 Y0.9930  
G01 X-0.2427 Y0.9979  
G01 X-0.2388 Y1.0036  
G01 X-0.2362 Y1.0101  
G01 X-0.2348 Y1.0168  
G01 X-0.2348 Y1.0832  
G01 X-0.2362 Y1.0899  
G01 X-0.2388 Y1.0964  
G01 X-0.2427 Y1.1021  
G01 X-0.2476 Y1.1070  
G01 X-0.2485 Y1.1076  
G01 X-0.2485 Y1.2424  
G01 X-0.2476 Y1.2430  
G01 X-0.2427 Y1.2479  
G01 X-0.2388 Y1.2536  
G01 X-0.2362 Y1.2601  
G01 X-0.2348 Y1.2668  
G01 X-0.2348 Y1.3332  
G01 X-0.2362 Y1.3399  
G01 X-0.2388 Y1.3464  
G01 X-0.2427 Y1.3521  
G01 X-0.2476 Y1.3570  
G01 X-0.2485 Y1.3576  
G01 X-0.2485 Y1.4924  
G01 X-0.2476 Y1.4930  
G01 X-0.2427 Y1.4979  
G01 X-0.2388 Y1.5036  
G01 X-0.2362 Y1.5101  
G01 X-0.2348 Y1.5168  
G01 X-0.2348 Y1.5832  
G01 X-0.2362 Y1.5899  
G01 X-0.2388 Y1.5964  
G01 X-0.2427 Y1.6021  
G01 X-0.2476 Y1.6070  
G01 X-0.2533 Y1.6109  
G01 X-0.2597 Y1.6135  
G01 X-0.2665 Y1.6149  
G01 X-0.2718 Y1.6149  
G01 X-0.3175 Y1.7346  
G01 X-0.3180 Y1.7363  
G01 X-0.3185 Y1.7373  
G01 X-0.3189 Y1.7383  
G01 X-0.3199 Y1.7397  
G01 X-0.3208 Y1.7412  
G01 X-0.3216 Y1.7420  
G01 X-0.3222 Y1.7429  
G01 X-0.3236 Y1.7440  
G01 X-0.3248 Y1.7452  
G01 X-0.3258 Y1.7458  
G01 X-0.3266 Y1.7465  
G01 X-0.3282 Y1.7472  
G01 X-0.3297 Y1.7480  
G01 X-0.3308 Y1.7483  
G01 X-0.3318 Y1.7488  
G01 X-0.3335 Y1.7491  
G01 X-0.3352 Y1.7495  
G01 X-0.3363 Y1.7495  
G01 X-0.3374 Y1.7497  
G01 X-0.3391 Y1.7495  
G01 X-0.5418 Y1.7495  
G01 X-0.5473 Y1.7480  
G01 X-0.5482 Y1.7475  
G01 X-1.3811 Y1.7475  
G01 X-1.3827 Y1.7477  
G01 X-1.3836 Y1.7475  
G01 X-1.3846 Y1.7475  
G01 X-1.3861 Y1.7471  
G01 X-1.3878 Y1.7468  
G01 X-1.3886 Y1.7464  
G01 X-1.3895 Y1.7462  
G01 X-1.3909 Y1.7454  
G01 X-1.3924 Y1.7447  
G01 X-1.3932 Y1.7441  
G01 X-1.3940 Y1.7436  
G01 X-1.3951 Y1.7424  
G01 X-1.5642 Y1.6031  
G01 X-1.5650 Y1.6026  
G01 X-1.5661 Y1.6014  
G01 X-1.5674 Y1.6004  
G01 X-1.5679 Y1.5996  
G01 X-1.5686 Y1.5990  
G01 X-1.5694 Y1.5976  
G01 X-1.5704 Y1.5962  
G01 X-1.5707 Y1.5953  
G01 X-1.5712 Y1.5945  
G01 X-1.5716 Y1.5929  
G01 X-1.5722 Y1.5914  
G01 X-1.5723 Y1.5905  
G01 X-1.5725 Y1.5896  
G01 X-1.5725 Y1.5879  
G01 X-1.5727 Y1.5863  
G01 X-1.5725 Y1.5854  
G01 X-1.5725 Y1.5815  
G01 X-1.5991 Y1.5815  
G01 X-1.6052 Y1.5803  
G01 X-1.6109 Y1.5779  
G01 X-1.6161 Y1.5745  
G01 X-1.6205 Y1.5701  
G01 X-1.6239 Y1.5649  
G01 X-1.6263 Y1.5592  
G01 X-1.6275 Y1.5531  
G01 X-1.6275 Y1.5469  
G01 X-1.6263 Y1.5408  
G01 X-1.6239 Y1.5351  
G01 X-1.6205 Y1.5299  
G01 X-1.6161 Y1.5255  
G01 X-1.6109 Y1.5221  
G01 X-1.6052 Y1.5197  
G01 X-1.5991 Y1.5185  
G01 X-1.5409 Y1.5185  
G01 X-1.5348 Y1.5197  
G01 X-1.5291 Y1.5221  
G01 X-1.5239 Y1.5255  
G01 X-1.5195 Y1.5299  
G01 X-1.5161 Y1.5351  
G01 X-1.5137 Y1.5408  
G01 X-1.5125 Y1.5469  
G01 X-1.5125 Y1.5531  
G01 X-1.5137 Y1.5592  
G01 X-1.5161 Y1.5649  
G01 X-1.5195 Y1.5701  
G01 X-1.5239 Y1.5745  
G01 X-1.5291 Y1.5779  
G01 X-1.5319 Y1.5791  
G01 X-1.3750 Y1.7085  
G01 X-0.5482 Y1.7085  
G01 X-0.5473 Y1.7080  
G01 X-0.5418 Y1.7065  
G01 X-0.3528 Y1.7065  
G01 X-0.3052 Y1.5819  
G01 X-0.3052 Y1.5168  
G01 X-0.3038 Y1.5101  
G01 X-0.3012 Y1.5036  
G01 X-0.2973 Y1.4979  
G01 X-0.2924 Y1.4930  
G01 X-0.2915 Y1.4924  
G01 X-0.2915 Y1.3576  
G01 X-0.2924 Y1.3570  
G01 X-0.2973 Y1.3521  
G01 X-0.3012 Y1.3464  
G01 X-0.3038 Y1.3399  
G01 X-0.3052 Y1.3332  
G01 X-0.3052 Y1.2668  
G01 X-0.3038 Y1.2601  
G01 X-0.3012 Y1.2536  
G01 X-0.2973 Y1.2479  
G01 X-0.2924 Y1.2430  
G01 X-0.2915 Y1.2424  
G01 X-0.2915 Y1.1076  
G01 X-0.2924 Y1.1070  
G01 X-0.2973 Y1.1021  
G01 X-0.3012 Y1.0964  
G01 X-0.3038 Y1.0899  
G01 X-0.3052 Y1.0832  
G01 X-0.3052 Y1.0168  
G01 X-0.3038 Y1.0101  
G01 X-0.3012 Y1.0036  
G01 X-0.2973 Y0.9979  
G01 X-0.2924 Y0.9930  
G00 Z0.0500  
G00 X-0.9630 Y1.2776  
G01 Z-0.0035 F10    
G01 X-0.9591 Y1.2833  F20    
G01 X-0.9565 Y1.2897  
G01 X-0.9551 Y1.2965  
G01 X-0.9551 Y1.3035  
G01 X-0.9565 Y1.3103  
G01 X-0.9591 Y1.3167  
G01 X-0.9630 Y1.3224  
G01 X-0.9679 Y1.3273  
G01 X-0.9736 Y1.3312  
G01 X-0.9801 Y1.3338  
G01 X-0.9868 Y1.3352  
G01 X-1.0532 Y1.3352  
G01 X-1.0599 Y1.3338  
G01 X-1.0664 Y1.3312  
G01 X-1.0721 Y1.3273  
G01 X-1.0770 Y1.3224  
G01 X-1.0809 Y1.3167  
G01 X-1.0835 Y1.3103  
G01 X-1.0849 Y1.3035  
G01 X-1.0849 Y1.3007  
G01 X-1.0856 Y1.3000  
G01 X-1.1716 Y1.2140  
G01 X-1.1742 Y1.2095  
G01 X-1.1755 Y1.2046  
G01 X-1.1755 Y1.1411  
G01 X-1.2360 Y1.0805  
G01 X-1.2409 Y1.0815  
G01 X-1.2991 Y1.0815  
G01 X-1.3052 Y1.0803  
G01 X-1.3109 Y1.0779  
G01 X-1.3161 Y1.0745  
G01 X-1.3205 Y1.0701  
G01 X-1.3239 Y1.0649  
G01 X-1.3263 Y1.0592  
G01 X-1.3275 Y1.0531  
G01 X-1.3275 Y1.0469  
G01 X-1.3263 Y1.0408  
G01 X-1.3239 Y1.0351  
G01 X-1.3205 Y1.0299  
G01 X-1.3161 Y1.0255  
G01 X-1.3109 Y1.0221  
G01 X-1.3052 Y1.0197  
G01 X-1.2991 Y1.0185  
G01 X-1.2409 Y1.0185  
G01 X-1.2348 Y1.0197  
G01 X-1.2291 Y1.0221  
G01 X-1.2239 Y1.0255  
G01 X-1.2195 Y1.0299  
G01 X-1.2161 Y1.0351  
G01 X-1.2137 Y1.0408  
G01 X-1.2125 Y1.0469  
G01 X-1.2125 Y1.0489  
G01 X-1.1440 Y1.1174  
G01 X-1.1404 Y1.1210  
G01 X-1.1378 Y1.1255  
G01 X-1.1365 Y1.1304  
G01 X-1.1365 Y1.1939  
G01 X-1.0630 Y1.2674  
G01 X-1.0599 Y1.2662  
G01 X-1.0532 Y1.2648  
G01 X-0.9868 Y1.2648  
G01 X-0.9801 Y1.2662  
G01 X-0.9736 Y1.2688  
G01 X-0.9679 Y1.2727  
G01 X-0.9630 Y1.2776  
G00 Z0.0500  
G00 X-0.9630 Y1.3776  
G01 Z-0.0035 F10    
G01 X-0.9591 Y1.3833  F20    
G01 X-0.9565 Y1.3897  
G01 X-0.9551 Y1.3965  
G01 X-0.9551 Y1.4035  
G01 X-0.9565 Y1.4103  
G01 X-0.9591 Y1.4167  
G01 X-0.9630 Y1.4224  
G01 X-0.9679 Y1.4273  
G01 X-0.9736 Y1.4312  
G01 X-0.9801 Y1.4338  
G01 X-0.9868 Y1.4352  
G01 X-1.0532 Y1.4352  
G01 X-1.0599 Y1.4338  
G01 X-1.0664 Y1.4312  
G01 X-1.0721 Y1.4273  
G01 X-1.0770 Y1.4224  
G01 X-1.0809 Y1.4167  
G01 X-1.0835 Y1.4103  
G01 X-1.0849 Y1.4035  
G01 X-1.0849 Y1.3965  
G01 X-1.0843 Y1.3937  
G01 X-1.2363 Y1.2809  
G01 X-1.2366 Y1.2807  
G01 X-1.2409 Y1.2815  
G01 X-1.2991 Y1.2815  
G01 X-1.3052 Y1.2803  
G01 X-1.3109 Y1.2779  
G01 X-1.3161 Y1.2745  
G01 X-1.3205 Y1.2701  
G01 X-1.3239 Y1.2649  
G01 X-1.3263 Y1.2592  
G01 X-1.3275 Y1.2531  
G01 X-1.3275 Y1.2469  
G01 X-1.3263 Y1.2408  
G01 X-1.3239 Y1.2351  
G01 X-1.3205 Y1.2299  
G01 X-1.3161 Y1.2255  
G01 X-1.3109 Y1.2221  
G01 X-1.3052 Y1.2197  
G01 X-1.2991 Y1.2185  
G01 X-1.2409 Y1.2185  
G01 X-1.2348 Y1.2197  
G01 X-1.2291 Y1.2221  
G01 X-1.2239 Y1.2255  
G01 X-1.2195 Y1.2299  
G01 X-1.2161 Y1.2351  
G01 X-1.2137 Y1.2408  
G01 X-1.2125 Y1.2469  
G01 X-1.2125 Y1.2499  
G01 X-1.2118 Y1.2504  
G01 X-1.2116 Y1.2507  
G01 X-1.0636 Y1.3605  
G01 X-1.0259 Y1.3605  
G01 X-1.0253 Y1.3604  
G01 X-1.0234 Y1.3605  
G01 X-1.0214 Y1.3605  
G01 X-1.0208 Y1.3607  
G01 X-1.0202 Y1.3607  
G01 X-1.0183 Y1.3613  
G01 X-1.0165 Y1.3618  
G01 X-1.0159 Y1.3621  
G01 X-1.0153 Y1.3624  
G01 X-1.0137 Y1.3634  
G01 X-1.0120 Y1.3644  
G01 X-1.0116 Y1.3648  
G01 X-0.9868 Y1.3648  
G01 X-0.9801 Y1.3662  
G01 X-0.9736 Y1.3688  
G01 X-0.9679 Y1.3727  
G01 X-0.9630 Y1.3776  
G00 Z0.0500  
G00 X-1.2239 Y1.3745  
G01 Z-0.0035 F10    
G01 X-1.2291 Y1.3779  F20    
G01 X-1.2348 Y1.3803  
G01 X-1.2409 Y1.3815  
G01 X-1.2991 Y1.3815  
G01 X-1.3052 Y1.3803  
G01 X-1.3109 Y1.3779  
G01 X-1.3161 Y1.3745  
G01 X-1.3205 Y1.3701  
G01 X-1.3239 Y1.3649  
G01 X-1.3263 Y1.3592  
G01 X-1.3275 Y1.3531  
G01 X-1.3275 Y1.3469  
G01 X-1.3263 Y1.3408  
G01 X-1.3239 Y1.3351  
G01 X-1.3205 Y1.3299  
G01 X-1.3161 Y1.3255  
G01 X-1.3109 Y1.3221  
G01 X-1.3052 Y1.3197  
G01 X-1.2991 Y1.3185  
G01 X-1.2409 Y1.3185  
G01 X-1.2348 Y1.3197  
G01 X-1.2291 Y1.3221  
G01 X-1.2239 Y1.3255  
G01 X-1.2195 Y1.3299  
G01 X-1.2161 Y1.3351  
G01 X-1.2137 Y1.3408  
G01 X-1.2125 Y1.3469  
G01 X-1.2125 Y1.3531  
G01 X-1.2137 Y1.3592  
G01 X-1.2161 Y1.3649  
G01 X-1.2195 Y1.3701  
G01 X-1.2239 Y1.3745  
G00 Z0.0500  
G00 X-1.2239 Y1.4255  
G01 Z-0.0035 F10    
G01 X-1.2195 Y1.4299  F20    
G01 X-1.2161 Y1.4351  
G01 X-1.2137 Y1.4408  
G01 X-1.2125 Y1.4469  
G01 X-1.2125 Y1.4531  
G01 X-1.2137 Y1.4592  
G01 X-1.2161 Y1.4649  
G01 X-1.2195 Y1.4701  
G01 X-1.2239 Y1.4745  
G01 X-1.2291 Y1.4779  
G01 X-1.2348 Y1.4803  
G01 X-1.2409 Y1.4815  
G01 X-1.2991 Y1.4815  
G01 X-1.3052 Y1.4803  
G01 X-1.3109 Y1.4779  
G01 X-1.3161 Y1.4745  
G01 X-1.3205 Y1.4701  
G01 X-1.3239 Y1.4649  
G01 X-1.3263 Y1.4592  
G01 X-1.3275 Y1.4531  
G01 X-1.3275 Y1.4469  
G01 X-1.3263 Y1.4408  
G01 X-1.3239 Y1.4351  
G01 X-1.3205 Y1.4299  
G01 X-1.3161 Y1.4255  
G01 X-1.3109 Y1.4221  
G01 X-1.3052 Y1.4197  
G01 X-1.2991 Y1.4185  
G01 X-1.2409 Y1.4185  
G01 X-1.2348 Y1.4197  
G01 X-1.2291 Y1.4221  
G01 X-1.2239 Y1.4255  
G00 Z0.0500  
G00 X-1.5239 Y1.3745  
G01 Z-0.0035 F10    
G01 X-1.5291 Y1.3779  F20    
G01 X-1.5348 Y1.3803  
G01 X-1.5409 Y1.3815  
G01 X-1.5991 Y1.3815  
G01 X-1.6052 Y1.3803  
G01 X-1.6109 Y1.3779  
G01 X-1.6161 Y1.3745  
G01 X-1.6205 Y1.3701  
G01 X-1.6239 Y1.3649  
G01 X-1.6263 Y1.3592  
G01 X-1.6275 Y1.3531  
G01 X-1.6275 Y1.3469  
G01 X-1.6263 Y1.3408  
G01 X-1.6239 Y1.3351  
G01 X-1.6205 Y1.3299  
G01 X-1.6161 Y1.3255  
G01 X-1.6109 Y1.3221  
G01 X-1.6052 Y1.3197  
G01 X-1.5991 Y1.3185  
G01 X-1.5409 Y1.3185  
G01 X-1.5348 Y1.3197  
G01 X-1.5291 Y1.3221  
G01 X-1.5239 Y1.3255  
G01 X-1.5195 Y1.3299  
G01 X-1.5161 Y1.3351  
G01 X-1.5137 Y1.3408  
G01 X-1.5125 Y1.3469  
G01 X-1.5125 Y1.3531  
G01 X-1.5137 Y1.3592  
G01 X-1.5161 Y1.3649  
G01 X-1.5195 Y1.3701  
G01 X-1.5239 Y1.3745  
G00 Z0.0500  
G00 X-1.5239 Y1.2745  
G01 Z-0.0035 F10    
G01 X-1.5291 Y1.2779  F20    
G01 X-1.5348 Y1.2803  
G01 X-1.5409 Y1.2815  
G01 X-1.5713 Y1.2815  
G01 X-1.6885 Y1.3596  
G01 X-1.6885 Y1.3630  
G01 X-1.6945 Y1.3690  
G01 X-1.6945 Y1.4210  
G01 X-1.6931 Y1.4216  
G01 X-1.6916 Y1.4231  
G01 X-1.6908 Y1.4252  
G01 X-1.6908 Y1.4748  
G01 X-1.6916 Y1.4769  
G01 X-1.6931 Y1.4784  
G01 X-1.6952 Y1.4792  
G01 X-1.7448 Y1.4792  
G01 X-1.7469 Y1.4784  
G01 X-1.7484 Y1.4769  
G01 X-1.7492 Y1.4748  
G01 X-1.7492 Y1.4252  
G01 X-1.7484 Y1.4231  
G01 X-1.7469 Y1.4216  
G01 X-1.7455 Y1.4210  
G01 X-1.7455 Y1.3690  
G01 X-1.7515 Y1.3630  
G01 X-1.7515 Y1.3370  
G01 X-1.7330 Y1.3185  
G01 X-1.7187 Y1.3185  
G01 X-1.6267 Y1.2571  
G01 X-1.6275 Y1.2531  
G01 X-1.6275 Y1.2469  
G01 X-1.6263 Y1.2408  
G01 X-1.6239 Y1.2351  
G01 X-1.6205 Y1.2299  
G01 X-1.6161 Y1.2255  
G01 X-1.6109 Y1.2221  
G01 X-1.6052 Y1.2197  
G01 X-1.5991 Y1.2185  
G01 X-1.5409 Y1.2185  
G01 X-1.5348 Y1.2197  
G01 X-1.5291 Y1.2221  
G01 X-1.5239 Y1.2255  
G01 X-1.5195 Y1.2299  
G01 X-1.5161 Y1.2351  
G01 X-1.5137 Y1.2408  
G01 X-1.5125 Y1.2469  
G01 X-1.5125 Y1.2531  
G01 X-1.5137 Y1.2592  
G01 X-1.5161 Y1.2649  
G01 X-1.5195 Y1.2701  
G01 X-1.5239 Y1.2745  
G00 Z0.0500  
G00 X-1.5239 Y1.1745  
G01 Z-0.0035 F10    
G01 X-1.5291 Y1.1779  F20    
G01 X-1.5348 Y1.1803  
G01 X-1.5409 Y1.1815  
G01 X-1.5991 Y1.1815  
G01 X-1.6052 Y1.1803  
G01 X-1.6109 Y1.1779  
G01 X-1.6145 Y1.1755  
G01 X-1.6945 Y1.1755  
G01 X-1.6945 Y1.2210  
G01 X-1.6931 Y1.2216  
G01 X-1.6916 Y1.2231  
G01 X-1.6908 Y1.2252  
G01 X-1.6908 Y1.2748  
G01 X-1.6916 Y1.2769  
G01 X-1.6931 Y1.2784  
G01 X-1.6952 Y1.2792  
G01 X-1.7448 Y1.2792  
G01 X-1.7469 Y1.2784  
G01 X-1.7484 Y1.2769  
G01 X-1.7492 Y1.2748  
G01 X-1.7492 Y1.2252  
G01 X-1.7484 Y1.2231  
G01 X-1.7469 Y1.2216  
G01 X-1.7455 Y1.2210  
G01 X-1.7455 Y1.1690  
G01 X-1.7515 Y1.1630  
G01 X-1.7515 Y1.1370  
G01 X-1.7330 Y1.1185  
G01 X-1.7070 Y1.1185  
G01 X-1.7010 Y1.1245  
G01 X-1.6145 Y1.1245  
G01 X-1.6109 Y1.1221  
G01 X-1.6052 Y1.1197  
G01 X-1.5991 Y1.1185  
G01 X-1.5409 Y1.1185  
G01 X-1.5348 Y1.1197  
G01 X-1.5291 Y1.1221  
G01 X-1.5239 Y1.1255  
G01 X-1.5195 Y1.1299  
G01 X-1.5161 Y1.1351  
G01 X-1.5137 Y1.1408  
G01 X-1.5125 Y1.1469  
G01 X-1.5125 Y1.1531  
G01 X-1.5137 Y1.1592  
G01 X-1.5161 Y1.1649  
G01 X-1.5195 Y1.1701  
G01 X-1.5239 Y1.1745  
G00 Z0.0500  
G00 X-1.5239 Y1.0745  
G01 Z-0.0035 F10    
G01 X-1.5291 Y1.0779  F20    
G01 X-1.5348 Y1.0803  
G01 X-1.5409 Y1.0815  
G01 X-1.5991 Y1.0815  
G01 X-1.6052 Y1.0803  
G01 X-1.6109 Y1.0779  
G01 X-1.6161 Y1.0745  
G01 X-1.6190 Y1.0715  
G01 X-1.6908 Y1.0715  
G01 X-1.6908 Y1.0748  
G01 X-1.6916 Y1.0769  
G01 X-1.6931 Y1.0784  
G01 X-1.6952 Y1.0792  
G01 X-1.7448 Y1.0792  
G01 X-1.7469 Y1.0784  
G01 X-1.7484 Y1.0769  
G01 X-1.7492 Y1.0748  
G01 X-1.7492 Y1.0252  
G01 X-1.7484 Y1.0231  
G01 X-1.7469 Y1.0216  
G01 X-1.7455 Y1.0210  
G01 X-1.7455 Y0.9690  
G01 X-1.7515 Y0.9630  
G01 X-1.7515 Y0.9370  
G01 X-1.7330 Y0.9185  
G01 X-1.7070 Y0.9185  
G01 X-1.6885 Y0.9370  
G01 X-1.6885 Y0.9630  
G01 X-1.6945 Y0.9690  
G01 X-1.6945 Y1.0210  
G01 X-1.6931 Y1.0216  
G01 X-1.6916 Y1.0231  
G01 X-1.6908 Y1.0252  
G01 X-1.6908 Y1.0285  
G01 X-1.6190 Y1.0285  
G01 X-1.6161 Y1.0255  
G01 X-1.6109 Y1.0221  
G01 X-1.6052 Y1.0197  
G01 X-1.5991 Y1.0185  
G01 X-1.5409 Y1.0185  
G01 X-1.5348 Y1.0197  
G01 X-1.5291 Y1.0221  
G01 X-1.5239 Y1.0255  
G01 X-1.5195 Y1.0299  
G01 X-1.5161 Y1.0351  
G01 X-1.5137 Y1.0408  
G01 X-1.5125 Y1.0469  
G01 X-1.5125 Y1.0531  
G01 X-1.5137 Y1.0592  
G01 X-1.5161 Y1.0649  
G01 X-1.5195 Y1.0701  
G01 X-1.5239 Y1.0745  
G00 Z0.0500  
G00 X-1.5298 Y0.9782  
G01 Z-0.0035 F10    
G01 X-1.5348 Y0.9803  F20    
G01 X-1.5409 Y0.9815  
G01 X-1.5991 Y0.9815  
G01 X-1.6052 Y0.9803  
G01 X-1.6109 Y0.9779  
G01 X-1.6161 Y0.9745  
G01 X-1.6205 Y0.9701  
G01 X-1.6239 Y0.9649  
G01 X-1.6263 Y0.9592  
G01 X-1.6275 Y0.9531  
G01 X-1.6275 Y0.9469  
G01 X-1.6273 Y0.9460  
G01 X-1.6868 Y0.8995  
G01 X-1.7494 Y0.8995  
G01 X-1.7885 Y0.9386  
G01 X-1.7885 Y0.9630  
G01 X-1.7945 Y0.9690  
G01 X-1.7945 Y1.1310  
G01 X-1.7885 Y1.1370  
G01 X-1.7885 Y1.1630  
G01 X-1.7945 Y1.1690  
G01 X-1.7945 Y1.3310  
G01 X-1.7885 Y1.3370  
G01 X-1.7885 Y1.3630  
G01 X-1.7905 Y1.3650  
G01 X-1.7905 Y1.4809  
G01 X-1.7463 Y1.5171  
G01 X-1.7457 Y1.5174  
G01 X-1.7443 Y1.5187  
G01 X-1.7429 Y1.5199  
G01 X-1.7425 Y1.5204  
G01 X-1.7420 Y1.5208  
G01 X-1.7409 Y1.5223  
G01 X-1.7397 Y1.5237  
G01 X-1.7394 Y1.5243  
G01 X-1.7013 Y1.5758  
G01 X-1.7004 Y1.5767  
G01 X-1.6998 Y1.5778  
G01 X-1.6990 Y1.5788  
G01 X-1.6985 Y1.5800  
G01 X-1.6978 Y1.5811  
G01 X-1.6974 Y1.5822  
G01 X-1.6969 Y1.5834  
G01 X-1.6966 Y1.5846  
G01 X-1.6961 Y1.5858  
G01 X-1.6960 Y1.5870  
G01 X-1.6957 Y1.5883  
G01 X-1.6956 Y1.5895  
G01 X-1.6954 Y1.5908  
G01 X-1.6955 Y1.5920  
G01 X-1.6955 Y1.5922  
G01 X-1.6830 Y1.6047  
G01 X-1.6830 Y1.6353  
G01 X-1.7044 Y1.6567  
G01 X-1.7252 Y1.7262  
G01 X-1.7255 Y1.7274  
G01 X-1.7259 Y1.7286  
G01 X-1.7263 Y1.7297  
G01 X-1.7269 Y1.7309  
G01 X-1.7274 Y1.7321  
G01 X-1.7281 Y1.7331  
G01 X-1.7287 Y1.7342  
G01 X-1.7295 Y1.7352  
G01 X-1.7302 Y1.7363  
G01 X-1.7311 Y1.7371  
G01 X-1.7318 Y1.7381  
G01 X-1.7328 Y1.7389  
G01 X-1.7337 Y1.7398  
G01 X-1.7348 Y1.7405  
G01 X-1.7357 Y1.7413  
G01 X-1.7368 Y1.7419  
G01 X-1.7379 Y1.7426  
G01 X-1.7390 Y1.7431  
G01 X-1.7401 Y1.7436  
G01 X-1.7414 Y1.7440  
G01 X-1.7426 Y1.7445  
G01 X-1.7438 Y1.7448  
G01 X-1.7449 Y1.7451  
G01 X-1.7462 Y1.7452  
G01 X-1.7475 Y1.7455  
G01 X-1.7487 Y1.7455  
G01 X-1.7499 Y1.7456  
G01 X-1.7512 Y1.7455  
G01 X-2.1225 Y1.7455  
G01 X-2.1274 Y1.7445  
G01 X-2.1321 Y1.7426  
G01 X-2.1363 Y1.7398  
G01 X-2.1398 Y1.7363  
G01 X-2.1400 Y1.7360  
G01 X-2.4588 Y1.7279  
G01 X-2.4636 Y1.7312  
G01 X-2.4701 Y1.7338  
G01 X-2.4768 Y1.7352  
G01 X-2.5432 Y1.7352  
G01 X-2.5499 Y1.7338  
G01 X-2.5564 Y1.7312  
G01 X-2.5621 Y1.7273  
G01 X-2.5629 Y1.7265  
G01 X-2.6090 Y1.7265  
G01 X-2.6104 Y1.7266  
G01 X-2.6115 Y1.7265  
G01 X-2.6125 Y1.7265  
G01 X-2.6140 Y1.7262  
G01 X-2.6154 Y1.7260  
G01 X-2.6164 Y1.7257  
G01 X-2.6174 Y1.7255  
G01 X-2.6188 Y1.7250  
G01 X-2.6202 Y1.7245  
G01 X-2.6211 Y1.7240  
G01 X-2.6221 Y1.7236  
G01 X-2.6233 Y1.7228  
G01 X-2.6246 Y1.7221  
G01 X-2.6254 Y1.7214  
G01 X-2.6263 Y1.7208  
G01 X-2.6273 Y1.7198  
G01 X-2.6284 Y1.7188  
G01 X-2.6291 Y1.7180  
G01 X-2.6298 Y1.7173  
G01 X-2.6306 Y1.7160  
G01 X-2.6316 Y1.7149  
G01 X-2.6320 Y1.7139  
G01 X-2.6326 Y1.7131  
G01 X-2.6332 Y1.7117  
G01 X-2.7130 Y1.5559  
G01 X-2.8587 Y1.4802  
G01 X-2.8598 Y1.4797  
G01 X-2.8609 Y1.4790  
G01 X-2.8620 Y1.4785  
G01 X-2.8630 Y1.4777  
G01 X-2.8640 Y1.4770  
G01 X-2.8649 Y1.4761  
G01 X-2.8659 Y1.4753  
G01 X-2.8667 Y1.4744  
G01 X-2.8676 Y1.4735  
G01 X-2.8683 Y1.4724  
G01 X-2.8691 Y1.4715  
G01 X-2.8697 Y1.4704  
G01 X-2.8705 Y1.4693  
G01 X-2.8710 Y1.4682  
G01 X-2.8716 Y1.4671  
G01 X-2.8719 Y1.4659  
G01 X-2.8724 Y1.4647  
G01 X-2.8727 Y1.4635  
G01 X-2.8731 Y1.4623  
G01 X-2.8732 Y1.4610  
G01 X-2.8811 Y1.4234  
G01 X-2.8915 Y1.4130  
G01 X-2.8915 Y1.4092  
G01 X-2.8936 Y1.4060  
G01 X-2.9366 Y1.3017  
G01 X-2.9375 Y1.2994  
G01 X-2.9380 Y1.2970  
G01 X-2.9385 Y1.2945  
G01 X-2.9385 Y1.2920  
G01 X-2.9385 Y1.1235  
G01 X-2.9386 Y1.1214  
G01 X-2.9385 Y1.1209  
G01 X-2.9385 Y1.1205  
G01 X-2.9381 Y1.1185  
G01 X-2.9378 Y1.1164  
G01 X-2.9376 Y1.1160  
G01 X-2.9375 Y1.1156  
G01 X-2.9367 Y1.1137  
G01 X-2.9360 Y1.1117  
G01 X-2.9358 Y1.1113  
G01 X-2.9356 Y1.1109  
G01 X-2.9345 Y1.1092  
G01 X-2.9334 Y1.1075  
G01 X-2.9331 Y1.1071  
G01 X-2.9328 Y1.1067  
G01 X-2.9314 Y1.1053  
G01 X-2.9299 Y1.1038  
G01 X-2.9296 Y1.1035  
G01 X-2.9293 Y1.1032  
G01 X-2.9275 Y1.1020  
G01 X-2.9259 Y1.1008  
G01 X-2.9255 Y1.1007  
G01 X-2.9251 Y1.1004  
G01 X-2.9232 Y1.0996  
G01 X-2.8577 Y1.0697  
G01 X-2.8564 Y1.0688  
G01 X-2.8548 Y1.0682  
G01 X-2.8548 Y1.0679  
G01 X-2.8553 Y1.0658  
G01 X-2.8554 Y1.0655  
G01 X-2.8845 Y0.9374  
G01 X-2.8957 Y0.9077  
G01 X-2.8966 Y0.9027  
G01 X-2.8964 Y0.8977  
G01 X-2.8953 Y0.8928  
G01 X-2.8938 Y0.8895  
G01 X-2.9353 Y0.7985  
G01 X-2.9356 Y0.7981  
G01 X-2.9364 Y0.7962  
G01 X-2.9372 Y0.7943  
G01 X-2.9373 Y0.7939  
G01 X-2.9375 Y0.7934  
G01 X-2.9379 Y0.7914  
G01 X-2.9384 Y0.7894  
G01 X-2.9384 Y0.7890  
G01 X-2.9385 Y0.7885  
G01 X-2.9385 Y0.7865  
G01 X-2.9386 Y0.7844  
G01 X-2.9385 Y0.7839  
G01 X-2.9385 Y0.6461  
G01 X-2.9386 Y0.6456  
G01 X-2.9385 Y0.6436  
G01 X-2.9385 Y0.6415  
G01 X-2.9384 Y0.6411  
G01 X-2.9384 Y0.6406  
G01 X-2.9379 Y0.6386  
G01 X-2.9375 Y0.6366  
G01 X-2.9374 Y0.6362  
G01 X-2.9373 Y0.6357  
G01 X-2.9364 Y0.6338  
G01 X-2.9356 Y0.6319  
G01 X-2.9354 Y0.6316  
G01 X-2.9352 Y0.6312  
G01 X-2.9340 Y0.6295  
G01 X-2.9328 Y0.6277  
G01 X-2.9325 Y0.6274  
G01 X-2.9322 Y0.6271  
G01 X-2.9307 Y0.6257  
G01 X-2.9293 Y0.6242  
G01 X-2.9289 Y0.6240  
G01 X-2.9286 Y0.6237  
G01 X-2.9268 Y0.6226  
G01 X-2.9251 Y0.6214  
G01 X-2.9247 Y0.6212  
G01 X-2.8734 Y0.5894  
G01 X-2.8709 Y0.5833  
G01 X-2.8670 Y0.5776  
G01 X-2.8621 Y0.5727  
G01 X-2.8638 Y0.5562  
G01 X-2.8645 Y0.5544  
G01 X-2.8646 Y0.5539  
G01 X-2.8648 Y0.5533  
G01 X-2.8651 Y0.5514  
G01 X-2.8655 Y0.5495  
G01 X-2.8655 Y0.5489  
G01 X-2.8851 Y0.4195  
G01 X-2.8915 Y0.4130  
G01 X-2.8915 Y0.4102  
G01 X-2.8932 Y0.4079  
G01 X-2.9353 Y0.3155  
G01 X-2.9356 Y0.3151  
G01 X-2.9364 Y0.3132  
G01 X-2.9372 Y0.3113  
G01 X-2.9373 Y0.3109  
G01 X-2.9375 Y0.3104  
G01 X-2.9379 Y0.3084  
G01 X-2.9384 Y0.3064  
G01 X-2.9384 Y0.3060  
G01 X-2.9385 Y0.3055  
G01 X-2.9385 Y0.3035  
G01 X-2.9386 Y0.3014  
G01 X-2.9385 Y0.3009  
G01 X-2.9385 Y0.1349  
G01 X-2.9386 Y0.1333  
G01 X-2.9385 Y0.1324  
G01 X-2.9385 Y0.1315  
G01 X-2.9382 Y0.1299  
G01 X-2.9380 Y0.1284  
G01 X-2.9377 Y0.1275  
G01 X-2.9375 Y0.1266  
G01 X-2.9369 Y0.1251  
G01 X-2.9364 Y0.1236  
G01 X-2.9360 Y0.1228  
G01 X-2.9356 Y0.1219  
G01 X-2.9347 Y0.1206  
G01 X-2.9339 Y0.1192  
G01 X-2.9333 Y0.1185  
G01 X-2.9328 Y0.1177  
G01 X-2.9317 Y0.1166  
G01 X-2.9306 Y0.1154  
G01 X-2.9299 Y0.1148  
G01 X-2.9293 Y0.1142  
G01 X-2.9279 Y0.1133  
G01 X-2.9267 Y0.1123  
G01 X-2.9259 Y0.1119  
G01 X-2.9251 Y0.1114  
G01 X-2.9236 Y0.1108  
G01 X-2.9222 Y0.1101  
G01 X-2.9213 Y0.1098  
G01 X-2.9204 Y0.1095  
G01 X-2.9189 Y0.1092  
G01 X-2.8749 Y0.0971  
G01 X-2.8749 Y0.0965  
G01 X-2.8735 Y0.0897  
G01 X-2.8709 Y0.0833  
G01 X-2.8670 Y0.0776  
G01 X-2.8621 Y0.0727  
G01 X-2.8564 Y0.0688  
G01 X-2.8499 Y0.0662  
G01 X-2.8432 Y0.0648  
G01 X-2.7768 Y0.0648  
G01 X-2.7701 Y0.0662  
G01 X-2.7636 Y0.0688  
G01 X-2.7579 Y0.0727  
G01 X-2.7530 Y0.0776  
G01 X-2.7491 Y0.0833  
G01 X-2.7465 Y0.0897  
G01 X-2.7451 Y0.0965  
G01 X-2.7451 Y0.1035  
G01 X-2.7465 Y0.1103  
G01 X-2.7491 Y0.1167  
G01 X-2.7530 Y0.1224  
G01 X-2.7579 Y0.1273  
G01 X-2.7636 Y0.1312  
G01 X-2.7701 Y0.1338  
G01 X-2.7768 Y0.1352  
G01 X-2.8133 Y0.1352  
G01 X-2.8182 Y0.1365  
G01 X-2.8238 Y0.1365  
G01 X-2.8285 Y0.1352  
G01 X-2.8303 Y0.1367  
G01 X-2.8348 Y0.1389  
G01 X-2.8875 Y0.1534  
G01 X-2.8875 Y0.2975  
G01 X-2.8551 Y0.3685  
G01 X-2.8470 Y0.3685  
G01 X-2.8285 Y0.3870  
G01 X-2.8285 Y0.4130  
G01 X-2.8337 Y0.4182  
G01 X-2.8172 Y0.5275  
G01 X-2.8170 Y0.5280  
G01 X-2.8164 Y0.5290  
G01 X-2.8160 Y0.5303  
G01 X-2.8155 Y0.5316  
G01 X-2.8153 Y0.5327  
G01 X-2.8149 Y0.5338  
G01 X-2.8148 Y0.5351  
G01 X-2.8145 Y0.5365  
G01 X-2.8145 Y0.5376  
G01 X-2.8116 Y0.5648  
G01 X-2.7768 Y0.5648  
G01 X-2.7701 Y0.5662  
G01 X-2.7636 Y0.5688  
G01 X-2.7579 Y0.5727  
G01 X-2.7530 Y0.5776  
G01 X-2.7491 Y0.5833  
G01 X-2.7465 Y0.5897  
G01 X-2.7451 Y0.5965  
G01 X-2.7451 Y0.6035  
G01 X-2.7465 Y0.6103  
G01 X-2.7491 Y0.6167  
G01 X-2.7530 Y0.6224  
G01 X-2.7579 Y0.6273  
G01 X-2.7636 Y0.6312  
G01 X-2.7701 Y0.6338  
G01 X-2.7768 Y0.6352  
G01 X-2.8432 Y0.6352  
G01 X-2.8486 Y0.6341  
G01 X-2.8875 Y0.6582  
G01 X-2.8875 Y0.7805  
G01 X-2.8473 Y0.8685  
G01 X-2.8470 Y0.8685  
G01 X-2.8285 Y0.8870  
G01 X-2.8285 Y0.9130  
G01 X-2.8362 Y0.9208  
G01 X-2.8357 Y0.9219  
G01 X-2.8355 Y0.9226  
G01 X-2.8353 Y0.9233  
G01 X-2.8350 Y0.9251  
G01 X-2.8058 Y1.0536  
G01 X-2.8005 Y1.0648  
G01 X-2.7768 Y1.0648  
G01 X-2.7701 Y1.0662  
G01 X-2.7636 Y1.0688  
G01 X-2.7579 Y1.0727  
G01 X-2.7530 Y1.0776  
G01 X-2.7491 Y1.0833  
G01 X-2.7465 Y1.0897  
G01 X-2.7451 Y1.0965  
G01 X-2.7451 Y1.1035  
G01 X-2.7465 Y1.1103  
G01 X-2.7491 Y1.1167  
G01 X-2.7530 Y1.1224  
G01 X-2.7579 Y1.1273  
G01 X-2.7636 Y1.1312  
G01 X-2.7701 Y1.1338  
G01 X-2.7768 Y1.1352  
G01 X-2.8432 Y1.1352  
G01 X-2.8499 Y1.1338  
G01 X-2.8564 Y1.1312  
G01 X-2.8617 Y1.1276  
G01 X-2.8875 Y1.1394  
G01 X-2.8875 Y1.2870  
G01 X-2.8539 Y1.3685  
G01 X-2.8470 Y1.3685  
G01 X-2.8285 Y1.3870  
G01 X-2.8285 Y1.4130  
G01 X-2.8307 Y1.4153  
G01 X-2.8255 Y1.4399  
G01 X-2.6841 Y1.5134  
G01 X-2.6838 Y1.5135  
G01 X-2.6819 Y1.5145  
G01 X-2.6800 Y1.5155  
G01 X-2.6797 Y1.5158  
G01 X-2.6794 Y1.5159  
G01 X-2.6778 Y1.5173  
G01 X-2.6761 Y1.5187  
G01 X-2.6759 Y1.5190  
G01 X-2.6756 Y1.5192  
G01 X-2.6742 Y1.5209  
G01 X-2.6729 Y1.5225  
G01 X-2.6727 Y1.5228  
G01 X-2.6724 Y1.5231  
G01 X-2.6715 Y1.5250  
G01 X-2.6704 Y1.5269  
G01 X-2.6703 Y1.5273  
G01 X-2.5944 Y1.6755  
G01 X-2.5649 Y1.6755  
G01 X-2.5621 Y1.6727  
G01 X-2.5564 Y1.6688  
G01 X-2.5499 Y1.6662  
G01 X-2.5432 Y1.6648  
G01 X-2.4768 Y1.6648  
G01 X-2.4701 Y1.6662  
G01 X-2.4636 Y1.6688  
G01 X-2.4579 Y1.6727  
G01 X-2.4535 Y1.6770  
G01 X-2.1455 Y1.6848  
G01 X-2.1455 Y1.6547  
G01 X-2.1476 Y1.6526  
G01 X-2.1515 Y1.6468  
G01 X-2.1541 Y1.6404  
G01 X-2.1555 Y1.6335  
G01 X-2.1555 Y1.5665  
G01 X-2.1541 Y1.5596  
G01 X-2.1515 Y1.5532  
G01 X-2.1476 Y1.5474  
G01 X-2.1426 Y1.5424  
G01 X-2.1368 Y1.5385  
G01 X-2.1304 Y1.5359  
G01 X-2.1235 Y1.5345  
G01 X-2.1165 Y1.5345  
G01 X-2.1096 Y1.5359  
G01 X-2.1032 Y1.5385  
G01 X-2.0974 Y1.5424  
G01 X-2.0924 Y1.5474  
G01 X-2.0885 Y1.5532  
G01 X-2.0859 Y1.5596  
G01 X-2.0845 Y1.5665  
G01 X-2.0845 Y1.6335  
G01 X-2.0859 Y1.6404  
G01 X-2.0885 Y1.6468  
G01 X-2.0924 Y1.6526  
G01 X-2.0945 Y1.6547  
G01 X-2.0945 Y1.6945  
G01 X-1.7690 Y1.6945  
G01 X-1.7526 Y1.6398  
G01 X-1.7570 Y1.6353  
G01 X-1.7570 Y1.6047  
G01 X-1.7536 Y1.6013  
G01 X-1.7506 Y1.5949  
G01 X-1.7796 Y1.5557  
G01 X-1.8312 Y1.5135  
G01 X-1.8323 Y1.5128  
G01 X-1.8331 Y1.5119  
G01 X-1.8341 Y1.5111  
G01 X-1.8349 Y1.5102  
G01 X-1.8358 Y1.5093  
G01 X-1.8365 Y1.5082  
G01 X-1.8373 Y1.5073  
G01 X-1.8379 Y1.5061  
G01 X-1.8386 Y1.5051  
G01 X-1.8391 Y1.5039  
G01 X-1.8397 Y1.5028  
G01 X-1.8400 Y1.5016  
G01 X-1.8405 Y1.5004  
G01 X-1.8408 Y1.4992  
G01 X-1.8411 Y1.4980  
G01 X-1.8413 Y1.4968  
G01 X-1.8415 Y1.4955  
G01 X-1.8415 Y1.4943  
G01 X-1.8416 Y1.4930  
G01 X-1.8415 Y1.4918  
G01 X-1.8415 Y1.3730  
G01 X-1.8515 Y1.3630  
G01 X-1.8515 Y1.3370  
G01 X-1.8455 Y1.3310  
G01 X-1.8455 Y1.1690  
G01 X-1.8515 Y1.1630  
G01 X-1.8515 Y1.1370  
G01 X-1.8455 Y1.1310  
G01 X-1.8455 Y0.9690  
G01 X-1.8515 Y0.9630  
G01 X-1.8515 Y0.9370  
G01 X-1.8414 Y0.9268  
G01 X-1.8405 Y0.9226  
G01 X-1.8386 Y0.9179  
G01 X-1.8358 Y0.9137  
G01 X-1.7798 Y0.8577  
G01 X-1.7763 Y0.8542  
G01 X-1.7721 Y0.8514  
G01 X-1.7674 Y0.8495  
G01 X-1.7625 Y0.8485  
G01 X-1.6795 Y0.8485  
G01 X-1.6786 Y0.8484  
G01 X-1.6770 Y0.8485  
G01 X-1.6755 Y0.8485  
G01 X-1.6745 Y0.8487  
G01 X-1.6736 Y0.8488  
G01 X-1.6721 Y0.8492  
G01 X-1.6706 Y0.8495  
G01 X-1.6697 Y0.8498  
G01 X-1.6687 Y0.8501  
G01 X-1.6674 Y0.8508  
G01 X-1.6659 Y0.8514  
G01 X-1.6651 Y0.8519  
G01 X-1.6643 Y0.8524  
G01 X-1.6630 Y0.8533  
G01 X-1.6617 Y0.8542  
G01 X-1.6611 Y0.8549  
G01 X-1.5798 Y0.9185  
G01 X-1.5601 Y0.9185  
G01 X-1.5569 Y0.9177  
G01 X-1.5518 Y0.9174  
G01 X-1.5469 Y0.9181  
G01 X-1.5458 Y0.9185  
G01 X-1.5409 Y0.9185  
G01 X-1.5348 Y0.9197  
G01 X-1.5291 Y0.9221  
G01 X-1.5239 Y0.9255  
G01 X-1.5228 Y0.9266  
G01 X-1.4262 Y0.9608  
G01 X-1.3952 Y0.9608  
G01 X-1.3931 Y0.9616  
G01 X-1.3916 Y0.9631  
G01 X-1.3908 Y0.9652  
G01 X-1.3908 Y1.0148  
G01 X-1.3916 Y1.0169  
G01 X-1.3931 Y1.0184  
G01 X-1.3952 Y1.0192  
G01 X-1.4448 Y1.0192  
G01 X-1.4469 Y1.0184  
G01 X-1.4484 Y1.0169  
G01 X-1.4492 Y1.0148  
G01 X-1.4492 Y1.0067  
G01 X-1.5298 Y0.9782  
G00 Z0.0500  
G00 X-1.5291 Y0.7779  
G01 Z-0.0035 F10    
G01 X-1.5348 Y0.7803  F20    
G01 X-1.5409 Y0.7815  
G01 X-1.5991 Y0.7815  
G01 X-1.6052 Y0.7803  
G01 X-1.6109 Y0.7779  
G01 X-1.6161 Y0.7745  
G01 X-1.6205 Y0.7701  
G01 X-1.6239 Y0.7649  
G01 X-1.6263 Y0.7592  
G01 X-1.6275 Y0.7531  
G01 X-1.6275 Y0.7469  
G01 X-1.6263 Y0.7408  
G01 X-1.6239 Y0.7351  
G01 X-1.6205 Y0.7299  
G01 X-1.6161 Y0.7255  
G01 X-1.6109 Y0.7221  
G01 X-1.6052 Y0.7197  
G01 X-1.5991 Y0.7185  
G01 X-1.5409 Y0.7185  
G01 X-1.5348 Y0.7197  
G01 X-1.5291 Y0.7221  
G01 X-1.5239 Y0.7255  
G01 X-1.5195 Y0.7299  
G01 X-1.5161 Y0.7351  
G01 X-1.5137 Y0.7408  
G01 X-1.5125 Y0.7469  
G01 X-1.5125 Y0.7531  
G01 X-1.5137 Y0.7592  
G01 X-1.5161 Y0.7649  
G01 X-1.5195 Y0.7701  
G01 X-1.5239 Y0.7745  
G01 X-1.5291 Y0.7779  
G00 Z0.0500  
G00 X-1.5291 Y0.6779  
G01 Z-0.0035 F10    
G01 X-1.5348 Y0.6803  F20    
G01 X-1.5409 Y0.6815  
G01 X-1.5991 Y0.6815  
G01 X-1.6052 Y0.6803  
G01 X-1.6109 Y0.6779  
G01 X-1.6161 Y0.6745  
G01 X-1.6205 Y0.6701  
G01 X-1.6239 Y0.6649  
G01 X-1.6258 Y0.6603  
G01 X-1.6260 Y0.6602  
G01 X-1.6270 Y0.6596  
G01 X-1.6280 Y0.6586  
G01 X-1.7651 Y0.5507  
G01 X-1.8273 Y0.5327  
G01 X-1.8301 Y0.5338  
G01 X-1.8368 Y0.5352  
G01 X-1.9032 Y0.5352  
G01 X-1.9099 Y0.5338  
G01 X-1.9164 Y0.5312  
G01 X-1.9221 Y0.5273  
G01 X-1.9270 Y0.5224  
G01 X-1.9309 Y0.5167  
G01 X-1.9335 Y0.5103  
G01 X-1.9349 Y0.5035  
G01 X-1.9349 Y0.4965  
G01 X-1.9335 Y0.4897  
G01 X-1.9309 Y0.4833  
G01 X-1.9270 Y0.4776  
G01 X-1.9221 Y0.4727  
G01 X-1.9164 Y0.4688  
G01 X-1.9099 Y0.4662  
G01 X-1.9032 Y0.4648  
G01 X-1.8368 Y0.4648  
G01 X-1.8301 Y0.4662  
G01 X-1.8236 Y0.4688  
G01 X-1.8179 Y0.4727  
G01 X-1.8130 Y0.4776  
G01 X-1.8091 Y0.4833  
G01 X-1.8065 Y0.4897  
G01 X-1.8051 Y0.4965  
G01 X-1.8051 Y0.4985  
G01 X-1.7519 Y0.5139  
G01 X-1.7507 Y0.5141  
G01 X-1.7494 Y0.5146  
G01 X-1.7481 Y0.5150  
G01 X-1.7471 Y0.5156  
G01 X-1.7460 Y0.5161  
G01 X-1.7449 Y0.5169  
G01 X-1.7437 Y0.5176  
G01 X-1.7429 Y0.5185  
G01 X-1.6111 Y0.6222  
G01 X-1.6109 Y0.6221  
G01 X-1.6052 Y0.6197  
G01 X-1.5991 Y0.6185  
G01 X-1.5409 Y0.6185  
G01 X-1.5348 Y0.6197  
G01 X-1.5291 Y0.6221  
G01 X-1.5239 Y0.6255  
G01 X-1.5195 Y0.6299  
G01 X-1.5161 Y0.6351  
G01 X-1.5137 Y0.6408  
G01 X-1.5125 Y0.6469  
G01 X-1.5125 Y0.6531  
G01 X-1.5137 Y0.6592  
G01 X-1.5161 Y0.6649  
G01 X-1.5195 Y0.6701  
G01 X-1.5239 Y0.6745  
G01 X-1.5291 Y0.6779  
G00 Z0.0500  
G00 X-1.5291 Y0.5779  
G01 Z-0.0035 F10    
G01 X-1.5348 Y0.5803  F20    
G01 X-1.5409 Y0.5815  
G01 X-1.5991 Y0.5815  
G01 X-1.6052 Y0.5803  
G01 X-1.6109 Y0.5779  
G01 X-1.6161 Y0.5745  
G01 X-1.6205 Y0.5701  
G01 X-1.6239 Y0.5649  
G01 X-1.6259 Y0.5601  
G01 X-1.7652 Y0.4584  
G01 X-1.8323 Y0.4343  
G01 X-1.8368 Y0.4352  
G01 X-1.9032 Y0.4352  
G01 X-1.9099 Y0.4338  
G01 X-1.9164 Y0.4312  
G01 X-1.9221 Y0.4273  
G01 X-1.9270 Y0.4224  
G01 X-1.9309 Y0.4167  
G01 X-1.9335 Y0.4103  
G01 X-1.9349 Y0.4035  
G01 X-1.9349 Y0.3965  
G01 X-1.9335 Y0.3897  
G01 X-1.9309 Y0.3833  
G01 X-1.9270 Y0.3776  
G01 X-1.9221 Y0.3727  
G01 X-1.9164 Y0.3688  
G01 X-1.9099 Y0.3662  
G01 X-1.9032 Y0.3648  
G01 X-1.8368 Y0.3648  
G01 X-1.8301 Y0.3662  
G01 X-1.8236 Y0.3688  
G01 X-1.8179 Y0.3727  
G01 X-1.8130 Y0.3776  
G01 X-1.8091 Y0.3833  
G01 X-1.8065 Y0.3897  
G01 X-1.8051 Y0.3965  
G01 X-1.8051 Y0.4026  
G01 X-1.7516 Y0.4219  
G01 X-1.7514 Y0.4219  
G01 X-1.7492 Y0.4227  
G01 X-1.7470 Y0.4235  
G01 X-1.7468 Y0.4237  
G01 X-1.7466 Y0.4237  
G01 X-1.7447 Y0.4251  
G01 X-1.7428 Y0.4264  
G01 X-1.7426 Y0.4266  
G01 X-1.6114 Y0.5224  
G01 X-1.6109 Y0.5221  
G01 X-1.6052 Y0.5197  
G01 X-1.5991 Y0.5185  
G01 X-1.5409 Y0.5185  
G01 X-1.5348 Y0.5197  
G01 X-1.5291 Y0.5221  
G01 X-1.5239 Y0.5255  
G01 X-1.5195 Y0.5299  
G01 X-1.5161 Y0.5351  
G01 X-1.5137 Y0.5408  
G01 X-1.5125 Y0.5469  
G01 X-1.5125 Y0.5531  
G01 X-1.5137 Y0.5592  
G01 X-1.5161 Y0.5649  
G01 X-1.5195 Y0.5701  
G01 X-1.5239 Y0.5745  
G01 X-1.5291 Y0.5779  
G00 Z0.0500  
G00 X-1.5291 Y0.4779  
G01 Z-0.0035 F10    
G01 X-1.5348 Y0.4803  F20    
G01 X-1.5409 Y0.4815  
G01 X-1.5991 Y0.4815  
G01 X-1.6052 Y0.4803  
G01 X-1.6109 Y0.4779  
G01 X-1.6161 Y0.4745  
G01 X-1.6205 Y0.4701  
G01 X-1.6239 Y0.4649  
G01 X-1.6263 Y0.4592  
G01 X-1.6275 Y0.4531  
G01 X-1.6275 Y0.4469  
G01 X-1.6263 Y0.4408  
G01 X-1.6239 Y0.4351  
G01 X-1.6205 Y0.4299  
G01 X-1.6161 Y0.4255  
G01 X-1.6109 Y0.4221  
G01 X-1.6052 Y0.4197  
G01 X-1.5991 Y0.4185  
G01 X-1.5593 Y0.4185  
G01 X-1.5581 Y0.4180  
G01 X-1.5568 Y0.4178  
G01 X-1.5556 Y0.4175  
G01 X-1.5543 Y0.4175  
G01 X-1.5530 Y0.4173  
G01 X-1.5517 Y0.4175  
G01 X-1.5381 Y0.4175  
G01 X-1.5035 Y0.3829  
G01 X-1.5035 Y0.2151  
G01 X-1.5611 Y0.1575  
G01 X-1.9669 Y0.1575  
G01 X-2.0015 Y0.1921  
G01 X-2.0015 Y0.4709  
G01 X-1.9175 Y0.5549  
G01 X-1.8974 Y0.5648  
G01 X-1.8368 Y0.5648  
G01 X-1.8301 Y0.5662  
G01 X-1.8236 Y0.5688  
G01 X-1.8179 Y0.5727  
G01 X-1.8130 Y0.5776  
G01 X-1.8091 Y0.5833  
G01 X-1.8065 Y0.5897  
G01 X-1.8051 Y0.5965  
G01 X-1.8051 Y0.6035  
G01 X-1.8065 Y0.6103  
G01 X-1.8091 Y0.6167  
G01 X-1.8130 Y0.6224  
G01 X-1.8179 Y0.6273  
G01 X-1.8236 Y0.6312  
G01 X-1.8301 Y0.6338  
G01 X-1.8368 Y0.6352  
G01 X-1.9032 Y0.6352  
G01 X-1.9099 Y0.6338  
G01 X-1.9164 Y0.6312  
G01 X-1.9221 Y0.6273  
G01 X-1.9270 Y0.6224  
G01 X-1.9309 Y0.6167  
G01 X-1.9335 Y0.6103  
G01 X-1.9349 Y0.6035  
G01 X-1.9349 Y0.5965  
G01 X-1.9337 Y0.5904  
G01 X-1.9359 Y0.5893  
G01 X-1.9365 Y0.5892  
G01 X-1.9382 Y0.5882  
G01 X-1.9399 Y0.5874  
G01 X-1.9404 Y0.5869  
G01 X-1.9410 Y0.5866  
G01 X-1.9423 Y0.5852  
G01 X-1.9438 Y0.5840  
G01 X-1.9441 Y0.5834  
G01 X-2.0366 Y0.4910  
G01 X-2.0392 Y0.4865  
G01 X-2.0405 Y0.4816  
G01 X-2.0405 Y0.1814  
G01 X-2.0392 Y0.1765  
G01 X-2.0366 Y0.1720  
G01 X-2.0330 Y0.1684  
G01 X-1.9870 Y0.1224  
G01 X-1.9825 Y0.1198  
G01 X-1.9776 Y0.1185  
G01 X-1.5504 Y0.1185  
G01 X-1.5455 Y0.1198  
G01 X-1.5410 Y0.1224  
G01 X-1.5374 Y0.1260  
G01 X-1.4684 Y0.1950  
G01 X-1.4658 Y0.1995  
G01 X-1.4645 Y0.2044  
G01 X-1.4645 Y0.3936  
G01 X-1.4658 Y0.3985  
G01 X-1.4684 Y0.4030  
G01 X-1.4720 Y0.4066  
G01 X-1.5125 Y0.4471  
G01 X-1.5125 Y0.4531  
G01 X-1.5137 Y0.4592  
G01 X-1.5161 Y0.4649  
G01 X-1.5195 Y0.4701  
G01 X-1.5239 Y0.4745  
G01 X-1.5291 Y0.4779  
G00 Z0.0500  
G00 X-1.5291 Y0.3779  
G01 Z-0.0035 F10    
G01 X-1.5348 Y0.3803  F20    
G01 X-1.5409 Y0.3815  
G01 X-1.5991 Y0.3815  
G01 X-1.6052 Y0.3803  
G01 X-1.6109 Y0.3779  
G01 X-1.6161 Y0.3745  
G01 X-1.6205 Y0.3701  
G01 X-1.6239 Y0.3649  
G01 X-1.6263 Y0.3592  
G01 X-1.6275 Y0.3531  
G01 X-1.6275 Y0.3469  
G01 X-1.6263 Y0.3408  
G01 X-1.6239 Y0.3351  
G01 X-1.6205 Y0.3299  
G01 X-1.6161 Y0.3255  
G01 X-1.6109 Y0.3221  
G01 X-1.6052 Y0.3197  
G01 X-1.5991 Y0.3185  
G01 X-1.5409 Y0.3185  
G01 X-1.5348 Y0.3197  
G01 X-1.5291 Y0.3221  
G01 X-1.5239 Y0.3255  
G01 X-1.5195 Y0.3299  
G01 X-1.5161 Y0.3351  
G01 X-1.5137 Y0.3408  
G01 X-1.5125 Y0.3469  
G01 X-1.5125 Y0.3531  
G01 X-1.5137 Y0.3592  
G01 X-1.5161 Y0.3649  
G01 X-1.5195 Y0.3701  
G01 X-1.5239 Y0.3745  
G01 X-1.5291 Y0.3779  
G00 Z0.0500  
G00 X-1.5291 Y0.2779  
G01 Z-0.0035 F10    
G01 X-1.5348 Y0.2803  F20    
G01 X-1.5409 Y0.2815  
G01 X-1.5897 Y0.2815  
G01 X-1.6479 Y0.3102  
G01 X-1.6496 Y0.3112  
G01 X-1.6502 Y0.3114  
G01 X-1.6507 Y0.3116  
G01 X-1.6526 Y0.3120  
G01 X-1.6546 Y0.3125  
G01 X-1.6552 Y0.3125  
G01 X-1.6557 Y0.3126  
G01 X-1.6577 Y0.3125  
G01 X-1.7753 Y0.3115  
G01 X-1.8082 Y0.3143  
G01 X-1.8091 Y0.3167  
G01 X-1.8130 Y0.3224  
G01 X-1.8179 Y0.3273  
G01 X-1.8236 Y0.3312  
G01 X-1.8301 Y0.3338  
G01 X-1.8368 Y0.3352  
G01 X-1.9032 Y0.3352  
G01 X-1.9099 Y0.3338  
G01 X-1.9164 Y0.3312  
G01 X-1.9221 Y0.3273  
G01 X-1.9270 Y0.3224  
G01 X-1.9309 Y0.3167  
G01 X-1.9335 Y0.3103  
G01 X-1.9349 Y0.3035  
G01 X-1.9349 Y0.2965  
G01 X-1.9335 Y0.2897  
G01 X-1.9309 Y0.2833  
G01 X-1.9270 Y0.2776  
G01 X-1.9221 Y0.2727  
G01 X-1.9164 Y0.2688  
G01 X-1.9099 Y0.2662  
G01 X-1.9032 Y0.2648  
G01 X-1.8368 Y0.2648  
G01 X-1.8301 Y0.2662  
G01 X-1.8236 Y0.2688  
G01 X-1.8179 Y0.2727  
G01 X-1.8148 Y0.2757  
G01 X-1.7793 Y0.2727  
G01 X-1.7784 Y0.2725  
G01 X-1.7767 Y0.2725  
G01 X-1.7751 Y0.2724  
G01 X-1.7742 Y0.2725  
G01 X-1.6615 Y0.2735  
G01 X-1.6269 Y0.2564  
G01 X-1.6275 Y0.2531  
G01 X-1.6275 Y0.2469  
G01 X-1.6263 Y0.2408  
G01 X-1.6239 Y0.2351  
G01 X-1.6205 Y0.2299  
G01 X-1.6161 Y0.2255  
G01 X-1.6109 Y0.2221  
G01 X-1.6052 Y0.2197  
G01 X-1.5991 Y0.2185  
G01 X-1.5409 Y0.2185  
G01 X-1.5348 Y0.2197  
G01 X-1.5291 Y0.2221  
G01 X-1.5239 Y0.2255  
G01 X-1.5195 Y0.2299  
G01 X-1.5161 Y0.2351  
G01 X-1.5137 Y0.2408  
G01 X-1.5125 Y0.2469  
G01 X-1.5125 Y0.2531  
G01 X-1.5137 Y0.2592  
G01 X-1.5161 Y0.2649  
G01 X-1.5195 Y0.2701  
G01 X-1.5239 Y0.2745  
G01 X-1.5291 Y0.2779  
G00 Z0.0500  
G00 X-1.6631 Y0.2284  
G01 Z-0.0035 F10    
G01 X-1.6652 Y0.2292  F20    
G01 X-1.7148 Y0.2292  
G01 X-1.7169 Y0.2284  
G01 X-1.7184 Y0.2269  
G01 X-1.7190 Y0.2255  
G01 X-1.8161 Y0.2255  
G01 X-1.8179 Y0.2273  
G01 X-1.8236 Y0.2312  
G01 X-1.8301 Y0.2338  
G01 X-1.8368 Y0.2352  
G01 X-1.9032 Y0.2352  
G01 X-1.9099 Y0.2338  
G01 X-1.9164 Y0.2312  
G01 X-1.9221 Y0.2273  
G01 X-1.9270 Y0.2224  
G01 X-1.9309 Y0.2167  
G01 X-1.9335 Y0.2103  
G01 X-1.9349 Y0.2035  
G01 X-1.9349 Y0.1965  
G01 X-1.9335 Y0.1897  
G01 X-1.9309 Y0.1833  
G01 X-1.9270 Y0.1776  
G01 X-1.9221 Y0.1727  
G01 X-1.9164 Y0.1688  
G01 X-1.9099 Y0.1662  
G01 X-1.9032 Y0.1648  
G01 X-1.8368 Y0.1648  
G01 X-1.8301 Y0.1662  
G01 X-1.8236 Y0.1688  
G01 X-1.8179 Y0.1727  
G01 X-1.8161 Y0.1745  
G01 X-1.7190 Y0.1745  
G01 X-1.7184 Y0.1731  
G01 X-1.7169 Y0.1716  
G01 X-1.7148 Y0.1708  
G01 X-1.6652 Y0.1708  
G01 X-1.6631 Y0.1716  
G01 X-1.6616 Y0.1731  
G01 X-1.6608 Y0.1752  
G01 X-1.6608 Y0.2248  
G01 X-1.6616 Y0.2269  
G01 X-1.6631 Y0.2284  
G00 Z0.0500  
G00 X-1.3205 Y0.2299  
G01 Z-0.0035 F10    
G01 X-1.3161 Y0.2255  F20    
G01 X-1.3109 Y0.2221  
G01 X-1.3052 Y0.2197  
G01 X-1.2991 Y0.2185  
G01 X-1.2980 Y0.2185  
G01 X-1.3430 Y0.1115  
G01 X-1.9899 Y0.1115  
G01 X-2.0475 Y0.1691  
G01 X-2.0475 Y0.5169  
G01 X-1.8996 Y0.6648  
G01 X-1.8368 Y0.6648  
G01 X-1.8301 Y0.6662  
G01 X-1.8236 Y0.6688  
G01 X-1.8179 Y0.6727  
G01 X-1.8130 Y0.6776  
G01 X-1.8091 Y0.6833  
G01 X-1.8065 Y0.6897  
G01 X-1.8051 Y0.6965  
G01 X-1.8051 Y0.7035  
G01 X-1.8065 Y0.7103  
G01 X-1.8091 Y0.7167  
G01 X-1.8130 Y0.7224  
G01 X-1.8179 Y0.7273  
G01 X-1.8236 Y0.7312  
G01 X-1.8301 Y0.7338  
G01 X-1.8368 Y0.7352  
G01 X-1.9032 Y0.7352  
G01 X-1.9099 Y0.7338  
G01 X-1.9164 Y0.7312  
G01 X-1.9221 Y0.7273  
G01 X-1.9270 Y0.7224  
G01 X-1.9309 Y0.7167  
G01 X-1.9335 Y0.7103  
G01 X-1.9349 Y0.7035  
G01 X-1.9349 Y0.6965  
G01 X-1.9335 Y0.6897  
G01 X-1.9324 Y0.6871  
G01 X-2.0826 Y0.5370  
G01 X-2.0852 Y0.5325  
G01 X-2.0865 Y0.5276  
G01 X-2.0865 Y0.1584  
G01 X-2.0852 Y0.1535  
G01 X-2.0826 Y0.1490  
G01 X-2.0790 Y0.1454  
G01 X-2.0100 Y0.0764  
G01 X-2.0055 Y0.0738  
G01 X-2.0006 Y0.0725  
G01 X-1.3313 Y0.0725  
G01 X-1.3301 Y0.0723  
G01 X-1.3288 Y0.0725  
G01 X-1.3274 Y0.0725  
G01 X-1.3262 Y0.0728  
G01 X-1.3250 Y0.0730  
G01 X-1.3238 Y0.0735  
G01 X-1.3225 Y0.0738  
G01 X-1.3214 Y0.0744  
G01 X-1.3203 Y0.0749  
G01 X-1.3192 Y0.0757  
G01 X-1.3180 Y0.0764  
G01 X-1.3172 Y0.0773  
G01 X-1.3162 Y0.0780  
G01 X-1.3153 Y0.0791  
G01 X-1.3144 Y0.0800  
G01 X-1.3138 Y0.0811  
G01 X-1.3130 Y0.0821  
G01 X-1.3125 Y0.0833  
G01 X-1.3118 Y0.0845  
G01 X-1.3115 Y0.0857  
G01 X-1.2557 Y0.2185  
G01 X-1.2409 Y0.2185  
G01 X-1.2348 Y0.2197  
G01 X-1.2291 Y0.2221  
G01 X-1.2239 Y0.2255  
G01 X-1.2195 Y0.2299  
G01 X-1.2161 Y0.2351  
G01 X-1.2137 Y0.2408  
G01 X-1.2125 Y0.2469  
G01 X-1.2125 Y0.2531  
G01 X-1.2137 Y0.2592  
G01 X-1.2161 Y0.2649  
G01 X-1.2195 Y0.2701  
G01 X-1.2239 Y0.2745  
G01 X-1.2291 Y0.2779  
G01 X-1.2348 Y0.2803  
G01 X-1.2409 Y0.2815  
G01 X-1.2991 Y0.2815  
G01 X-1.3052 Y0.2803  
G01 X-1.3109 Y0.2779  
G01 X-1.3161 Y0.2745  
G01 X-1.3205 Y0.2701  
G01 X-1.3239 Y0.2649  
G01 X-1.3263 Y0.2592  
G01 X-1.3275 Y0.2531  
G01 X-1.3275 Y0.2469  
G01 X-1.3263 Y0.2408  
G01 X-1.3239 Y0.2351  
G01 X-1.3205 Y0.2299  
G00 Z0.0500  
G00 X-1.3161 Y0.3255  
G01 Z-0.0035 F10    
G01 X-1.3109 Y0.3221  F20    
G01 X-1.3052 Y0.3197  
G01 X-1.2991 Y0.3185  
G01 X-1.2409 Y0.3185  
G01 X-1.2348 Y0.3197  
G01 X-1.2291 Y0.3221  
G01 X-1.2239 Y0.3255  
G01 X-1.2195 Y0.3299  
G01 X-1.2161 Y0.3351  
G01 X-1.2137 Y0.3408  
G01 X-1.2125 Y0.3469  
G01 X-1.2125 Y0.3531  
G01 X-1.2137 Y0.3592  
G01 X-1.2161 Y0.3649  
G01 X-1.2195 Y0.3701  
G01 X-1.2239 Y0.3745  
G01 X-1.2291 Y0.3779  
G01 X-1.2348 Y0.3803  
G01 X-1.2409 Y0.3815  
G01 X-1.2991 Y0.3815  
G01 X-1.3052 Y0.3803  
G01 X-1.3109 Y0.3779  
G01 X-1.3161 Y0.3745  
G01 X-1.3205 Y0.3701  
G01 X-1.3239 Y0.3649  
G01 X-1.3263 Y0.3592  
G01 X-1.3275 Y0.3531  
G01 X-1.3275 Y0.3469  
G01 X-1.3263 Y0.3408  
G01 X-1.3239 Y0.3351  
G01 X-1.3205 Y0.3299  
G01 X-1.3161 Y0.3255  
G00 Z0.0500  
G00 X-2.2971 Y0.3245  
G01 Z-0.0035 F10    
G01 X-2.3025 Y0.3299  F20    
G01 X-2.3088 Y0.3341  
G01 X-2.3158 Y0.3370  
G01 X-2.3232 Y0.3385  
G01 X-2.3565 Y0.3385  
G01 X-2.3567 Y0.3386  
G01 X-2.3575 Y0.3392  
G01 X-2.3589 Y0.3398  
G01 X-2.3603 Y0.3405  
G01 X-2.3613 Y0.3407  
G01 X-2.3622 Y0.3411  
G01 X-2.3638 Y0.3413  
G01 X-2.3653 Y0.3416  
G01 X-2.3663 Y0.3416  
G01 X-2.3673 Y0.3417  
G01 X-2.3689 Y0.3414  
G01 X-2.3705 Y0.3414  
G01 X-2.3714 Y0.3411  
G01 X-2.3724 Y0.3409  
G01 X-2.3739 Y0.3403  
G01 X-2.3754 Y0.3398  
G01 X-2.3762 Y0.3393  
G01 X-2.3780 Y0.3385  
G01 X-2.3968 Y0.3385  
G01 X-2.4042 Y0.3370  
G01 X-2.4112 Y0.3341  
G01 X-2.4146 Y0.3319  
G01 X-2.4535 Y0.3531  
G01 X-2.4535 Y0.4384  
G01 X-2.2265 Y0.6367  
G01 X-2.2257 Y0.6372  
G01 X-2.2246 Y0.6384  
G01 X-2.2233 Y0.6394  
G01 X-2.2228 Y0.6401  
G01 X-2.2222 Y0.6407  
G01 X-2.2213 Y0.6421  
G01 X-2.2203 Y0.6434  
G01 X-2.2199 Y0.6442  
G01 X-2.2194 Y0.6449  
G01 X-2.2188 Y0.6464  
G01 X-2.2180 Y0.6479  
G01 X-2.2178 Y0.6488  
G01 X-2.2175 Y0.6496  
G01 X-2.2172 Y0.6512  
G01 X-2.2167 Y0.6528  
G01 X-2.2167 Y0.6536  
G01 X-2.2165 Y0.6545  
G01 X-2.2165 Y0.6561  
G01 X-2.2164 Y0.6578  
G01 X-2.2165 Y0.6586  
G01 X-2.2165 Y0.7650  
G01 X-2.2164 Y0.7664  
G01 X-2.2165 Y0.7675  
G01 X-2.2165 Y0.7685  
G01 X-2.2168 Y0.7699  
G01 X-2.2170 Y0.7714  
G01 X-2.2173 Y0.7724  
G01 X-2.2175 Y0.7734  
G01 X-2.2180 Y0.7748  
G01 X-2.2185 Y0.7762  
G01 X-2.2190 Y0.7771  
G01 X-2.2194 Y0.7781  
G01 X-2.2202 Y0.7793  
G01 X-2.2209 Y0.7806  
G01 X-2.2216 Y0.7814  
G01 X-2.2222 Y0.7823  
G01 X-2.2232 Y0.7833  
G01 X-2.2242 Y0.7844  
G01 X-2.2250 Y0.7851  
G01 X-2.2257 Y0.7858  
G01 X-2.2270 Y0.7866  
G01 X-2.2281 Y0.7875  
G01 X-2.2290 Y0.7880  
G01 X-2.2299 Y0.7886  
G01 X-2.2313 Y0.7892  
G01 X-2.2326 Y0.7898  
G01 X-2.2336 Y0.7901  
G01 X-2.2346 Y0.7905  
G01 X-2.2360 Y0.7908  
G01 X-2.2889 Y0.8059  
G01 X-2.2900 Y0.8112  
G01 X-2.2929 Y0.8182  
G01 X-2.2971 Y0.8245  
G01 X-2.3025 Y0.8299  
G01 X-2.3088 Y0.8341  
G01 X-2.3158 Y0.8370  
G01 X-2.3232 Y0.8385  
G01 X-2.3968 Y0.8385  
G01 X-2.4042 Y0.8370  
G01 X-2.4089 Y0.8351  
G01 X-2.4535 Y0.8446  
G01 X-2.4535 Y0.9536  
G01 X-2.2270 Y1.1324  
G01 X-2.2257 Y1.1332  
G01 X-2.2250 Y1.1339  
G01 X-2.2242 Y1.1345  
G01 X-2.2233 Y1.1357  
G01 X-2.2222 Y1.1367  
G01 X-2.2216 Y1.1376  
G01 X-2.2210 Y1.1384  
G01 X-2.2202 Y1.1397  
G01 X-2.2194 Y1.1409  
G01 X-2.2190 Y1.1419  
G01 X-2.2185 Y1.1427  
G01 X-2.2181 Y1.1442  
G01 X-2.2175 Y1.1456  
G01 X-2.2173 Y1.1466  
G01 X-2.2170 Y1.1475  
G01 X-2.2168 Y1.1490  
G01 X-2.2165 Y1.1505  
G01 X-2.2165 Y1.1515  
G01 X-2.2164 Y1.1525  
G01 X-2.2165 Y1.1540  
G01 X-2.2165 Y1.2580  
G01 X-2.2164 Y1.2595  
G01 X-2.2165 Y1.2605  
G01 X-2.2165 Y1.2615  
G01 X-2.2168 Y1.2630  
G01 X-2.2170 Y1.2645  
G01 X-2.2173 Y1.2654  
G01 X-2.2175 Y1.2664  
G01 X-2.2181 Y1.2678  
G01 X-2.2185 Y1.2693  
G01 X-2.2190 Y1.2701  
G01 X-2.2194 Y1.2711  
G01 X-2.2202 Y1.2723  
G01 X-2.2210 Y1.2736  
G01 X-2.2216 Y1.2744  
G01 X-2.2222 Y1.2753  
G01 X-2.2233 Y1.2763  
G01 X-2.2242 Y1.2775  
G01 X-2.2250 Y1.2781  
G01 X-2.2257 Y1.2788  
G01 X-2.2270 Y1.2796  
G01 X-2.2282 Y1.2806  
G01 X-2.2291 Y1.2810  
G01 X-2.2299 Y1.2816  
G01 X-2.2313 Y1.2822  
G01 X-2.2904 Y1.3123  
G01 X-2.2929 Y1.3182  
G01 X-2.2971 Y1.3245  
G01 X-2.3025 Y1.3299  
G01 X-2.3088 Y1.3341  
G01 X-2.3158 Y1.3370  
G01 X-2.3232 Y1.3385  
G01 X-2.3968 Y1.3385  
G01 X-2.4042 Y1.3370  
G01 X-2.4057 Y1.3364  
G01 X-2.4635 Y1.3714  
G01 X-2.4635 Y1.4246  
G01 X-2.4634 Y1.4256  
G01 X-2.4635 Y1.4271  
G01 X-2.4635 Y1.4285  
G01 X-2.4637 Y1.4296  
G01 X-2.4751 Y1.5652  
G01 X-2.4701 Y1.5662  
G01 X-2.4692 Y1.5665  
G01 X-2.4662 Y1.5665  
G01 X-2.4659 Y1.5664  
G01 X-2.4637 Y1.5665  
G01 X-2.2555 Y1.5665  
G01 X-2.2541 Y1.5596  
G01 X-2.2515 Y1.5532  
G01 X-2.2476 Y1.5474  
G01 X-2.2426 Y1.5424  
G01 X-2.2368 Y1.5385  
G01 X-2.2304 Y1.5359  
G01 X-2.2235 Y1.5345  
G01 X-2.2165 Y1.5345  
G01 X-2.2096 Y1.5359  
G01 X-2.2032 Y1.5385  
G01 X-2.1974 Y1.5424  
G01 X-2.1924 Y1.5474  
G01 X-2.1885 Y1.5532  
G01 X-2.1859 Y1.5596  
G01 X-2.1845 Y1.5665  
G01 X-2.1845 Y1.6335  
G01 X-2.1859 Y1.6404  
G01 X-2.1885 Y1.6468  
G01 X-2.1924 Y1.6526  
G01 X-2.1974 Y1.6576  
G01 X-2.2032 Y1.6615  
G01 X-2.2096 Y1.6641  
G01 X-2.2165 Y1.6655  
G01 X-2.2235 Y1.6655  
G01 X-2.2304 Y1.6641  
G01 X-2.2368 Y1.6615  
G01 X-2.2426 Y1.6576  
G01 X-2.2476 Y1.6526  
G01 X-2.2515 Y1.6468  
G01 X-2.2541 Y1.6404  
G01 X-2.2555 Y1.6335  
G01 X-2.2555 Y1.6175  
G01 X-2.4497 Y1.6175  
G01 X-2.4530 Y1.6224  
G01 X-2.4579 Y1.6273  
G01 X-2.4636 Y1.6312  
G01 X-2.4701 Y1.6338  
G01 X-2.4768 Y1.6352  
G01 X-2.5432 Y1.6352  
G01 X-2.5499 Y1.6338  
G01 X-2.5564 Y1.6312  
G01 X-2.5621 Y1.6273  
G01 X-2.5670 Y1.6224  
G01 X-2.5709 Y1.6167  
G01 X-2.5735 Y1.6103  
G01 X-2.5749 Y1.6035  
G01 X-2.5749 Y1.5965  
G01 X-2.5735 Y1.5897  
G01 X-2.5709 Y1.5833  
G01 X-2.5670 Y1.5776  
G01 X-2.5621 Y1.5727  
G01 X-2.5564 Y1.5688  
G01 X-2.5499 Y1.5662  
G01 X-2.5432 Y1.5648  
G01 X-2.5263 Y1.5648  
G01 X-2.5145 Y1.4249  
G01 X-2.5145 Y1.3589  
G01 X-2.5146 Y1.3584  
G01 X-2.5145 Y1.3564  
G01 X-2.5145 Y1.3545  
G01 X-2.5144 Y1.3539  
G01 X-2.5144 Y1.3533  
G01 X-2.5139 Y1.3515  
G01 X-2.5135 Y1.3496  
G01 X-2.5133 Y1.3490  
G01 X-2.5132 Y1.3485  
G01 X-2.5123 Y1.3467  
G01 X-2.5116 Y1.3449  
G01 X-2.5113 Y1.3444  
G01 X-2.5110 Y1.3439  
G01 X-2.5099 Y1.3424  
G01 X-2.5088 Y1.3407  
G01 X-2.5084 Y1.3403  
G01 X-2.5081 Y1.3399  
G01 X-2.5066 Y1.3386  
G01 X-2.5053 Y1.3372  
G01 X-2.5048 Y1.3369  
G01 X-2.5044 Y1.3365  
G01 X-2.5027 Y1.3355  
G01 X-2.5011 Y1.3344  
G01 X-2.5005 Y1.3342  
G01 X-2.4306 Y1.2919  
G01 X-2.4300 Y1.2888  
G01 X-2.4271 Y1.2818  
G01 X-2.4229 Y1.2755  
G01 X-2.4175 Y1.2701  
G01 X-2.4112 Y1.2659  
G01 X-2.4042 Y1.2630  
G01 X-2.3968 Y1.2615  
G01 X-2.3232 Y1.2615  
G01 X-2.3158 Y1.2630  
G01 X-2.3104 Y1.2652  
G01 X-2.2675 Y1.2434  
G01 X-2.2675 Y1.1654  
G01 X-2.4940 Y0.9866  
G01 X-2.4953 Y0.9858  
G01 X-2.4960 Y0.9851  
G01 X-2.4968 Y0.9845  
G01 X-2.4977 Y0.9833  
G01 X-2.4988 Y0.9823  
G01 X-2.4994 Y0.9814  
G01 X-2.5000 Y0.9806  
G01 X-2.5008 Y0.9793  
G01 X-2.5016 Y0.9781  
G01 X-2.5020 Y0.9771  
G01 X-2.5025 Y0.9763  
G01 X-2.5029 Y0.9748  
G01 X-2.5035 Y0.9734  
G01 X-2.5037 Y0.9724  
G01 X-2.5040 Y0.9715  
G01 X-2.5042 Y0.9700  
G01 X-2.5045 Y0.9685  
G01 X-2.5045 Y0.9675  
G01 X-2.5046 Y0.9665  
G01 X-2.5045 Y0.9650  
G01 X-2.5045 Y0.8242  
G01 X-2.5045 Y0.8218  
G01 X-2.5045 Y0.8217  
G01 X-2.5045 Y0.8215  
G01 X-2.5040 Y0.8192  
G01 X-2.5036 Y0.8169  
G01 X-2.5036 Y0.8167  
G01 X-2.5035 Y0.8166  
G01 X-2.5026 Y0.8144  
G01 X-2.5018 Y0.8122  
G01 X-2.5017 Y0.8121  
G01 X-2.5016 Y0.8119  
G01 X-2.5003 Y0.8100  
G01 X-2.4990 Y0.8080  
G01 X-2.4989 Y0.8079  
G01 X-2.4988 Y0.8077  
G01 X-2.4972 Y0.8061  
G01 X-2.4955 Y0.8044  
G01 X-2.4954 Y0.8043  
G01 X-2.4953 Y0.8042  
G01 X-2.4933 Y0.8029  
G01 X-2.4914 Y0.8016  
G01 X-2.4912 Y0.8015  
G01 X-2.4911 Y0.8014  
G01 X-2.4889 Y0.8005  
G01 X-2.4868 Y0.7996  
G01 X-2.4866 Y0.7995  
G01 X-2.4864 Y0.7995  
G01 X-2.4842 Y0.7990  
G01 X-2.4294 Y0.7873  
G01 X-2.4271 Y0.7818  
G01 X-2.4229 Y0.7755  
G01 X-2.4175 Y0.7701  
G01 X-2.4112 Y0.7659  
G01 X-2.4042 Y0.7630  
G01 X-2.3968 Y0.7615  
G01 X-2.3232 Y0.7615  
G01 X-2.3182 Y0.7625  
G01 X-2.3144 Y0.7625  
G01 X-2.3119 Y0.7605  
G01 X-2.3074 Y0.7582  
G01 X-2.2675 Y0.7468  
G01 X-2.2675 Y0.6686  
G01 X-2.4945 Y0.4703  
G01 X-2.4953 Y0.4698  
G01 X-2.4964 Y0.4686  
G01 X-2.4977 Y0.4676  
G01 X-2.4982 Y0.4669  
G01 X-2.4988 Y0.4663  
G01 X-2.4997 Y0.4649  
G01 X-2.5007 Y0.4636  
G01 X-2.5011 Y0.4628  
G01 X-2.5016 Y0.4621  
G01 X-2.5022 Y0.4606  
G01 X-2.5030 Y0.4591  
G01 X-2.5032 Y0.4582  
G01 X-2.5035 Y0.4574  
G01 X-2.5038 Y0.4558  
G01 X-2.5043 Y0.4542  
G01 X-2.5043 Y0.4534  
G01 X-2.5045 Y0.4525  
G01 X-2.5045 Y0.4509  
G01 X-2.5046 Y0.4492  
G01 X-2.5045 Y0.4484  
G01 X-2.5045 Y0.3394  
G01 X-2.5046 Y0.3382  
G01 X-2.5045 Y0.3369  
G01 X-2.5045 Y0.3355  
G01 X-2.5043 Y0.3344  
G01 X-2.5042 Y0.3332  
G01 X-2.5038 Y0.3319  
G01 X-2.5035 Y0.3306  
G01 X-2.5031 Y0.3295  
G01 X-2.5028 Y0.3284  
G01 X-2.5021 Y0.3272  
G01 X-2.5016 Y0.3259  
G01 X-2.5010 Y0.3250  
G01 X-2.5004 Y0.3239  
G01 X-2.4996 Y0.3229  
G01 X-2.4988 Y0.3217  
G01 X-2.4980 Y0.3209  
G01 X-2.4973 Y0.3200  
G01 X-2.4962 Y0.3192  
G01 X-2.4953 Y0.3182  
G01 X-2.4943 Y0.3176  
G01 X-2.4934 Y0.3168  
G01 X-2.4922 Y0.3162  
G01 X-2.4911 Y0.3154  
G01 X-2.4900 Y0.3150  
G01 X-2.4260 Y0.2800  
G01 X-2.4229 Y0.2755  
G01 X-2.4175 Y0.2701  
G01 X-2.4112 Y0.2659  
G01 X-2.4042 Y0.2630  
G01 X-2.3968 Y0.2615  
G01 X-2.3232 Y0.2615  
G01 X-2.3158 Y0.2630  
G01 X-2.3088 Y0.2659  
G01 X-2.3025 Y0.2701  
G01 X-2.2971 Y0.2755  
G01 X-2.2929 Y0.2818  
G01 X-2.2900 Y0.2888  
G01 X-2.2885 Y0.2962  
G01 X-2.2885 Y0.3038  
G01 X-2.2900 Y0.3112  
G01 X-2.2929 Y0.3182  
G01 X-2.2971 Y0.3245  
G00 Z0.0500  
G00 X-2.2971 Y0.3755  
G01 Z-0.0035 F10    
G01 X-2.2941 Y0.3800  F20    
G01 X-2.2937 Y0.3802  
G01 X-2.2925 Y0.3815  
G01 X-2.2911 Y0.3827  
G01 X-2.2907 Y0.3833  
G01 X-2.2902 Y0.3837  
G01 X-2.2892 Y0.3853  
G01 X-2.2006 Y0.5034  
G01 X-2.2000 Y0.5040  
G01 X-2.1991 Y0.5054  
G01 X-2.1981 Y0.5067  
G01 X-2.1977 Y0.5075  
G01 X-2.1973 Y0.5082  
G01 X-2.1966 Y0.5097  
G01 X-2.1959 Y0.5112  
G01 X-2.1957 Y0.5121  
G01 X-2.1171 Y0.7086  
G01 X-2.1169 Y0.7089  
G01 X-2.1162 Y0.7109  
G01 X-2.1154 Y0.7129  
G01 X-2.1153 Y0.7133  
G01 X-2.0035 Y1.0208  
G01 X-1.9952 Y1.0208  
G01 X-1.9931 Y1.0216  
G01 X-1.9916 Y1.0231  
G01 X-1.9908 Y1.0252  
G01 X-1.9908 Y1.0748  
G01 X-1.9916 Y1.0769  
G01 X-1.9931 Y1.0784  
G01 X-1.9952 Y1.0792  
G01 X-2.0448 Y1.0792  
G01 X-2.0469 Y1.0784  
G01 X-2.0484 Y1.0769  
G01 X-2.0492 Y1.0748  
G01 X-2.0492 Y1.0442  
G01 X-2.1638 Y0.7291  
G01 X-2.2424 Y0.5326  
G01 X-2.3145 Y0.4365  
G01 X-2.3158 Y0.4370  
G01 X-2.3232 Y0.4385  
G01 X-2.3968 Y0.4385  
G01 X-2.4042 Y0.4370  
G01 X-2.4112 Y0.4341  
G01 X-2.4175 Y0.4299  
G01 X-2.4229 Y0.4245  
G01 X-2.4271 Y0.4182  
G01 X-2.4300 Y0.4112  
G01 X-2.4315 Y0.4038  
G01 X-2.4315 Y0.3962  
G01 X-2.4300 Y0.3888  
G01 X-2.4271 Y0.3818  
G01 X-2.4229 Y0.3755  
G01 X-2.4175 Y0.3701  
G01 X-2.4112 Y0.3659  
G01 X-2.4042 Y0.3630  
G01 X-2.3968 Y0.3615  
G01 X-2.3232 Y0.3615  
G01 X-2.3158 Y0.3630  
G01 X-2.3088 Y0.3659  
G01 X-2.3025 Y0.3701  
G01 X-2.2971 Y0.3755  
G00 Z0.0500  
G00 X-2.3025 Y0.2299  
G01 Z-0.0035 F10    
G01 X-2.3088 Y0.2341  F20    
G01 X-2.3158 Y0.2370  
G01 X-2.3232 Y0.2385  
G01 X-2.3968 Y0.2385  
G01 X-2.4042 Y0.2370  
G01 X-2.4112 Y0.2341  
G01 X-2.4175 Y0.2299  
G01 X-2.4229 Y0.2245  
G01 X-2.4271 Y0.2182  
G01 X-2.4300 Y0.2112  
G01 X-2.4315 Y0.2038  
G01 X-2.4315 Y0.1962  
G01 X-2.4302 Y0.1897  
G01 X-2.4985 Y0.1705  
G01 X-2.5176 Y0.1705  
G01 X-2.5882 Y0.1728  
G01 X-2.5970 Y0.1815  
G01 X-2.6230 Y0.1815  
G01 X-2.6240 Y0.1805  
G01 X-2.6356 Y0.1805  
G01 X-2.6375 Y0.1822  
G01 X-2.6419 Y0.1846  
G01 X-2.7506 Y0.2188  
G01 X-2.7530 Y0.2224  
G01 X-2.7579 Y0.2273  
G01 X-2.7636 Y0.2312  
G01 X-2.7701 Y0.2338  
G01 X-2.7768 Y0.2352  
G01 X-2.8432 Y0.2352  
G01 X-2.8499 Y0.2338  
G01 X-2.8564 Y0.2312  
G01 X-2.8621 Y0.2273  
G01 X-2.8670 Y0.2224  
G01 X-2.8709 Y0.2167  
G01 X-2.8735 Y0.2103  
G01 X-2.8749 Y0.2035  
G01 X-2.8749 Y0.1965  
G01 X-2.8735 Y0.1897  
G01 X-2.8709 Y0.1833  
G01 X-2.8670 Y0.1776  
G01 X-2.8621 Y0.1727  
G01 X-2.8564 Y0.1688  
G01 X-2.8499 Y0.1662  
G01 X-2.8432 Y0.1648  
G01 X-2.7768 Y0.1648  
G01 X-2.7701 Y0.1662  
G01 X-2.7636 Y0.1688  
G01 X-2.7630 Y0.1692  
G01 X-2.6573 Y0.1359  
G01 X-2.6523 Y0.1354  
G01 X-2.6473 Y0.1358  
G01 X-2.6424 Y0.1372  
G01 X-2.6415 Y0.1377  
G01 X-2.6415 Y0.1370  
G01 X-2.6230 Y0.1185  
G01 X-2.5970 Y0.1185  
G01 X-2.5935 Y0.1219  
G01 X-2.5209 Y0.1196  
G01 X-2.5205 Y0.1195  
G01 X-2.5184 Y0.1195  
G01 X-2.5163 Y0.1194  
G01 X-2.5159 Y0.1195  
G01 X-2.4965 Y0.1195  
G01 X-2.4955 Y0.1194  
G01 X-2.4940 Y0.1195  
G01 X-2.4925 Y0.1195  
G01 X-2.4915 Y0.1197  
G01 X-2.4905 Y0.1198  
G01 X-2.4891 Y0.1202  
G01 X-2.4876 Y0.1205  
G01 X-2.4866 Y0.1209  
G01 X-2.3501 Y0.1592  
G01 X-2.3486 Y0.1595  
G01 X-2.3476 Y0.1599  
G01 X-2.3467 Y0.1601  
G01 X-2.3453 Y0.1608  
G01 X-2.3439 Y0.1614  
G01 X-2.3438 Y0.1615  
G01 X-2.3232 Y0.1615  
G01 X-2.3158 Y0.1630  
G01 X-2.3088 Y0.1659  
G01 X-2.3025 Y0.1701  
G01 X-2.2971 Y0.1755  
G01 X-2.2929 Y0.1818  
G01 X-2.2900 Y0.1888  
G01 X-2.2885 Y0.1962  
G01 X-2.2885 Y0.2038  
G01 X-2.2900 Y0.2112  
G01 X-2.2929 Y0.2182  
G01 X-2.2971 Y0.2245  
G01 X-2.3025 Y0.2299  
G00 Z0.0500  
G00 X-2.3025 Y0.6701  
G01 Z-0.0035 F10    
G01 X-2.2971 Y0.6755  F20    
G01 X-2.2929 Y0.6818  
G01 X-2.2900 Y0.6888  
G01 X-2.2885 Y0.6962  
G01 X-2.2885 Y0.7038  
G01 X-2.2900 Y0.7112  
G01 X-2.2929 Y0.7182  
G01 X-2.2971 Y0.7245  
G01 X-2.3025 Y0.7299  
G01 X-2.3088 Y0.7341  
G01 X-2.3158 Y0.7370  
G01 X-2.3232 Y0.7385  
G01 X-2.3968 Y0.7385  
G01 X-2.4042 Y0.7370  
G01 X-2.4112 Y0.7341  
G01 X-2.4175 Y0.7299  
G01 X-2.4229 Y0.7245  
G01 X-2.4271 Y0.7182  
G01 X-2.4283 Y0.7155  
G01 X-2.4455 Y0.7155  
G01 X-2.4475 Y0.7156  
G01 X-2.4480 Y0.7155  
G01 X-2.4485 Y0.7155  
G01 X-2.4505 Y0.7151  
G01 X-2.5670 Y0.6965  
G01 X-2.5678 Y0.6965  
G01 X-2.5701 Y0.6965  
G01 X-2.5703 Y0.6965  
G01 X-2.5705 Y0.6965  
G01 X-2.5728 Y0.6961  
G01 X-2.5750 Y0.6956  
G01 X-2.5752 Y0.6956  
G01 X-2.5754 Y0.6955  
G01 X-2.5776 Y0.6946  
G01 X-2.5976 Y0.6867  
G01 X-2.5977 Y0.6868  
G01 X-2.6019 Y0.6896  
G01 X-2.6066 Y0.6915  
G01 X-2.6115 Y0.6925  
G01 X-2.6726 Y0.6925  
G01 X-2.7457 Y0.7062  
G01 X-2.7465 Y0.7103  
G01 X-2.7491 Y0.7167  
G01 X-2.7530 Y0.7224  
G01 X-2.7579 Y0.7273  
G01 X-2.7636 Y0.7312  
G01 X-2.7701 Y0.7338  
G01 X-2.7768 Y0.7352  
G01 X-2.8432 Y0.7352  
G01 X-2.8499 Y0.7338  
G01 X-2.8564 Y0.7312  
G01 X-2.8621 Y0.7273  
G01 X-2.8670 Y0.7224  
G01 X-2.8709 Y0.7167  
G01 X-2.8735 Y0.7103  
G01 X-2.8749 Y0.7035  
G01 X-2.8749 Y0.6965  
G01 X-2.8735 Y0.6897  
G01 X-2.8709 Y0.6833  
G01 X-2.8670 Y0.6776  
G01 X-2.8621 Y0.6727  
G01 X-2.8564 Y0.6688  
G01 X-2.8499 Y0.6662  
G01 X-2.8432 Y0.6648  
G01 X-2.8020 Y0.6648  
G01 X-2.6798 Y0.6420  
G01 X-2.6775 Y0.6415  
G01 X-2.6774 Y0.6415  
G01 X-2.6772 Y0.6415  
G01 X-2.6749 Y0.6415  
G01 X-2.6415 Y0.6415  
G01 X-2.6415 Y0.6370  
G01 X-2.6230 Y0.6185  
G01 X-2.5970 Y0.6185  
G01 X-2.5785 Y0.6370  
G01 X-2.5785 Y0.6394  
G01 X-2.5633 Y0.6455  
G01 X-2.5630 Y0.6455  
G01 X-2.5625 Y0.6455  
G01 X-2.5605 Y0.6459  
G01 X-2.4440 Y0.6645  
G01 X-2.4079 Y0.6645  
G01 X-2.4042 Y0.6630  
G01 X-2.3968 Y0.6615  
G01 X-2.3232 Y0.6615  
G01 X-2.3158 Y0.6630  
G01 X-2.3088 Y0.6659  
G01 X-2.3025 Y0.6701  
G00 Z0.0500  
G00 X-2.3025 Y0.8701  
G01 Z-0.0035 F10    
G01 X-2.2971 Y0.8755  F20    
G01 X-2.2929 Y0.8818  
G01 X-2.2900 Y0.8888  
G01 X-2.2885 Y0.8962  
G01 X-2.2885 Y0.9038  
G01 X-2.2900 Y0.9112  
G01 X-2.2929 Y0.9182  
G01 X-2.2971 Y0.9245  
G01 X-2.2982 Y0.9257  
G01 X-2.2135 Y1.0104  
G01 X-2.2133 Y1.0106  
G01 X-2.2118 Y1.0122  
G01 X-2.2102 Y1.0137  
G01 X-2.2100 Y1.0140  
G01 X-2.0127 Y1.2208  
G01 X-1.9952 Y1.2208  
G01 X-1.9931 Y1.2216  
G01 X-1.9916 Y1.2231  
G01 X-1.9908 Y1.2252  
G01 X-1.9908 Y1.2748  
G01 X-1.9916 Y1.2769  
G01 X-1.9931 Y1.2784  
G01 X-1.9952 Y1.2792  
G01 X-2.0448 Y1.2792  
G01 X-2.0469 Y1.2784  
G01 X-2.0484 Y1.2769  
G01 X-2.0492 Y1.2748  
G01 X-2.0492 Y1.2563  
G01 X-2.2482 Y1.0478  
G01 X-2.3576 Y0.9385  
G01 X-2.3968 Y0.9385  
G01 X-2.4042 Y0.9370  
G01 X-2.4112 Y0.9341  
G01 X-2.4175 Y0.9299  
G01 X-2.4229 Y0.9245  
G01 X-2.4271 Y0.9182  
G01 X-2.4300 Y0.9112  
G01 X-2.4315 Y0.9038  
G01 X-2.4315 Y0.8962  
G01 X-2.4300 Y0.8888  
G01 X-2.4271 Y0.8818  
G01 X-2.4229 Y0.8755  
G01 X-2.4175 Y0.8701  
G01 X-2.4112 Y0.8659  
G01 X-2.4042 Y0.8630  
G01 X-2.3968 Y0.8615  
G01 X-2.3232 Y0.8615  
G01 X-2.3158 Y0.8630  
G01 X-2.3088 Y0.8659  
G01 X-2.3025 Y0.8701  
G00 Z0.0500  
G00 X-2.3025 Y1.1701  
G01 Z-0.0035 F10    
G01 X-2.2971 Y1.1755  F20    
G01 X-2.2929 Y1.1818  
G01 X-2.2900 Y1.1888  
G01 X-2.2885 Y1.1962  
G01 X-2.2885 Y1.2038  
G01 X-2.2900 Y1.2112  
G01 X-2.2929 Y1.2182  
G01 X-2.2971 Y1.2245  
G01 X-2.3025 Y1.2299  
G01 X-2.3088 Y1.2341  
G01 X-2.3158 Y1.2370  
G01 X-2.3232 Y1.2385  
G01 X-2.3968 Y1.2385  
G01 X-2.4042 Y1.2370  
G01 X-2.4112 Y1.2341  
G01 X-2.4175 Y1.2299  
G01 X-2.4229 Y1.2245  
G01 X-2.4249 Y1.2215  
G01 X-2.4939 Y1.2215  
G01 X-2.4944 Y1.2216  
G01 X-2.4965 Y1.2215  
G01 X-2.4985 Y1.2215  
G01 X-2.4990 Y1.2214  
G01 X-2.4994 Y1.2214  
G01 X-2.5014 Y1.2209  
G01 X-2.5034 Y1.2205  
G01 X-2.5039 Y1.2203  
G01 X-2.5043 Y1.2202  
G01 X-2.5062 Y1.2194  
G01 X-2.5081 Y1.2186  
G01 X-2.5085 Y1.2183  
G01 X-2.5935 Y1.1795  
G01 X-2.5950 Y1.1795  
G01 X-2.5970 Y1.1815  
G01 X-2.6230 Y1.1815  
G01 X-2.6284 Y1.1762  
G01 X-2.7458 Y1.2069  
G01 X-2.7465 Y1.2103  
G01 X-2.7491 Y1.2167  
G01 X-2.7530 Y1.2224  
G01 X-2.7579 Y1.2273  
G01 X-2.7636 Y1.2312  
G01 X-2.7701 Y1.2338  
G01 X-2.7768 Y1.2352  
G01 X-2.8432 Y1.2352  
G01 X-2.8499 Y1.2338  
G01 X-2.8564 Y1.2312  
G01 X-2.8621 Y1.2273  
G01 X-2.8670 Y1.2224  
G01 X-2.8709 Y1.2167  
G01 X-2.8735 Y1.2103  
G01 X-2.8749 Y1.2035  
G01 X-2.8749 Y1.1965  
G01 X-2.8735 Y1.1897  
G01 X-2.8709 Y1.1833  
G01 X-2.8670 Y1.1776  
G01 X-2.8621 Y1.1727  
G01 X-2.8564 Y1.1688  
G01 X-2.8499 Y1.1662  
G01 X-2.8432 Y1.1648  
G01 X-2.7863 Y1.1648  
G01 X-2.7854 Y1.1646  
G01 X-2.7839 Y1.1641  
G01 X-2.7830 Y1.1639  
G01 X-2.6330 Y1.1247  
G01 X-2.6290 Y1.1245  
G01 X-2.6230 Y1.1185  
G01 X-2.5970 Y1.1185  
G01 X-2.5910 Y1.1245  
G01 X-2.5885 Y1.1245  
G01 X-2.5836 Y1.1255  
G01 X-2.5789 Y1.1274  
G01 X-2.5747 Y1.1302  
G01 X-2.5714 Y1.1336  
G01 X-2.4905 Y1.1705  
G01 X-2.4179 Y1.1705  
G01 X-2.4175 Y1.1701  
G01 X-2.4112 Y1.1659  
G01 X-2.4042 Y1.1630  
G01 X-2.3968 Y1.1615  
G01 X-2.3232 Y1.1615  
G01 X-2.3158 Y1.1630  
G01 X-2.3088 Y1.1659  
G01 X-2.3025 Y1.1701  
G00 Z0.0500  
G00 X-2.3025 Y1.3701  
G01 Z-0.0035 F10    
G01 X-2.2971 Y1.3755  F20    
G01 X-2.2929 Y1.3818  
G01 X-2.2900 Y1.3888  
G01 X-2.2885 Y1.3962  
G01 X-2.2885 Y1.4038  
G01 X-2.2900 Y1.4112  
G01 X-2.2929 Y1.4182  
G01 X-2.2971 Y1.4245  
G01 X-2.0490 Y1.4245  
G01 X-2.0484 Y1.4231  
G01 X-2.0469 Y1.4216  
G01 X-2.0448 Y1.4208  
G01 X-1.9952 Y1.4208  
G01 X-1.9931 Y1.4216  
G01 X-1.9916 Y1.4231  
G01 X-1.9908 Y1.4252  
G01 X-1.9908 Y1.4748  
G01 X-1.9916 Y1.4769  
G01 X-1.9931 Y1.4784  
G01 X-1.9952 Y1.4792  
G01 X-2.0448 Y1.4792  
G01 X-2.0469 Y1.4784  
G01 X-2.0484 Y1.4769  
G01 X-2.0490 Y1.4755  
G01 X-2.3125 Y1.4755  
G01 X-2.3174 Y1.4745  
G01 X-2.3221 Y1.4726  
G01 X-2.3263 Y1.4698  
G01 X-2.3298 Y1.4663  
G01 X-2.3576 Y1.4385  
G01 X-2.3968 Y1.4385  
G01 X-2.4042 Y1.4370  
G01 X-2.4112 Y1.4341  
G01 X-2.4175 Y1.4299  
G01 X-2.4229 Y1.4245  
G01 X-2.4271 Y1.4182  
G01 X-2.4300 Y1.4112  
G01 X-2.4315 Y1.4038  
G01 X-2.4315 Y1.3962  
G01 X-2.4300 Y1.3888  
G01 X-2.4271 Y1.3818  
G01 X-2.4229 Y1.3755  
G01 X-2.4175 Y1.3701  
G01 X-2.4112 Y1.3659  
G01 X-2.4042 Y1.3630  
G01 X-2.3968 Y1.3615  
G01 X-2.3232 Y1.3615  
G01 X-2.3158 Y1.3630  
G01 X-2.3088 Y1.3659  
G01 X-2.3025 Y1.3701  
G00 Z0.0500  
G00 X-2.5785 Y1.4370  
G01 Z-0.0035 F10    
G01 X-2.5785 Y1.4630  F20    
G01 X-2.5970 Y1.4815  
G01 X-2.6230 Y1.4815  
G01 X-2.6300 Y1.4745  
G01 X-2.6457 Y1.4745  
G01 X-2.6460 Y1.4745  
G01 X-2.6482 Y1.4745  
G01 X-2.6505 Y1.4745  
G01 X-2.6508 Y1.4745  
G01 X-2.6510 Y1.4744  
G01 X-2.6532 Y1.4740  
G01 X-2.6554 Y1.4735  
G01 X-2.6557 Y1.4734  
G01 X-2.6559 Y1.4734  
G01 X-2.6580 Y1.4725  
G01 X-2.6601 Y1.4716  
G01 X-2.6603 Y1.4715  
G01 X-2.7516 Y1.4315  
G01 X-2.7730 Y1.4315  
G01 X-2.7915 Y1.4130  
G01 X-2.7915 Y1.3870  
G01 X-2.7730 Y1.3685  
G01 X-2.7470 Y1.3685  
G01 X-2.7303 Y1.3852  
G01 X-2.6427 Y1.4235  
G01 X-2.6280 Y1.4235  
G01 X-2.6230 Y1.4185  
G01 X-2.5970 Y1.4185  
G01 X-2.5785 Y1.4370  
G00 Z0.0500  
G00 X-2.5970 Y0.9815  
G01 Z-0.0035 F10    
G01 X-2.6230 Y0.9815  F20    
G01 X-2.6415 Y0.9630  
G01 X-2.6415 Y0.9615  
G01 X-2.6470 Y0.9615  
G01 X-2.6484 Y0.9616  
G01 X-2.6495 Y0.9615  
G01 X-2.6505 Y0.9615  
G01 X-2.6520 Y0.9612  
G01 X-2.6534 Y0.9610  
G01 X-2.6544 Y0.9607  
G01 X-2.6554 Y0.9605  
G01 X-2.6568 Y0.9600  
G01 X-2.7466 Y0.9311  
G01 X-2.7470 Y0.9315  
G01 X-2.7730 Y0.9315  
G01 X-2.7915 Y0.9130  
G01 X-2.7915 Y0.8870  
G01 X-2.7730 Y0.8685  
G01 X-2.7470 Y0.8685  
G01 X-2.7338 Y0.8816  
G01 X-2.6440 Y0.9105  
G01 X-2.6115 Y0.9105  
G01 X-2.6066 Y0.9115  
G01 X-2.6019 Y0.9134  
G01 X-2.5977 Y0.9162  
G01 X-2.5942 Y0.9197  
G01 X-2.5914 Y0.9239  
G01 X-2.5913 Y0.9241  
G01 X-2.5785 Y0.9370  
G01 X-2.5785 Y0.9630  
G01 X-2.5970 Y0.9815  
G00 Z0.0500  
G00 X-2.5970 Y0.4815  
G01 Z-0.0035 F10    
G01 X-2.6230 Y0.4815  F20    
G01 X-2.6290 Y0.4755  
G01 X-2.6297 Y0.4756  
G01 X-2.6347 Y0.4747  
G01 X-2.7488 Y0.4315  
G01 X-2.7730 Y0.4315  
G01 X-2.7915 Y0.4130  
G01 X-2.7915 Y0.3870  
G01 X-2.7730 Y0.3685  
G01 X-2.7470 Y0.3685  
G01 X-2.7322 Y0.3833  
G01 X-2.6275 Y0.4229  
G01 X-2.6230 Y0.4185  
G01 X-2.5970 Y0.4185  
G01 X-2.5785 Y0.4370  
G01 X-2.5785 Y0.4630  
G01 X-2.5970 Y0.4815  
G00 Z0.0500  
G00 X-0.0363 Y0.1822  
G01 Z-0.0035 F10    
G01 X-0.0332 Y0.1867  F20    
G01 X-0.0311 Y0.1918  
G01 X-0.0300 Y0.1972  
G01 X-0.0300 Y0.2988  
G01 X-0.0290 Y0.3552  
G01 X-0.0290 Y0.3556  
G01 X-0.0290 Y0.3579  
G01 X-0.0290 Y0.3603  
G01 X-0.0290 Y0.3607  
G01 X-0.0300 Y0.4372  
G01 X-0.0300 Y0.8194  
G01 X-0.0297 Y0.8195  
G01 X-0.0275 Y0.8217  
G01 X-0.0263 Y0.8247  
G01 X-0.0263 Y0.8753  
G01 X-0.0275 Y0.8783  
G01 X-0.0297 Y0.8805  
G01 X-0.0300 Y0.8806  
