(.../pcb-gcode-3.6.2.4/pcb-gcode.ulp)
(Copyright 2005 - 2012 by John Johnson)
(See readme.txt for licensing terms.)
(This file generated from the board:)
(.../high_start/eagle/high_start.brd)
(Current profile is .../pcb-gcode-3.6.2.4/profiles/mach.pp  )
(This file generated 1/7/17 8:18 AM)
(Settings from pcb-machine.h)
(spindle on time = 0.0000)
(spindle speed = 15000.0000)
(milling depth = -0.0730)
(tool change at 0.0000  0.0000  1.5000  )
(feed rate xy = F10    )
(feed rate z  = F5     )
(Z Axis Settings)
(  High     Up        Down     Drill)
(0.2500  	0.0500  	-0.0035 	-0.0710 )
(Settings from pcb-defaults.h)
(isolate min = 0.0040)
(isolate max = 0.0200)
(isolate step = 0.0025)
(Generated bottom outlines, bottom drill, )
(Unit of measure: inch)
(Inch Mode)
G20
(Absolute Coordinates)
G90
S15000
G00 Z0.2500  
G00 X0.0000  Y0.0000  
M03
G04 P0.000000
G00 Z0.0500  
G00 X0.0500  Y0.0200  
G01 Z-0.0730 F5     
G01 X0.0500  Y1.7500  F10    
G01 X0.1000  Y1.8000  
G01 X1.5100  Y1.8000  
G01 X1.7000  Y1.6500  
G01 X3.6300  Y1.6500  
G01 X3.7900  Y1.5500  
G01 X3.7900  Y0.0700  
G01 X3.7000  Y-0.0300 
G01 X0.1000  Y-0.0300 
G01 X0.0500  Y0.0200  
G00 Z0.0500  
G00 X0.8600  Y0.1800  
G01 Z-0.0730 F5     
G01 X1.1800  Y0.1800  F10    
G01 X1.1800  Y0.2500  
G01 X0.8600  Y0.2500  
G01 X0.8600  Y0.1800  
G00 Z0.0500  
G00 X0.6900  Y1.4800  
G01 Z-0.0730 F5     
G01 X0.6900  Y1.5500  F10    
G01 X0.6200  Y1.5500  
G01 X0.6200  Y1.4800  
G01 X0.6900  Y1.4800  
G00 Z0.0500  
G00 X2.7300  Y1.3800  
G01 Z-0.0730 F5     
G01 X3.2800  Y1.3800  F10    
G01 X3.2800  Y1.3100  
G01 X2.7300  Y1.3100  
G01 X2.7300  Y1.3800  
G00 Z0.0500  
G00 X2.7300  Y1.0900  
G01 Z-0.0730 F5     
G01 X2.7300  Y0.8000  F10    
G01 X3.2800  Y0.8000  
G01 X3.2800  Y1.0900  
G01 X2.7300  Y1.0900  
G00 Z0.0500  
G00 X2.7300  Y0.3300  
G01 Z-0.0730 F5     
G01 X3.2800  Y0.3300  F10    
G01 X3.2800  Y0.2600  
G01 X2.7300  Y0.2600  
G01 X2.7300  Y0.3300  
G00 Z0.2500  
M05
M02
