(.../pcb-gcode-3.6.2.4/pcb-gcode.ulp)
(Copyright 2005 - 2012 by John Johnson)
(See readme.txt for licensing terms.)
(This file generated from the board:)
(.../high_start/eagle/high_start.brd)
(Current profile is .../pcb-gcode-3.6.2.4/profiles/mach.pp  )
(This file generated 1/15/17 3:09 PM)
(Settings from pcb-machine.h)
(spindle on time = 0.0000)
(spindle speed = 20000.0000)
(tool change at 0.0000  0.0000  1.5000  )
(feed rate xy = F0     )
(feed rate z  = F20    )
(Z Axis Settings)
(  High     Up        Down     Drill)
(0.2500  	0.0500  	-0.0035 	-0.0710 )
(Settings from pcb-defaults.h)
(isolate min = 0.0040)
(isolate max = 0.0200)
(isolate step = 0.0025)
(Generated bottom outlines, bottom drill, )
(Unit of measure: inch)
( Tool|       Size       |  Min Sub |  Max Sub |   Count )
( T01 | 0.800mm 0.0315in | 0.0000in | 0.0000in |       0 )
( T02 | 0.813mm 0.0320in | 0.0000in | 0.0000in |       0 )
( T03 | 1.000mm 0.0394in | 0.0000in | 0.0000in |       0 )
( T04 | 1.016mm 0.0400in | 0.0000in | 0.0000in |       0 )
( T05 | 1.118mm 0.0440in | 0.0000in | 0.0000in |       0 )
(Inch Mode)
G20
(Absolute Coordinates)
G90
S20000
G00 Z0.2500  
G00 X0.0000  Y0.0000  
M03
G04 P0.000000
M05
G00 Z1.5000  
M06 T01  ; 0.0315  
G01 Z0.0000  F20    
M06 
G00 Z0.0500  
M03
G04 P0.000000
G82 X-0.0580 Y0.8500  Z-0.0710 F20    R0.0500  P0.250000
G82 X-0.2700 Y0.8500  
G82 X-1.4200 Y0.7700  
G82 X-1.4200 Y0.9900  
G82 X-1.7200 Y1.0500  
G82 X-1.7200 Y1.2500  
G82 X-1.7200 Y1.4500  
G82 X-2.0200 Y1.4500  
G82 X-2.0200 Y1.2500  
G82 X-2.0200 Y1.0500  
G82 X-1.6900 Y0.2000  
G82 X-1.4000 Y0.1500  
M05
G00 Z1.5000  
G00 X0.0000  Y0.0000  
M06 T02  ; 0.0320  
G01 Z0.0000  F20    
M06 
G00 Z0.0500  
M03
G04 P0.000000
G82 X-0.6800 Y0.5500  Z-0.0710 F20    R0.0500  P0.250000
G82 X-0.8200 Y0.5500  
G82 X-0.8200 Y0.6500  
G82 X-0.8200 Y0.7500  
G82 X-0.8200 Y0.8500  
G82 X-0.6800 Y0.8500  
G82 X-0.8000 Y1.0500  
G82 X-0.9700 Y0.9500  
G82 X-1.0700 Y0.9500  
G82 X-1.2700 Y0.9500  
G82 X-1.2700 Y0.8500  
G82 X-1.2700 Y0.7500  
G82 X-1.2700 Y0.6500  
G82 X-1.2700 Y0.5500  
G82 X-1.2700 Y0.4500  
G82 X-1.2700 Y0.3500  
G82 X-1.2700 Y0.2500  
G82 X-1.5700 Y0.2500  
G82 X-1.5700 Y0.3500  
G82 X-1.5700 Y0.4500  
G82 X-1.5700 Y0.5500  
G82 X-1.5700 Y0.6500  
G82 X-1.5700 Y0.7500  
G82 X-1.5700 Y0.8500  
G82 X-1.5700 Y0.9500  
G82 X-1.5700 Y1.0500  
G82 X-1.5700 Y1.1500  
G82 X-1.5700 Y1.2500  
G82 X-1.5700 Y1.3500  
G82 X-1.5700 Y1.4500  
G82 X-1.5700 Y1.5500  
G82 X-1.7200 Y1.6200  
G82 X-1.8200 Y1.6200  
G82 X-1.8200 Y1.3500  
G82 X-1.7200 Y1.3500  
G82 X-1.7200 Y1.1500  
G82 X-1.8200 Y1.1500  
G82 X-1.8200 Y0.9500  
G82 X-1.7200 Y0.9500  
G82 X-1.2700 Y1.0500  
G82 X-1.2700 Y1.1500  
G82 X-1.2700 Y1.2500  
G82 X-1.2700 Y1.3500  
G82 X-1.2700 Y1.4500  
G82 X-1.2700 Y1.5500  
G82 X-0.8000 Y1.3500  
G82 X-1.0200 Y0.7450  
G82 X-1.0200 Y0.5550  
G82 X-2.6100 Y0.6500  
G82 X-2.6100 Y0.4500  
G82 X-2.7600 Y0.4000  
G82 X-2.8600 Y0.4000  
G82 X-2.6100 Y0.1500  
G82 X-2.7600 Y0.9000  
G82 X-2.8600 Y0.9000  
G82 X-2.6100 Y0.9500  
G82 X-2.6100 Y1.1500  
G82 X-2.7600 Y1.4000  
G82 X-2.8600 Y1.4000  
G82 X-2.6100 Y1.4500  
M05
G00 Z1.5000  
G00 X0.0000  Y0.0000  
M06 T03  ; 0.0394  
G01 Z0.0000  F20    
M06 
G00 Z0.0500  
M03
G04 P0.000000
G82 X-0.0700 Y1.0500  Z-0.0710 F20    R0.0500  P0.250000
G82 X-0.1700 Y1.0500  
G82 X-0.2700 Y1.0500  
G82 X-0.3700 Y1.0500  
G82 X-0.5700 Y1.0000  
G82 X-0.6700 Y1.0000  
G82 X-1.0200 Y1.1000  
G82 X-1.0200 Y1.2000  
G82 X-1.0200 Y1.3000  
G82 X-1.0200 Y1.4000  
G82 X-0.3700 Y1.3000  
G82 X-0.2700 Y1.3000  
G82 X-0.1700 Y1.3000  
G82 X-0.0700 Y1.3000  
G82 X-0.0700 Y1.5500  
G82 X-0.1700 Y1.5500  
G82 X-0.2700 Y1.5500  
G82 X-0.3700 Y1.5500  
G82 X-0.3700 Y0.6500  
G82 X-0.2700 Y0.6500  
G82 X-0.1700 Y0.6500  
G82 X-0.1700 Y0.4500  
G82 X-0.1700 Y0.3500  
G82 X-0.1700 Y0.2500  
G82 X-0.4700 Y0.2500  
G82 X-0.4700 Y0.3500  
G82 X-0.4700 Y0.4500  
G82 X-1.8700 Y0.4000  
G82 X-1.8700 Y0.5000  
G82 X-1.8700 Y0.6000  
G82 X-1.8700 Y0.7000  
G82 X-1.8700 Y0.8000  
G82 X-1.8700 Y0.3000  
G82 X-1.8700 Y0.2000  
G82 X-2.8100 Y0.2000  
G82 X-2.8100 Y0.1000  
G82 X-2.8100 Y0.6000  
G82 X-2.8100 Y0.7000  
G82 X-2.8100 Y1.1000  
G82 X-2.8100 Y1.2000  
G82 X-2.5100 Y1.6000  
G82 X-2.5100 Y1.7000  
M05
G00 Z1.5000  
G00 X0.0000  Y0.0000  
M06 T04  ; 0.0400  
G01 Z0.0000  F20    
M06 
G00 Z0.0500  
M03
G04 P0.000000
G82 X-2.0200 Y1.6000  Z-0.0710 F20    R0.0500  P0.250000
G82 X-2.1200 Y1.6000  
G82 X-2.2200 Y1.6000  
M05
G00 Z1.5000  
G00 X0.0000  Y0.0000  
M06 T05  ; 0.0440  
G01 Z0.0000  F20    
M06 
G00 Z0.0500  
M03
G04 P0.000000
G82 X-2.3600 Y0.2000  Z-0.0710 F20    R0.0500  P0.250000
G82 X-2.3600 Y0.3000  
G82 X-2.3600 Y0.4000  
G82 X-2.3600 Y0.7000  
G82 X-2.3600 Y0.8000  
G82 X-2.3600 Y0.9000  
G82 X-2.3600 Y1.2000  
G82 X-2.3600 Y1.3000  
G82 X-2.3600 Y1.4000  
T01 
G00 Z0.2500  
M05
M02
